(G-CODE GENERATED BY FLATCAM v8.994 - www.flatcam.org - Version Date: 2020/11/7)

(Name: Halt - Bottom Copper.gbr_iso_combined_cnc)
(Type: G-code from Geometry)
(Units: MM)

(Created on Sunday, 08 December 2024 at 13:31)

(This preprocessor is the default preprocessor used by FlatCAM.)
(It is made to work with MACH3 compatible motion controllers.)

(TOOL DIAMETER: 0.331 mm)
(Feedrate_XY: 320.0 mm/min)
(Feedrate_Z: 60.0 mm/min)
(Feedrate rapids 1500.0 mm/min)

(Z_Cut: -0.2001 mm)
(Z_Move: 2.0 mm)
(Z Start: None mm)
(Z End: 15.0 mm)
(X,Y End: None mm)
(Steps per circle: 64)
(Preprocessor Geometry: default)

(X range:    3.4822 ...  159.1798  mm)
(Y range:    3.3822 ...  110.9249  mm)

(Spindle Speed: 0.0 RPM)
G21
G90
G94

G01 F320.00
G00 Z15.0000

M03
G01 F320.00
G00 X6.1080 Y4.1799
G01 F60.00
G01 Z-0.2001
G01 F320.00
G01 X6.7190 Y4.1799
G01 X6.7359 Y4.1637
G01 X6.8013 Y4.1044
G01 X6.8185 Y4.0895
G01 X6.8365 Y4.0755
G01 X6.9074 Y4.0229
G01 X6.9260 Y4.0098
G01 X6.9452 Y3.9977
G01 X7.0210 Y3.9523
G01 X7.0408 Y3.9410
G01 X7.0611 Y3.9308
G01 X7.1409 Y3.8931
G01 X7.1617 Y3.8838
G01 X7.1830 Y3.8757
G01 X7.2661 Y3.8459
G01 X7.2877 Y3.8388
G01 X7.3096 Y3.8327
G01 X7.3953 Y3.8112
G01 X7.4175 Y3.8063
G01 X7.4399 Y3.8024
G01 X7.5273 Y3.7894
G01 X7.5499 Y3.7866
G01 X7.5725 Y3.7849
G01 X7.6608 Y3.7806
G01 X7.6835 Y3.7801
G01 X7.7062 Y3.7806
G01 X7.7945 Y3.7849
G01 X7.8171 Y3.7866
G01 X7.8397 Y3.7894
G01 X7.9271 Y3.8024
G01 X7.9495 Y3.8063
G01 X7.9717 Y3.8112
G01 X8.0574 Y3.8327
G01 X8.0793 Y3.8388
G01 X8.1009 Y3.8459
G01 X8.1840 Y3.8757
G01 X8.2053 Y3.8838
G01 X8.2261 Y3.8931
G01 X8.3059 Y3.9308
G01 X8.3262 Y3.9410
G01 X8.3460 Y3.9523
G01 X8.4218 Y3.9977
G01 X8.4410 Y4.0098
G01 X8.4596 Y4.0229
G01 X8.5305 Y4.0755
G01 X8.5485 Y4.0895
G01 X8.5657 Y4.1044
G01 X8.6311 Y4.1637
G01 X8.6480 Y4.1799
G01 X9.2590 Y4.1799
G01 X9.2759 Y4.1637
G01 X9.3413 Y4.1044
G01 X9.3585 Y4.0895
G01 X9.3765 Y4.0755
G01 X9.4474 Y4.0229
G01 X9.4660 Y4.0098
G01 X9.4852 Y3.9977
G01 X9.5610 Y3.9523
G01 X9.5808 Y3.9410
G01 X9.6011 Y3.9308
G01 X9.6809 Y3.8931
G01 X9.7017 Y3.8838
G01 X9.7230 Y3.8757
G01 X9.8061 Y3.8459
G01 X9.8277 Y3.8388
G01 X9.8496 Y3.8327
G01 X9.9353 Y3.8112
G01 X9.9575 Y3.8063
G01 X9.9799 Y3.8024
G01 X10.0673 Y3.7894
G01 X10.0899 Y3.7866
G01 X10.1125 Y3.7849
G01 X10.2008 Y3.7806
G01 X10.2235 Y3.7801
G01 X10.2462 Y3.7806
G01 X10.3345 Y3.7849
G01 X10.3571 Y3.7866
G01 X10.3797 Y3.7894
G01 X10.4671 Y3.8024
G01 X10.4895 Y3.8063
G01 X10.5117 Y3.8112
G01 X10.5974 Y3.8327
G01 X10.6193 Y3.8388
G01 X10.6409 Y3.8459
G01 X10.7240 Y3.8757
G01 X10.7453 Y3.8838
G01 X10.7661 Y3.8931
G01 X10.8459 Y3.9308
G01 X10.8662 Y3.9410
G01 X10.8860 Y3.9523
G01 X10.9618 Y3.9977
G01 X10.9810 Y4.0098
G01 X10.9996 Y4.0229
G01 X11.0705 Y4.0755
G01 X11.0885 Y4.0895
G01 X11.1057 Y4.1044
G01 X11.1711 Y4.1637
G01 X11.1880 Y4.1799
G01 X24.3635 Y4.1799
G01 X24.4130 Y4.1252
G01 X24.4287 Y4.1087
G01 X24.4452 Y4.0930
G01 X24.5179 Y4.0271
G01 X24.5264 Y4.0196
G01 X24.5440 Y4.0052
G01 X24.6319 Y3.9398
G01 X24.6505 Y3.9267
G01 X24.6600 Y3.9205
G01 X24.7637 Y3.8584
G01 X24.7838 Y3.8477
G01 X24.7940 Y3.8427
G01 X24.8930 Y3.7960
G01 X24.9140 Y3.7873
G01 X24.9247 Y3.7833
G01 X25.0171 Y3.7503
G01 X25.0387 Y3.7431
G01 X25.0606 Y3.7371
G01 X25.1558 Y3.7132
G01 X25.1780 Y3.7082
G01 X25.2004 Y3.7043
G01 X25.2975 Y3.6899
G01 X25.3201 Y3.6872
G01 X25.3427 Y3.6855
G01 X25.4408 Y3.6807
G01 X25.4635 Y3.6801
G01 X25.4862 Y3.6807
G01 X25.5843 Y3.6855
G01 X25.6069 Y3.6872
G01 X25.6295 Y3.6899
G01 X25.7266 Y3.7043
G01 X25.7490 Y3.7082
G01 X25.7712 Y3.7132
G01 X25.8664 Y3.7371
G01 X25.8883 Y3.7431
G01 X25.9099 Y3.7503
G01 X26.0023 Y3.7833
G01 X26.0235 Y3.7915
G01 X26.0340 Y3.7960
G01 X26.1330 Y3.8427
G01 X26.1432 Y3.8477
G01 X26.1633 Y3.8584
G01 X26.2670 Y3.9205
G01 X26.2765 Y3.9267
G01 X26.2951 Y3.9398
G01 X26.3830 Y4.0052
G01 X26.4006 Y4.0196
G01 X26.4091 Y4.0271
G01 X26.4818 Y4.0930
G01 X26.4983 Y4.1087
G01 X26.5140 Y4.1252
G01 X26.5635 Y4.1799
G01 X31.9835 Y4.1799
G01 X32.0330 Y4.1252
G01 X32.0487 Y4.1087
G01 X32.0652 Y4.0930
G01 X32.1379 Y4.0271
G01 X32.1464 Y4.0196
G01 X32.1640 Y4.0052
G01 X32.2519 Y3.9398
G01 X32.2705 Y3.9267
G01 X32.2800 Y3.9205
G01 X32.3837 Y3.8584
G01 X32.3937 Y3.8529
G01 X32.4140 Y3.8427
G01 X32.5130 Y3.7960
G01 X32.5235 Y3.7915
G01 X32.5447 Y3.7833
G01 X32.6371 Y3.7503
G01 X32.6587 Y3.7431
G01 X32.6806 Y3.7371
G01 X32.7758 Y3.7132
G01 X32.7980 Y3.7082
G01 X32.8204 Y3.7043
G01 X32.9175 Y3.6899
G01 X32.9401 Y3.6872
G01 X32.9627 Y3.6855
G01 X33.0608 Y3.6807
G01 X33.0835 Y3.6801
G01 X33.1062 Y3.6807
G01 X33.2043 Y3.6855
G01 X33.2269 Y3.6872
G01 X33.2495 Y3.6899
G01 X33.3466 Y3.7043
G01 X33.3690 Y3.7082
G01 X33.3912 Y3.7132
G01 X33.4864 Y3.7371
G01 X33.5083 Y3.7431
G01 X33.5299 Y3.7503
G01 X33.6223 Y3.7833
G01 X33.6330 Y3.7873
G01 X33.6540 Y3.7960
G01 X33.7530 Y3.8427
G01 X33.7632 Y3.8477
G01 X33.7833 Y3.8584
G01 X33.8870 Y3.9205
G01 X33.8965 Y3.9267
G01 X33.9151 Y3.9398
G01 X34.0030 Y4.0052
G01 X34.0119 Y4.0123
G01 X34.0291 Y4.0271
G01 X34.1018 Y4.0930
G01 X34.1183 Y4.1087
G01 X34.1340 Y4.1252
G01 X34.1835 Y4.1799
G01 X39.6035 Y4.1799
G01 X39.6530 Y4.1252
G01 X39.6687 Y4.1087
G01 X39.6852 Y4.0930
G01 X39.7579 Y4.0271
G01 X39.7664 Y4.0196
G01 X39.7840 Y4.0052
G01 X39.8719 Y3.9398
G01 X39.8905 Y3.9267
G01 X39.9000 Y3.9205
G01 X40.0037 Y3.8584
G01 X40.0238 Y3.8477
G01 X40.0340 Y3.8427
G01 X40.1330 Y3.7960
G01 X40.1540 Y3.7873
G01 X40.1647 Y3.7833
G01 X40.2571 Y3.7503
G01 X40.2787 Y3.7431
G01 X40.3006 Y3.7371
G01 X40.3958 Y3.7132
G01 X40.4180 Y3.7082
G01 X40.4404 Y3.7043
G01 X40.5375 Y3.6899
G01 X40.5601 Y3.6872
G01 X40.5827 Y3.6855
G01 X40.6808 Y3.6807
G01 X40.6921 Y3.6802
G01 X40.7149 Y3.6802
G01 X40.8243 Y3.6855
G01 X40.8469 Y3.6872
G01 X40.8695 Y3.6899
G01 X40.9666 Y3.7043
G01 X40.9890 Y3.7082
G01 X41.0112 Y3.7132
G01 X41.1064 Y3.7371
G01 X41.1283 Y3.7431
G01 X41.1499 Y3.7503
G01 X41.2423 Y3.7833
G01 X41.2530 Y3.7873
G01 X41.2740 Y3.7960
G01 X41.3730 Y3.8427
G01 X41.3933 Y3.8529
G01 X41.4131 Y3.8641
G01 X41.4973 Y3.9146
G01 X41.5165 Y3.9267
G01 X41.5351 Y3.9398
G01 X41.6139 Y3.9983
G01 X41.6319 Y4.0123
G01 X41.6491 Y4.0271
G01 X41.7218 Y4.0930
G01 X41.7383 Y4.1087
G01 X41.7540 Y4.1252
G01 X41.8199 Y4.1979
G01 X41.8347 Y4.2151
G01 X41.8487 Y4.2331
G01 X41.9072 Y4.3119
G01 X41.9203 Y4.3305
G01 X41.9324 Y4.3497
G01 X41.9829 Y4.4339
G01 X41.9941 Y4.4537
G01 X42.0043 Y4.4740
G01 X42.0510 Y4.5730
G01 X42.0597 Y4.5940
G01 X42.0637 Y4.6047
G01 X42.0967 Y4.6971
G01 X42.1039 Y4.7187
G01 X42.1099 Y4.7406
G01 X42.1338 Y4.8358
G01 X42.1388 Y4.8580
G01 X42.1427 Y4.8804
G01 X42.1571 Y4.9775
G01 X42.1598 Y5.0001
G01 X42.1615 Y5.0227
G01 X42.1663 Y5.1208
G01 X42.1669 Y5.1435
G01 X42.1663 Y5.1662
G01 X42.1615 Y5.2643
G01 X42.1598 Y5.2869
G01 X42.1571 Y5.3095
G01 X42.1427 Y5.4066
G01 X42.1388 Y5.4290
G01 X42.1338 Y5.4512
G01 X42.1099 Y5.5464
G01 X42.1039 Y5.5683
G01 X42.0967 Y5.5899
G01 X42.0637 Y5.6823
G01 X42.0597 Y5.6930
G01 X42.0510 Y5.7140
G01 X42.0043 Y5.8130
G01 X41.9941 Y5.8333
G01 X41.9829 Y5.8531
G01 X41.9265 Y5.9470
G01 X41.9138 Y5.9659
G01 X41.9072 Y5.9751
G01 X41.8487 Y6.0539
G01 X41.8347 Y6.0719
G01 X41.8199 Y6.0891
G01 X41.7540 Y6.1618
G01 X41.7383 Y6.1783
G01 X41.7218 Y6.1940
G01 X41.6491 Y6.2599
G01 X41.6319 Y6.2747
G01 X41.6139 Y6.2887
G01 X41.5351 Y6.3472
G01 X41.5165 Y6.3603
G01 X41.4973 Y6.3724
G01 X41.4288 Y6.4135
G01 X41.4973 Y6.4546
G01 X41.5165 Y6.4667
G01 X41.5351 Y6.4798
G01 X41.6139 Y6.5383
G01 X41.6319 Y6.5523
G01 X41.6491 Y6.5671
G01 X41.7218 Y6.6330
G01 X41.7383 Y6.6487
G01 X41.7540 Y6.6652
G01 X41.8274 Y6.7464
G01 X41.8418 Y6.7640
G01 X41.8487 Y6.7731
G01 X41.9072 Y6.8519
G01 X41.9203 Y6.8705
G01 X41.9324 Y6.8897
G01 X41.9829 Y6.9739
G01 X41.9941 Y6.9937
G01 X42.0043 Y7.0140
G01 X42.0463 Y7.1027
G01 X42.0555 Y7.1235
G01 X42.0637 Y7.1447
G01 X42.0967 Y7.2371
G01 X42.1039 Y7.2587
G01 X42.1099 Y7.2806
G01 X42.1338 Y7.3758
G01 X42.1388 Y7.3980
G01 X42.1427 Y7.4204
G01 X42.1586 Y7.5288
G01 X42.1598 Y7.5401
G01 X42.1615 Y7.5627
G01 X42.1663 Y7.6608
G01 X42.1669 Y7.6835
G01 X42.1663 Y7.7062
G01 X42.1615 Y7.8043
G01 X42.1598 Y7.8269
G01 X42.1571 Y7.8495
G01 X42.1427 Y7.9466
G01 X42.1388 Y7.9690
G01 X42.1338 Y7.9912
G01 X42.1070 Y8.0974
G01 X42.1039 Y8.1083
G01 X42.0967 Y8.1299
G01 X42.0637 Y8.2223
G01 X42.0555 Y8.2435
G01 X42.0463 Y8.2643
G01 X42.0043 Y8.3530
G01 X41.9941 Y8.3733
G01 X41.9829 Y8.3931
G01 X41.9324 Y8.4773
G01 X41.9203 Y8.4965
G01 X41.9072 Y8.5151
G01 X41.8487 Y8.5939
G01 X41.8347 Y8.6119
G01 X41.8199 Y8.6291
G01 X41.7540 Y8.7018
G01 X41.7383 Y8.7183
G01 X41.7218 Y8.7340
G01 X41.6491 Y8.7999
G01 X41.6319 Y8.8147
G01 X41.6139 Y8.8287
G01 X41.5351 Y8.8872
G01 X41.5165 Y8.9003
G01 X41.4973 Y8.9124
G01 X41.4131 Y8.9629
G01 X41.3933 Y8.9741
G01 X41.3730 Y8.9843
G01 X41.2843 Y9.0263
G01 X41.2635 Y9.0355
G01 X41.2423 Y9.0437
G01 X41.1499 Y9.0767
G01 X41.1283 Y9.0839
G01 X41.1064 Y9.0899
G01 X41.0112 Y9.1138
G01 X40.9890 Y9.1188
G01 X40.9666 Y9.1227
G01 X40.8695 Y9.1371
G01 X40.8469 Y9.1398
G01 X40.8243 Y9.1415
G01 X40.7262 Y9.1463
G01 X40.7035 Y9.1469
G01 X40.6808 Y9.1463
G01 X40.5827 Y9.1415
G01 X40.5601 Y9.1398
G01 X40.5375 Y9.1371
G01 X40.4404 Y9.1227
G01 X40.4180 Y9.1188
G01 X40.3958 Y9.1138
G01 X40.3006 Y9.0899
G01 X40.2787 Y9.0839
G01 X40.2679 Y9.0804
G01 X40.1647 Y9.0437
G01 X40.1435 Y9.0355
G01 X40.1227 Y9.0263
G01 X40.0340 Y8.9843
G01 X40.0137 Y8.9741
G01 X39.9939 Y8.9629
G01 X39.9097 Y8.9124
G01 X39.8905 Y8.9003
G01 X39.8719 Y8.8872
G01 X39.7931 Y8.8287
G01 X39.7840 Y8.8218
G01 X39.7664 Y8.8074
G01 X39.6852 Y8.7340
G01 X39.6687 Y8.7183
G01 X39.6530 Y8.7018
G01 X39.6035 Y8.6471
G01 X34.1835 Y8.6471
G01 X34.1340 Y8.7018
G01 X34.1183 Y8.7183
G01 X34.1018 Y8.7340
G01 X34.0291 Y8.7999
G01 X34.0206 Y8.8074
G01 X34.0030 Y8.8218
G01 X33.9151 Y8.8872
G01 X33.8965 Y8.9003
G01 X33.8870 Y8.9065
G01 X33.7833 Y8.9686
G01 X33.7733 Y8.9741
G01 X33.7530 Y8.9843
G01 X33.6540 Y9.0310
G01 X33.6435 Y9.0355
G01 X33.6223 Y9.0437
G01 X33.5299 Y9.0767
G01 X33.5083 Y9.0839
G01 X33.4864 Y9.0899
G01 X33.3912 Y9.1138
G01 X33.3690 Y9.1188
G01 X33.3466 Y9.1227
G01 X33.2495 Y9.1371
G01 X33.2269 Y9.1398
G01 X33.2043 Y9.1415
G01 X33.1062 Y9.1463
G01 X33.0835 Y9.1469
G01 X33.0608 Y9.1463
G01 X32.9627 Y9.1415
G01 X32.9401 Y9.1398
G01 X32.9175 Y9.1371
G01 X32.8204 Y9.1227
G01 X32.7980 Y9.1188
G01 X32.7758 Y9.1138
G01 X32.6806 Y9.0899
G01 X32.6587 Y9.0839
G01 X32.6371 Y9.0767
G01 X32.5447 Y9.0437
G01 X32.5340 Y9.0397
G01 X32.5130 Y9.0310
G01 X32.4140 Y8.9843
G01 X32.4038 Y8.9793
G01 X32.3837 Y8.9686
G01 X32.2800 Y8.9065
G01 X32.2611 Y8.8938
G01 X32.2519 Y8.8872
G01 X32.1640 Y8.8218
G01 X32.1551 Y8.8147
G01 X32.1379 Y8.7999
G01 X32.0652 Y8.7340
G01 X32.0487 Y8.7183
G01 X32.0330 Y8.7018
G01 X31.9835 Y8.6471
G01 X26.5635 Y8.6471
G01 X26.5140 Y8.7018
G01 X26.4983 Y8.7183
G01 X26.4818 Y8.7340
G01 X26.4091 Y8.7999
G01 X26.3919 Y8.8147
G01 X26.3830 Y8.8218
G01 X26.2951 Y8.8872
G01 X26.2765 Y8.9003
G01 X26.2670 Y8.9065
G01 X26.1633 Y8.9686
G01 X26.1533 Y8.9741
G01 X26.1330 Y8.9843
G01 X26.0340 Y9.0310
G01 X26.0235 Y9.0355
G01 X26.0023 Y9.0437
G01 X25.9099 Y9.0767
G01 X25.8883 Y9.0839
G01 X25.8664 Y9.0899
G01 X25.7712 Y9.1138
G01 X25.7490 Y9.1188
G01 X25.7266 Y9.1227
G01 X25.6295 Y9.1371
G01 X25.6069 Y9.1398
G01 X25.5843 Y9.1415
G01 X25.4862 Y9.1463
G01 X25.4635 Y9.1469
G01 X25.4408 Y9.1463
G01 X25.3427 Y9.1415
G01 X25.3201 Y9.1398
G01 X25.2975 Y9.1371
G01 X25.2004 Y9.1227
G01 X25.1780 Y9.1188
G01 X25.1558 Y9.1138
G01 X25.0606 Y9.0899
G01 X25.0387 Y9.0839
G01 X25.0171 Y9.0767
G01 X24.9247 Y9.0437
G01 X24.9035 Y9.0355
G01 X24.8930 Y9.0310
G01 X24.7940 Y8.9843
G01 X24.7737 Y8.9741
G01 X24.7637 Y8.9686
G01 X24.6600 Y8.9065
G01 X24.6411 Y8.8938
G01 X24.6319 Y8.8872
G01 X24.5440 Y8.8218
G01 X24.5351 Y8.8147
G01 X24.5179 Y8.7999
G01 X24.4452 Y8.7340
G01 X24.4287 Y8.7183
G01 X24.4130 Y8.7018
G01 X24.3635 Y8.6471
G01 X17.8672 Y8.6471
G01 X17.6891 Y8.6559
G01 X17.5362 Y8.6786
G01 X17.3862 Y8.7161
G01 X17.2407 Y8.7682
G01 X17.1010 Y8.8343
G01 X16.9684 Y8.9138
G01 X16.8442 Y9.0059
G01 X16.7297 Y9.1097
G01 X16.6259 Y9.2242
G01 X16.5338 Y9.3484
G01 X16.4543 Y9.4810
G01 X16.4510 Y9.4880
G01 X16.4947 Y9.5610
G01 X16.5060 Y9.5808
G01 X16.5112 Y9.5909
G01 X16.5587 Y9.6913
G01 X16.5674 Y9.7123
G01 X16.5735 Y9.7290
G01 X16.5838 Y9.7017
G01 X16.5931 Y9.6809
G01 X16.6358 Y9.5909
G01 X16.6410 Y9.5808
G01 X16.6523 Y9.5610
G01 X16.6977 Y9.4852
G01 X16.7098 Y9.4660
G01 X16.7229 Y9.4474
G01 X16.7755 Y9.3765
G01 X16.7895 Y9.3585
G01 X16.8044 Y9.3413
G01 X16.8637 Y9.2759
G01 X16.8794 Y9.2594
G01 X16.8959 Y9.2437
G01 X16.9613 Y9.1844
G01 X16.9785 Y9.1695
G01 X16.9965 Y9.1555
G01 X17.0674 Y9.1029
G01 X17.0860 Y9.0898
G01 X17.1052 Y9.0777
G01 X17.1810 Y9.0323
G01 X17.2008 Y9.0210
G01 X17.2211 Y9.0108
G01 X17.3009 Y8.9731
G01 X17.3217 Y8.9638
G01 X17.3430 Y8.9557
G01 X17.4261 Y8.9259
G01 X17.4477 Y8.9188
G01 X17.4696 Y8.9127
G01 X17.5553 Y8.8912
G01 X17.5775 Y8.8863
G01 X17.5999 Y8.8824
G01 X17.6873 Y8.8694
G01 X17.7099 Y8.8666
G01 X17.7325 Y8.8649
G01 X17.8208 Y8.8606
G01 X17.8435 Y8.8601
G01 X17.8662 Y8.8606
G01 X17.9545 Y8.8649
G01 X17.9771 Y8.8666
G01 X17.9997 Y8.8694
G01 X18.0871 Y8.8824
G01 X18.1095 Y8.8863
G01 X18.1317 Y8.8912
G01 X18.2174 Y8.9127
G01 X18.2393 Y8.9188
G01 X18.2609 Y8.9259
G01 X18.3440 Y8.9557
G01 X18.3653 Y8.9638
G01 X18.3861 Y8.9731
G01 X18.4659 Y9.0108
G01 X18.4862 Y9.0210
G01 X18.5060 Y9.0323
G01 X18.5818 Y9.0777
G01 X18.6010 Y9.0898
G01 X18.6196 Y9.1029
G01 X18.6905 Y9.1555
G01 X18.7085 Y9.1695
G01 X18.7257 Y9.1844
G01 X18.7911 Y9.2437
G01 X18.8080 Y9.2599
G01 X144.8198 Y9.2599
G01 X144.9979 Y9.2511
G01 X145.1508 Y9.2284
G01 X145.3008 Y9.1909
G01 X145.4463 Y9.1388
G01 X145.5860 Y9.0727
G01 X145.7186 Y8.9932
G01 X145.8428 Y8.9011
G01 X145.9573 Y8.7973
G01 X146.0611 Y8.6828
G01 X146.1532 Y8.5586
G01 X146.2327 Y8.4260
G01 X146.2988 Y8.2863
G01 X146.3509 Y8.1408
G01 X146.3884 Y7.9908
G01 X146.4111 Y7.8379
G01 X146.4188 Y7.6821
G01 X146.4121 Y7.5381
G01 X146.3920 Y7.3940
G01 X146.3587 Y7.2524
G01 X146.3124 Y7.1144
G01 X146.2537 Y6.9813
G01 X146.1829 Y6.8542
G01 X146.1006 Y6.7342
G01 X146.0077 Y6.6222
G01 X145.9048 Y6.5193
G01 X145.7928 Y6.4264
G01 X145.6728 Y6.3441
G01 X145.5782 Y6.2915
G01 X145.5060 Y6.3347
G01 X145.4862 Y6.3460
G01 X145.4659 Y6.3562
G01 X145.3861 Y6.3939
G01 X145.3653 Y6.4032
G01 X145.3440 Y6.4113
G01 X145.2609 Y6.4411
G01 X145.2393 Y6.4482
G01 X145.2174 Y6.4543
G01 X145.1317 Y6.4758
G01 X145.1206 Y6.4784
G01 X145.0983 Y6.4828
G01 X144.9997 Y6.4976
G01 X144.9771 Y6.5004
G01 X144.9545 Y6.5021
G01 X144.8662 Y6.5064
G01 X144.8435 Y6.5069
G01 X144.8208 Y6.5064
G01 X144.7325 Y6.5021
G01 X144.7099 Y6.5004
G01 X144.6873 Y6.4976
G01 X144.5999 Y6.4846
G01 X144.5775 Y6.4807
G01 X144.5553 Y6.4758
G01 X144.4696 Y6.4543
G01 X144.4477 Y6.4482
G01 X144.4261 Y6.4411
G01 X144.3323 Y6.4074
G01 X144.3217 Y6.4032
G01 X144.3009 Y6.3939
G01 X144.2211 Y6.3562
G01 X144.2008 Y6.3460
G01 X144.1810 Y6.3347
G01 X144.1052 Y6.2893
G01 X144.0860 Y6.2772
G01 X144.0674 Y6.2641
G01 X143.9965 Y6.2115
G01 X143.9785 Y6.1975
G01 X143.9613 Y6.1826
G01 X143.8959 Y6.1233
G01 X143.8794 Y6.1076
G01 X143.8637 Y6.0911
G01 X143.8044 Y6.0257
G01 X143.7895 Y6.0085
G01 X143.7755 Y5.9905
G01 X143.7229 Y5.9196
G01 X143.7098 Y5.9010
G01 X143.6977 Y5.8818
G01 X143.6523 Y5.8060
G01 X143.6410 Y5.7862
G01 X143.6308 Y5.7659
G01 X143.5931 Y5.6861
G01 X143.5838 Y5.6653
G01 X143.5757 Y5.6440
G01 X143.5459 Y5.5609
G01 X143.5388 Y5.5393
G01 X143.5327 Y5.5174
G01 X143.5086 Y5.4206
G01 X143.5042 Y5.3983
G01 X143.5024 Y5.3871
G01 X143.4894 Y5.2997
G01 X143.4866 Y5.2771
G01 X143.4849 Y5.2545
G01 X143.4806 Y5.1662
G01 X143.4801 Y5.1435
G01 X143.4806 Y5.1208
G01 X143.4849 Y5.0325
G01 X143.4866 Y5.0099
G01 X143.4894 Y4.9873
G01 X143.5024 Y4.8999
G01 X143.5063 Y4.8775
G01 X143.5112 Y4.8553
G01 X143.5327 Y4.7696
G01 X143.5388 Y4.7477
G01 X143.5422 Y4.7369
G01 X143.5757 Y4.6430
G01 X143.5838 Y4.6217
G01 X143.5931 Y4.6009
G01 X143.6358 Y4.5109
G01 X143.6410 Y4.5008
G01 X143.6523 Y4.4810
G01 X143.6977 Y4.4052
G01 X143.7098 Y4.3860
G01 X143.7229 Y4.3674
G01 X143.7755 Y4.2965
G01 X143.7895 Y4.2785
G01 X143.8044 Y4.2613
G01 X143.8715 Y4.1875
G01 X143.8875 Y4.1715
G01 X143.8959 Y4.1637
G01 X143.9613 Y4.1044
G01 X143.9785 Y4.0895
G01 X143.9965 Y4.0755
G01 X144.0674 Y4.0229
G01 X144.0860 Y4.0098
G01 X144.1052 Y3.9977
G01 X144.1810 Y3.9523
G01 X144.2008 Y3.9410
G01 X144.2211 Y3.9308
G01 X144.3009 Y3.8931
G01 X144.3217 Y3.8838
G01 X144.3430 Y3.8757
G01 X144.4261 Y3.8459
G01 X144.4477 Y3.8388
G01 X144.4696 Y3.8327
G01 X144.5553 Y3.8112
G01 X144.5664 Y3.8086
G01 X144.5887 Y3.8042
G01 X144.6873 Y3.7894
G01 X144.7099 Y3.7866
G01 X144.7325 Y3.7849
G01 X144.8208 Y3.7806
G01 X144.8435 Y3.7801
G01 X144.8662 Y3.7806
G01 X144.9545 Y3.7849
G01 X144.9771 Y3.7866
G01 X144.9997 Y3.7894
G01 X145.0871 Y3.8024
G01 X145.1095 Y3.8063
G01 X145.1317 Y3.8112
G01 X145.2174 Y3.8327
G01 X145.2393 Y3.8388
G01 X145.2609 Y3.8459
G01 X145.3440 Y3.8757
G01 X145.3653 Y3.8838
G01 X145.3861 Y3.8931
G01 X145.4659 Y3.9308
G01 X145.4862 Y3.9410
G01 X145.5060 Y3.9523
G01 X145.5818 Y3.9977
G01 X145.6010 Y4.0098
G01 X145.6196 Y4.0229
G01 X145.6905 Y4.0755
G01 X145.7085 Y4.0895
G01 X145.7257 Y4.1044
G01 X145.7911 Y4.1637
G01 X145.8076 Y4.1794
G01 X145.8233 Y4.1959
G01 X145.8826 Y4.2613
G01 X145.8975 Y4.2785
G01 X145.9115 Y4.2965
G01 X145.9634 Y4.3665
G01 X146.0673 Y4.4013
G01 X146.0874 Y4.4086
G01 X146.1404 Y4.4293
G01 X146.2060 Y4.4581
G01 X146.2436 Y4.3955
G01 X146.2563 Y4.3766
G01 X146.3155 Y4.2965
G01 X146.3295 Y4.2785
G01 X146.3444 Y4.2613
G01 X146.4037 Y4.1959
G01 X146.4194 Y4.1794
G01 X146.4359 Y4.1637
G01 X146.5098 Y4.0969
G01 X146.5274 Y4.0824
G01 X146.5365 Y4.0755
G01 X146.6074 Y4.0229
G01 X146.6260 Y4.0098
G01 X146.6452 Y3.9977
G01 X146.7210 Y3.9523
G01 X146.7408 Y3.9410
G01 X146.7611 Y3.9308
G01 X146.8513 Y3.8883
G01 X146.8617 Y3.8838
G01 X146.8830 Y3.8757
G01 X146.9661 Y3.8459
G01 X146.9877 Y3.8388
G01 X147.0096 Y3.8327
G01 X147.0953 Y3.8112
G01 X147.1175 Y3.8063
G01 X147.1399 Y3.8024
G01 X147.2273 Y3.7894
G01 X147.2499 Y3.7866
G01 X147.2725 Y3.7849
G01 X147.3608 Y3.7806
G01 X147.3835 Y3.7801
G01 X147.4062 Y3.7806
G01 X147.4945 Y3.7849
G01 X147.5171 Y3.7866
G01 X147.5397 Y3.7894
G01 X147.6383 Y3.8042
G01 X147.6606 Y3.8086
G01 X147.6717 Y3.8112
G01 X147.7574 Y3.8327
G01 X147.7793 Y3.8388
G01 X147.8009 Y3.8459
G01 X147.8840 Y3.8757
G01 X147.9053 Y3.8838
G01 X147.9261 Y3.8931
G01 X148.0059 Y3.9308
G01 X148.0262 Y3.9410
G01 X148.0460 Y3.9523
G01 X148.1218 Y3.9977
G01 X148.1410 Y4.0098
G01 X148.1596 Y4.0229
G01 X148.2305 Y4.0755
G01 X148.2485 Y4.0895
G01 X148.2572 Y4.0969
G01 X148.3311 Y4.1637
G01 X148.3476 Y4.1794
G01 X148.3633 Y4.1959
G01 X148.4226 Y4.2613
G01 X148.4375 Y4.2785
G01 X148.4515 Y4.2965
G01 X148.5041 Y4.3674
G01 X148.5172 Y4.3860
G01 X148.5293 Y4.4052
G01 X148.5747 Y4.4810
G01 X148.5860 Y4.5008
G01 X148.5962 Y4.5211
G01 X148.6339 Y4.6009
G01 X148.6432 Y4.6217
G01 X148.6513 Y4.6430
G01 X148.6811 Y4.7261
G01 X148.6882 Y4.7477
G01 X148.6914 Y4.7586
G01 X148.7158 Y4.8553
G01 X148.7207 Y4.8775
G01 X148.7246 Y4.8999
G01 X148.7391 Y4.9986
G01 X148.7404 Y5.0099
G01 X148.7421 Y5.0325
G01 X148.7464 Y5.1208
G01 X148.7469 Y5.1435
G01 X148.7464 Y5.1662
G01 X148.7421 Y5.2545
G01 X148.7404 Y5.2771
G01 X148.7376 Y5.2997
G01 X148.7246 Y5.3871
G01 X148.7207 Y5.4095
G01 X148.7158 Y5.4317
G01 X148.6943 Y5.5174
G01 X148.6882 Y5.5393
G01 X148.6811 Y5.5609
G01 X148.6513 Y5.6440
G01 X148.6432 Y5.6653
G01 X148.6339 Y5.6861
G01 X148.5962 Y5.7659
G01 X148.5860 Y5.7862
G01 X148.5805 Y5.7962
G01 X148.5293 Y5.8818
G01 X148.5172 Y5.9010
G01 X148.5041 Y5.9196
G01 X148.4515 Y5.9905
G01 X148.4375 Y6.0085
G01 X148.4226 Y6.0257
G01 X148.3633 Y6.0911
G01 X148.3471 Y6.1080
G01 X148.3471 Y7.6835
G01 X148.3460 Y7.7308
G01 X148.3331 Y7.9911
G01 X148.3273 Y8.0513
G01 X148.3245 Y8.0739
G01 X148.2879 Y8.3204
G01 X148.2840 Y8.3428
G01 X148.2744 Y8.3910
G01 X148.2695 Y8.4132
G01 X148.2089 Y8.6550
G01 X148.2028 Y8.6769
G01 X148.1851 Y8.7347
G01 X148.0975 Y8.9802
G01 X148.0893 Y9.0014
G01 X148.0705 Y9.0467
G01 X148.0613 Y9.0675
G01 X147.9547 Y9.2929
G01 X147.9445 Y9.3132
G01 X147.9213 Y9.3565
G01 X147.9101 Y9.3763
G01 X147.7820 Y9.5901
G01 X147.7698 Y9.6093
G01 X147.7425 Y9.6501
G01 X147.7294 Y9.6687
G01 X147.5810 Y9.8689
G01 X147.5670 Y9.8868
G01 X147.5358 Y9.9248
G01 X147.5210 Y9.9420
G01 X147.3536 Y10.1267
G01 X147.3379 Y10.1432
G01 X147.3032 Y10.1779
G01 X147.2867 Y10.1936
G01 X147.1020 Y10.3610
G01 X147.0848 Y10.3758
G01 X147.0468 Y10.4070
G01 X147.0289 Y10.4210
G01 X146.8287 Y10.5694
G01 X146.8101 Y10.5825
G01 X146.7693 Y10.6098
G01 X146.7501 Y10.6220
G01 X146.5363 Y10.7501
G01 X146.5165 Y10.7613
G01 X146.4732 Y10.7845
G01 X146.4529 Y10.7947
G01 X146.2275 Y10.9013
G01 X146.2067 Y10.9105
G01 X146.1614 Y10.9293
G01 X146.1402 Y10.9375
G01 X145.9055 Y11.0214
G01 X145.8839 Y11.0286
G01 X145.8369 Y11.0428
G01 X145.8150 Y11.0489
G01 X145.5732 Y11.1095
G01 X145.5510 Y11.1144
G01 X145.4917 Y11.1261
G01 X145.2339 Y11.1645
G01 X145.2113 Y11.1673
G01 X145.1624 Y11.1721
G01 X145.1397 Y11.1738
G01 X144.8908 Y11.1860
G01 X144.8435 Y11.1871
G01 X18.8080 Y11.1871
G01 X18.7911 Y11.2033
G01 X18.7257 Y11.2626
G01 X18.7085 Y11.2775
G01 X18.6905 Y11.2915
G01 X18.6196 Y11.3441
G01 X18.6010 Y11.3572
G01 X18.5818 Y11.3693
G01 X18.5060 Y11.4147
G01 X18.4862 Y11.4260
G01 X18.4659 Y11.4362
G01 X18.3861 Y11.4739
G01 X18.3653 Y11.4832
G01 X18.3440 Y11.4913
G01 X18.2609 Y11.5211
G01 X18.2393 Y11.5282
G01 X18.2174 Y11.5343
G01 X18.1317 Y11.5558
G01 X18.1095 Y11.5607
G01 X18.0871 Y11.5646
G01 X17.9997 Y11.5776
G01 X17.9771 Y11.5804
G01 X17.9545 Y11.5821
G01 X17.8662 Y11.5864
G01 X17.8435 Y11.5869
G01 X17.8208 Y11.5864
G01 X17.7325 Y11.5821
G01 X17.7099 Y11.5804
G01 X17.6873 Y11.5776
G01 X17.5999 Y11.5646
G01 X17.5775 Y11.5607
G01 X17.5553 Y11.5558
G01 X17.4696 Y11.5343
G01 X17.4477 Y11.5282
G01 X17.4261 Y11.5211
G01 X17.3430 Y11.4913
G01 X17.3217 Y11.4832
G01 X17.3009 Y11.4739
G01 X17.2211 Y11.4362
G01 X17.2008 Y11.4260
G01 X17.1810 Y11.4147
G01 X17.1052 Y11.3693
G01 X17.0860 Y11.3572
G01 X17.0674 Y11.3441
G01 X16.9965 Y11.2915
G01 X16.9785 Y11.2775
G01 X16.9613 Y11.2626
G01 X16.8959 Y11.2033
G01 X16.8794 Y11.1876
G01 X16.8637 Y11.1711
G01 X16.8044 Y11.1057
G01 X16.7895 Y11.0885
G01 X16.7755 Y11.0705
G01 X16.7229 Y10.9996
G01 X16.7098 Y10.9810
G01 X16.6977 Y10.9618
G01 X16.6523 Y10.8860
G01 X16.6410 Y10.8662
G01 X16.6358 Y10.8561
G01 X16.5931 Y10.7661
G01 X16.5838 Y10.7453
G01 X16.5735 Y10.7180
G01 X16.5674 Y10.7347
G01 X16.5587 Y10.7557
G01 X16.5162 Y10.8459
G01 X16.5060 Y10.8662
G01 X16.4947 Y10.8860
G01 X16.4493 Y10.9618
G01 X16.4372 Y10.9810
G01 X16.4241 Y10.9996
G01 X16.3715 Y11.0705
G01 X16.3575 Y11.0885
G01 X16.3426 Y11.1057
G01 X16.2755 Y11.1795
G01 X16.2595 Y11.1955
G01 X16.2511 Y11.2033
G01 X16.1857 Y11.2626
G01 X16.1685 Y11.2775
G01 X16.1505 Y11.2915
G01 X16.0796 Y11.3441
G01 X16.0610 Y11.3572
G01 X16.0418 Y11.3693
G01 X15.9660 Y11.4147
G01 X15.9462 Y11.4260
G01 X15.9259 Y11.4362
G01 X15.8461 Y11.4739
G01 X15.8253 Y11.4832
G01 X15.8040 Y11.4913
G01 X15.7209 Y11.5211
G01 X15.6993 Y11.5282
G01 X15.6774 Y11.5343
G01 X15.5917 Y11.5558
G01 X15.5695 Y11.5607
G01 X15.5471 Y11.5646
G01 X15.4597 Y11.5776
G01 X15.4371 Y11.5804
G01 X15.4145 Y11.5821
G01 X15.3262 Y11.5864
G01 X15.3035 Y11.5869
G01 X15.2808 Y11.5864
G01 X15.1925 Y11.5821
G01 X15.1699 Y11.5804
G01 X15.1473 Y11.5776
G01 X15.0599 Y11.5646
G01 X15.0375 Y11.5607
G01 X15.0153 Y11.5558
G01 X14.9296 Y11.5343
G01 X14.9186 Y11.5314
G01 X14.8969 Y11.5248
G01 X14.8030 Y11.4913
G01 X14.7817 Y11.4832
G01 X14.7609 Y11.4739
G01 X14.6811 Y11.4362
G01 X14.6608 Y11.4260
G01 X14.6410 Y11.4147
G01 X14.5652 Y11.3693
G01 X14.5460 Y11.3572
G01 X14.5274 Y11.3441
G01 X14.4565 Y11.2915
G01 X14.4385 Y11.2775
G01 X14.4213 Y11.2626
G01 X14.3559 Y11.2033
G01 X14.3390 Y11.1871
G01 X8.6480 Y11.1871
G01 X8.6311 Y11.2033
G01 X8.5657 Y11.2626
G01 X8.5485 Y11.2775
G01 X8.5305 Y11.2915
G01 X8.4596 Y11.3441
G01 X8.4410 Y11.3572
G01 X8.4218 Y11.3693
G01 X8.3460 Y11.4147
G01 X8.3262 Y11.4260
G01 X8.3161 Y11.4312
G01 X8.2157 Y11.4787
G01 X8.1947 Y11.4874
G01 X8.1780 Y11.4935
G01 X8.1947 Y11.4996
G01 X8.2157 Y11.5083
G01 X8.3161 Y11.5558
G01 X8.3262 Y11.5610
G01 X8.3460 Y11.5723
G01 X8.4218 Y11.6177
G01 X8.4410 Y11.6298
G01 X8.4596 Y11.6429
G01 X8.5305 Y11.6955
G01 X8.5485 Y11.7095
G01 X8.5657 Y11.7244
G01 X8.6311 Y11.7837
G01 X8.6480 Y11.7999
G01 X156.6153 Y11.7999
G01 X156.6772 Y11.7437
G01 X156.6944 Y11.7289
G01 X156.7123 Y11.7149
G01 X156.7813 Y11.6637
G01 X156.7905 Y11.6571
G01 X156.8094 Y11.6444
G01 X156.8928 Y11.5943
G01 X156.9026 Y11.5886
G01 X156.9227 Y11.5779
G01 X157.0209 Y11.5314
G01 X157.0419 Y11.5227
G01 X157.0525 Y11.5188
G01 X157.1441 Y11.4861
G01 X157.1550 Y11.4827
G01 X157.1769 Y11.4766
G01 X157.2602 Y11.4558
G01 X157.2824 Y11.4508
G01 X157.3048 Y11.4469
G01 X157.3897 Y11.4343
G01 X157.4123 Y11.4315
G01 X157.4350 Y11.4298
G01 X157.5208 Y11.4256
G01 X157.5435 Y11.4251
G01 X157.5662 Y11.4256
G01 X157.6520 Y11.4298
G01 X157.6634 Y11.4305
G01 X157.6860 Y11.4328
G01 X157.7822 Y11.4469
G01 X157.8046 Y11.4508
G01 X157.8268 Y11.4558
G01 X157.9101 Y11.4766
G01 X157.9320 Y11.4827
G01 X157.9536 Y11.4898
G01 X158.0345 Y11.5188
G01 X158.0557 Y11.5270
G01 X158.0765 Y11.5362
G01 X158.1541 Y11.5729
G01 X158.1744 Y11.5831
G01 X158.1942 Y11.5943
G01 X158.2776 Y11.6444
G01 X158.2871 Y11.6506
G01 X158.3057 Y11.6637
G01 X158.3747 Y11.7149
G01 X158.3926 Y11.7289
G01 X158.4098 Y11.7437
G01 X158.4734 Y11.8014
G01 X158.4899 Y11.8171
G01 X158.4979 Y11.8252
G01 X158.5633 Y11.8972
G01 X158.5781 Y11.9144
G01 X158.5921 Y11.9323
G01 X158.6433 Y12.0013
G01 X158.6564 Y12.0199
G01 X158.6685 Y12.0391
G01 X158.7127 Y12.1128
G01 X158.7239 Y12.1326
G01 X158.7341 Y12.1529
G01 X158.7756 Y12.2409
G01 X158.7800 Y12.2513
G01 X158.7882 Y12.2725
G01 X158.8172 Y12.3534
G01 X158.8243 Y12.3750
G01 X158.8304 Y12.3969
G01 X158.8512 Y12.4802
G01 X158.8562 Y12.5024
G01 X158.8601 Y12.5248
G01 X158.8742 Y12.6210
G01 X158.8765 Y12.6436
G01 X158.8772 Y12.6550
G01 X158.8814 Y12.7408
G01 X158.8819 Y12.7635
G01 X158.8814 Y12.7862
G01 X158.8772 Y12.8720
G01 X158.8755 Y12.8947
G01 X158.8727 Y12.9173
G01 X158.8601 Y13.0022
G01 X158.8562 Y13.0246
G01 X158.8512 Y13.0468
G01 X158.8304 Y13.1301
G01 X158.8243 Y13.1520
G01 X158.8209 Y13.1629
G01 X158.7882 Y13.2545
G01 X158.7800 Y13.2757
G01 X158.7708 Y13.2965
G01 X158.7341 Y13.3741
G01 X158.7239 Y13.3944
G01 X158.7127 Y13.4142
G01 X158.6685 Y13.4879
G01 X158.6564 Y13.5071
G01 X158.6433 Y13.5257
G01 X158.5921 Y13.5947
G01 X158.5781 Y13.6126
G01 X158.5633 Y13.6298
G01 X158.5056 Y13.6934
G01 X158.4899 Y13.7099
G01 X158.4818 Y13.7179
G01 X158.4098 Y13.7833
G01 X158.3926 Y13.7981
G01 X158.3747 Y13.8121
G01 X158.3057 Y13.8633
G01 X158.2871 Y13.8764
G01 X158.2679 Y13.8885
G01 X158.1942 Y13.9327
G01 X158.1744 Y13.9439
G01 X158.1541 Y13.9541
G01 X158.0765 Y13.9908
G01 X158.0557 Y14.0000
G01 X158.0345 Y14.0082
G01 X157.9639 Y14.0335
G01 X158.0345 Y14.0588
G01 X158.0557 Y14.0670
G01 X158.0765 Y14.0762
G01 X158.1643 Y14.1179
G01 X158.1844 Y14.1286
G01 X158.1942 Y14.1343
G01 X158.2679 Y14.1785
G01 X158.2776 Y14.1844
G01 X158.2965 Y14.1971
G01 X158.3747 Y14.2549
G01 X158.3926 Y14.2689
G01 X158.4098 Y14.2837
G01 X158.4734 Y14.3414
G01 X158.4899 Y14.3571
G01 X158.5056 Y14.3736
G01 X158.5633 Y14.4372
G01 X158.5708 Y14.4457
G01 X158.5852 Y14.4633
G01 X158.6433 Y14.5413
G01 X158.6564 Y14.5599
G01 X158.6685 Y14.5791
G01 X158.7127 Y14.6528
G01 X158.7239 Y14.6726
G01 X158.7341 Y14.6929
G01 X158.7708 Y14.7705
G01 X158.7800 Y14.7913
G01 X158.7843 Y14.8019
G01 X158.8172 Y14.8934
G01 X158.8243 Y14.9150
G01 X158.8304 Y14.9369
G01 X158.8539 Y15.0313
G01 X158.8562 Y15.0424
G01 X158.8601 Y15.0648
G01 X158.8727 Y15.1497
G01 X158.8755 Y15.1723
G01 X158.8772 Y15.1950
G01 X158.8814 Y15.2808
G01 X158.8819 Y15.3035
G01 X158.8814 Y15.3262
G01 X158.8772 Y15.4120
G01 X158.8755 Y15.4347
G01 X158.8727 Y15.4573
G01 X158.8601 Y15.5422
G01 X158.8562 Y15.5646
G01 X158.8512 Y15.5868
G01 X158.8304 Y15.6701
G01 X158.8243 Y15.6920
G01 X158.8209 Y15.7029
G01 X158.7882 Y15.7945
G01 X158.7800 Y15.8157
G01 X158.7708 Y15.8365
G01 X158.7341 Y15.9141
G01 X158.7239 Y15.9344
G01 X158.7127 Y15.9542
G01 X158.6685 Y16.0279
G01 X158.6564 Y16.0471
G01 X158.6433 Y16.0657
G01 X158.5921 Y16.1347
G01 X158.5781 Y16.1526
G01 X158.5633 Y16.1698
G01 X158.5056 Y16.2334
G01 X158.4899 Y16.2499
G01 X158.4818 Y16.2579
G01 X158.4098 Y16.3233
G01 X158.3926 Y16.3381
G01 X158.3747 Y16.3521
G01 X158.3057 Y16.4033
G01 X158.2871 Y16.4164
G01 X158.2679 Y16.4285
G01 X158.1942 Y16.4727
G01 X158.1744 Y16.4839
G01 X158.1541 Y16.4941
G01 X158.0765 Y16.5308
G01 X158.0557 Y16.5400
G01 X158.0345 Y16.5482
G01 X157.9639 Y16.5735
G01 X158.0345 Y16.5988
G01 X158.0557 Y16.6070
G01 X158.0765 Y16.6162
G01 X158.1643 Y16.6579
G01 X158.1844 Y16.6686
G01 X158.1942 Y16.6743
G01 X158.2679 Y16.7185
G01 X158.2776 Y16.7244
G01 X158.2965 Y16.7371
G01 X158.3747 Y16.7949
G01 X158.3926 Y16.8089
G01 X158.4098 Y16.8237
G01 X158.4734 Y16.8814
G01 X158.4899 Y16.8971
G01 X158.5056 Y16.9136
G01 X158.5633 Y16.9772
G01 X158.5708 Y16.9857
G01 X158.5852 Y17.0033
G01 X158.6433 Y17.0813
G01 X158.6564 Y17.0999
G01 X158.6685 Y17.1191
G01 X158.7127 Y17.1928
G01 X158.7239 Y17.2126
G01 X158.7341 Y17.2329
G01 X158.7708 Y17.3105
G01 X158.7800 Y17.3313
G01 X158.7882 Y17.3525
G01 X158.8172 Y17.4334
G01 X158.8243 Y17.4550
G01 X158.8304 Y17.4769
G01 X158.8512 Y17.5602
G01 X158.8562 Y17.5824
G01 X158.8601 Y17.6048
G01 X158.8727 Y17.6897
G01 X158.8755 Y17.7123
G01 X158.8765 Y17.7236
G01 X158.8814 Y17.8208
G01 X158.8819 Y17.8435
G01 X158.8814 Y17.8662
G01 X158.8772 Y17.9520
G01 X158.8755 Y17.9747
G01 X158.8727 Y17.9973
G01 X158.8601 Y18.0822
G01 X158.8562 Y18.1046
G01 X158.8512 Y18.1268
G01 X158.8304 Y18.2101
G01 X158.8243 Y18.2320
G01 X158.8209 Y18.2429
G01 X158.7882 Y18.3345
G01 X158.7800 Y18.3557
G01 X158.7708 Y18.3765
G01 X158.7341 Y18.4541
G01 X158.7239 Y18.4744
G01 X158.7127 Y18.4942
G01 X158.6685 Y18.5679
G01 X158.6564 Y18.5871
G01 X158.6433 Y18.6057
G01 X158.5921 Y18.6747
G01 X158.5781 Y18.6926
G01 X158.5633 Y18.7098
G01 X158.5056 Y18.7734
G01 X158.4899 Y18.7899
G01 X158.4818 Y18.7979
G01 X158.4098 Y18.8633
G01 X158.3926 Y18.8781
G01 X158.3747 Y18.8921
G01 X158.3057 Y18.9433
G01 X158.2871 Y18.9564
G01 X158.2679 Y18.9685
G01 X158.1942 Y19.0127
G01 X158.1744 Y19.0239
G01 X158.1541 Y19.0341
G01 X158.0765 Y19.0708
G01 X158.0557 Y19.0800
G01 X158.0345 Y19.0882
G01 X157.9639 Y19.1135
G01 X158.0345 Y19.1388
G01 X158.0557 Y19.1470
G01 X158.0765 Y19.1562
G01 X158.1643 Y19.1979
G01 X158.1744 Y19.2031
G01 X158.1942 Y19.2143
G01 X158.2679 Y19.2585
G01 X158.2776 Y19.2644
G01 X158.2965 Y19.2771
G01 X158.3747 Y19.3349
G01 X158.3926 Y19.3489
G01 X158.4098 Y19.3637
G01 X158.4734 Y19.4214
G01 X158.4899 Y19.4371
G01 X158.5056 Y19.4536
G01 X158.5633 Y19.5172
G01 X158.5708 Y19.5257
G01 X158.5852 Y19.5433
G01 X158.6433 Y19.6213
G01 X158.6564 Y19.6399
G01 X158.6685 Y19.6591
G01 X158.7127 Y19.7328
G01 X158.7239 Y19.7526
G01 X158.7341 Y19.7729
G01 X158.7708 Y19.8505
G01 X158.7800 Y19.8713
G01 X158.7882 Y19.8925
G01 X158.8172 Y19.9734
G01 X158.8243 Y19.9950
G01 X158.8304 Y20.0169
G01 X158.8512 Y20.1002
G01 X158.8562 Y20.1224
G01 X158.8601 Y20.1448
G01 X158.8727 Y20.2297
G01 X158.8742 Y20.2410
G01 X158.8765 Y20.2636
G01 X158.8814 Y20.3608
G01 X158.8819 Y20.3835
G01 X158.8814 Y20.4062
G01 X158.8772 Y20.4920
G01 X158.8755 Y20.5147
G01 X158.8727 Y20.5373
G01 X158.8601 Y20.6222
G01 X158.8562 Y20.6446
G01 X158.8512 Y20.6668
G01 X158.8304 Y20.7501
G01 X158.8275 Y20.7611
G01 X158.8209 Y20.7829
G01 X158.7882 Y20.8745
G01 X158.7800 Y20.8957
G01 X158.7708 Y20.9165
G01 X158.7341 Y20.9941
G01 X158.7239 Y21.0144
G01 X158.7127 Y21.0342
G01 X158.6685 Y21.1079
G01 X158.6564 Y21.1271
G01 X158.6433 Y21.1457
G01 X158.5921 Y21.2147
G01 X158.5781 Y21.2326
G01 X158.5633 Y21.2498
G01 X158.5056 Y21.3134
G01 X158.4899 Y21.3299
G01 X158.4818 Y21.3379
G01 X158.4098 Y21.4033
G01 X158.3926 Y21.4181
G01 X158.3747 Y21.4321
G01 X158.3057 Y21.4833
G01 X158.2871 Y21.4964
G01 X158.2679 Y21.5085
G01 X158.1942 Y21.5527
G01 X158.1744 Y21.5639
G01 X158.1541 Y21.5741
G01 X158.0765 Y21.6108
G01 X158.0557 Y21.6200
G01 X158.0345 Y21.6282
G01 X157.9639 Y21.6535
G01 X158.0345 Y21.6788
G01 X158.0557 Y21.6870
G01 X158.0765 Y21.6962
G01 X158.1541 Y21.7329
G01 X158.1744 Y21.7431
G01 X158.1942 Y21.7543
G01 X158.2679 Y21.7985
G01 X158.2871 Y21.8106
G01 X158.3057 Y21.8237
G01 X158.3747 Y21.8749
G01 X158.3926 Y21.8889
G01 X158.4098 Y21.9037
G01 X158.4734 Y21.9614
G01 X158.4899 Y21.9771
G01 X158.5056 Y21.9936
G01 X158.5633 Y22.0572
G01 X158.5781 Y22.0744
G01 X158.5921 Y22.0923
G01 X158.6433 Y22.1613
G01 X158.6564 Y22.1799
G01 X158.6685 Y22.1991
G01 X158.7127 Y22.2728
G01 X158.7239 Y22.2926
G01 X158.7341 Y22.3129
G01 X158.7708 Y22.3905
G01 X158.7800 Y22.4113
G01 X158.7882 Y22.4325
G01 X158.8172 Y22.5134
G01 X158.8243 Y22.5350
G01 X158.8304 Y22.5569
G01 X158.8512 Y22.6402
G01 X158.8562 Y22.6624
G01 X158.8601 Y22.6848
G01 X158.8727 Y22.7697
G01 X158.8755 Y22.7923
G01 X158.8772 Y22.8150
G01 X158.8814 Y22.9008
G01 X158.8819 Y22.9235
G01 X158.8814 Y22.9462
G01 X158.8772 Y23.0320
G01 X158.8755 Y23.0547
G01 X158.8727 Y23.0773
G01 X158.8601 Y23.1622
G01 X158.8562 Y23.1846
G01 X158.8512 Y23.2068
G01 X158.8304 Y23.2901
G01 X158.8275 Y23.3011
G01 X158.8209 Y23.3229
G01 X158.7882 Y23.4145
G01 X158.7800 Y23.4357
G01 X158.7708 Y23.4565
G01 X158.7341 Y23.5341
G01 X158.7239 Y23.5544
G01 X158.7127 Y23.5742
G01 X158.6685 Y23.6479
G01 X158.6564 Y23.6671
G01 X158.6433 Y23.6857
G01 X158.5921 Y23.7547
G01 X158.5781 Y23.7726
G01 X158.5633 Y23.7898
G01 X158.5056 Y23.8534
G01 X158.4899 Y23.8699
G01 X158.4818 Y23.8779
G01 X158.4098 Y23.9433
G01 X158.3926 Y23.9581
G01 X158.3747 Y23.9721
G01 X158.3057 Y24.0233
G01 X158.2871 Y24.0364
G01 X158.2679 Y24.0485
G01 X158.1942 Y24.0927
G01 X158.1744 Y24.1039
G01 X158.1541 Y24.1141
G01 X158.0765 Y24.1508
G01 X158.0557 Y24.1600
G01 X158.0345 Y24.1682
G01 X157.9639 Y24.1935
G01 X158.0345 Y24.2188
G01 X158.0557 Y24.2270
G01 X158.0765 Y24.2362
G01 X158.1541 Y24.2729
G01 X158.1744 Y24.2831
G01 X158.1942 Y24.2943
G01 X158.2679 Y24.3385
G01 X158.2871 Y24.3506
G01 X158.3057 Y24.3637
G01 X158.3747 Y24.4149
G01 X158.3926 Y24.4289
G01 X158.4098 Y24.4437
G01 X158.4734 Y24.5014
G01 X158.4899 Y24.5171
G01 X158.5056 Y24.5336
G01 X158.5633 Y24.5972
G01 X158.5781 Y24.6144
G01 X158.5921 Y24.6323
G01 X158.6433 Y24.7013
G01 X158.6564 Y24.7199
G01 X158.6685 Y24.7391
G01 X158.7127 Y24.8128
G01 X158.7239 Y24.8326
G01 X158.7341 Y24.8529
G01 X158.7708 Y24.9305
G01 X158.7800 Y24.9513
G01 X158.7882 Y24.9725
G01 X158.8172 Y25.0534
G01 X158.8243 Y25.0750
G01 X158.8304 Y25.0969
G01 X158.8512 Y25.1802
G01 X158.8562 Y25.2024
G01 X158.8601 Y25.2248
G01 X158.8742 Y25.3210
G01 X158.8765 Y25.3436
G01 X158.8772 Y25.3550
G01 X158.8814 Y25.4408
G01 X158.8819 Y25.4635
G01 X158.8814 Y25.4862
G01 X158.8772 Y25.5720
G01 X158.8765 Y25.5834
G01 X158.8742 Y25.6060
G01 X158.8601 Y25.7022
G01 X158.8562 Y25.7246
G01 X158.8512 Y25.7468
G01 X158.8304 Y25.8301
G01 X158.8243 Y25.8520
G01 X158.8172 Y25.8736
G01 X158.7882 Y25.9545
G01 X158.7800 Y25.9757
G01 X158.7708 Y25.9965
G01 X158.7341 Y26.0741
G01 X158.7239 Y26.0944
G01 X158.7127 Y26.1142
G01 X158.6626 Y26.1976
G01 X158.6564 Y26.2071
G01 X158.6433 Y26.2257
G01 X158.5921 Y26.2947
G01 X158.5781 Y26.3126
G01 X158.5633 Y26.3298
G01 X158.5056 Y26.3934
G01 X158.4899 Y26.4099
G01 X158.4734 Y26.4256
G01 X158.4098 Y26.4833
G01 X158.3926 Y26.4981
G01 X158.3837 Y26.5052
G01 X158.3057 Y26.5633
G01 X158.2871 Y26.5764
G01 X158.2679 Y26.5885
G01 X158.1942 Y26.6327
G01 X158.1744 Y26.6439
G01 X158.1541 Y26.6541
G01 X158.0765 Y26.6908
G01 X158.0557 Y26.7000
G01 X158.0345 Y26.7082
G01 X157.9639 Y26.7335
G01 X158.0345 Y26.7588
G01 X158.0557 Y26.7670
G01 X158.0765 Y26.7762
G01 X158.1541 Y26.8129
G01 X158.1744 Y26.8231
G01 X158.1942 Y26.8343
G01 X158.2679 Y26.8785
G01 X158.2871 Y26.8906
G01 X158.3057 Y26.9037
G01 X158.3747 Y26.9549
G01 X158.3926 Y26.9689
G01 X158.4098 Y26.9837
G01 X158.4734 Y27.0414
G01 X158.4899 Y27.0571
G01 X158.5056 Y27.0736
G01 X158.5633 Y27.1372
G01 X158.5781 Y27.1544
G01 X158.5921 Y27.1723
G01 X158.6433 Y27.2413
G01 X158.6564 Y27.2599
G01 X158.6685 Y27.2791
G01 X158.7127 Y27.3528
G01 X158.7239 Y27.3726
G01 X158.7291 Y27.3827
G01 X158.7708 Y27.4705
G01 X158.7800 Y27.4913
G01 X158.7882 Y27.5125
G01 X158.8172 Y27.5934
G01 X158.8209 Y27.6041
G01 X158.8275 Y27.6259
G01 X158.8539 Y27.7313
G01 X158.8583 Y27.7536
G01 X158.8601 Y27.7648
G01 X158.8727 Y27.8497
G01 X158.8755 Y27.8723
G01 X158.8772 Y27.8950
G01 X158.8814 Y27.9808
G01 X158.8819 Y28.0035
G01 X158.8814 Y28.0262
G01 X158.8772 Y28.1120
G01 X158.8755 Y28.1347
G01 X158.8727 Y28.1573
G01 X158.8601 Y28.2422
G01 X158.8583 Y28.2534
G01 X158.8539 Y28.2757
G01 X158.8304 Y28.3701
G01 X158.8243 Y28.3920
G01 X158.8172 Y28.4136
G01 X158.7882 Y28.4945
G01 X158.7800 Y28.5157
G01 X158.7708 Y28.5365
G01 X158.7341 Y28.6141
G01 X158.7239 Y28.6344
G01 X158.7184 Y28.6444
G01 X158.6685 Y28.7279
G01 X158.6564 Y28.7471
G01 X158.6433 Y28.7657
G01 X158.5921 Y28.8347
G01 X158.5781 Y28.8526
G01 X158.5633 Y28.8698
G01 X158.5056 Y28.9334
G01 X158.4899 Y28.9499
G01 X158.4734 Y28.9656
G01 X158.4098 Y29.0233
G01 X158.3926 Y29.0381
G01 X158.3747 Y29.0521
G01 X158.3057 Y29.1033
G01 X158.2871 Y29.1164
G01 X158.2679 Y29.1285
G01 X158.1942 Y29.1727
G01 X158.1744 Y29.1839
G01 X158.1541 Y29.1941
G01 X158.0765 Y29.2308
G01 X158.0557 Y29.2400
G01 X158.0345 Y29.2482
G01 X157.9639 Y29.2735
G01 X158.0345 Y29.2988
G01 X158.0557 Y29.3070
G01 X158.0765 Y29.3162
G01 X158.1541 Y29.3529
G01 X158.1744 Y29.3631
G01 X158.1942 Y29.3743
G01 X158.2679 Y29.4185
G01 X158.2871 Y29.4306
G01 X158.3057 Y29.4437
G01 X158.3747 Y29.4949
G01 X158.3926 Y29.5089
G01 X158.4098 Y29.5237
G01 X158.4734 Y29.5814
G01 X158.4899 Y29.5971
G01 X158.5056 Y29.6136
G01 X158.5633 Y29.6772
G01 X158.5781 Y29.6944
G01 X158.5921 Y29.7123
G01 X158.6433 Y29.7813
G01 X158.6564 Y29.7999
G01 X158.6685 Y29.8191
G01 X158.7127 Y29.8928
G01 X158.7239 Y29.9126
G01 X158.7341 Y29.9329
G01 X158.7756 Y30.0209
G01 X158.7843 Y30.0419
G01 X158.7882 Y30.0525
G01 X158.8172 Y30.1334
G01 X158.8243 Y30.1550
G01 X158.8304 Y30.1769
G01 X158.8512 Y30.2602
G01 X158.8539 Y30.2713
G01 X158.8583 Y30.2936
G01 X158.8727 Y30.3897
G01 X158.8755 Y30.4123
G01 X158.8772 Y30.4350
G01 X158.8814 Y30.5208
G01 X158.8819 Y30.5435
G01 X158.8814 Y30.5662
G01 X158.8772 Y30.6520
G01 X158.8755 Y30.6747
G01 X158.8727 Y30.6973
G01 X158.8583 Y30.7934
G01 X158.8539 Y30.8157
G01 X158.8512 Y30.8268
G01 X158.8304 Y30.9101
G01 X158.8243 Y30.9320
G01 X158.8172 Y30.9536
G01 X158.7882 Y31.0345
G01 X158.7800 Y31.0557
G01 X158.7708 Y31.0765
G01 X158.7291 Y31.1643
G01 X158.7184 Y31.1844
G01 X158.7127 Y31.1942
G01 X158.6685 Y31.2679
G01 X158.6564 Y31.2871
G01 X158.6433 Y31.3057
G01 X158.5921 Y31.3747
G01 X158.5781 Y31.3926
G01 X158.5633 Y31.4098
G01 X158.5056 Y31.4734
G01 X158.4899 Y31.4899
G01 X158.4734 Y31.5056
G01 X158.4098 Y31.5633
G01 X158.3926 Y31.5781
G01 X158.3747 Y31.5921
G01 X158.3057 Y31.6433
G01 X158.2871 Y31.6564
G01 X158.2679 Y31.6685
G01 X158.1942 Y31.7127
G01 X158.1744 Y31.7239
G01 X158.1541 Y31.7341
G01 X158.0765 Y31.7708
G01 X158.0557 Y31.7800
G01 X158.0345 Y31.7882
G01 X157.9536 Y31.8172
G01 X157.9320 Y31.8243
G01 X157.9101 Y31.8304
G01 X157.8157 Y31.8539
G01 X157.8046 Y31.8562
G01 X157.7822 Y31.8601
G01 X157.6973 Y31.8727
G01 X157.6747 Y31.8755
G01 X157.6520 Y31.8772
G01 X157.5662 Y31.8814
G01 X157.5435 Y31.8819
G01 X157.5208 Y31.8814
G01 X157.4350 Y31.8772
G01 X157.4123 Y31.8755
G01 X157.3897 Y31.8727
G01 X157.3048 Y31.8601
G01 X157.2824 Y31.8562
G01 X157.2602 Y31.8512
G01 X157.1769 Y31.8304
G01 X157.1550 Y31.8243
G01 X157.1334 Y31.8172
G01 X157.0525 Y31.7882
G01 X157.0313 Y31.7800
G01 X157.0105 Y31.7708
G01 X156.9329 Y31.7341
G01 X156.9126 Y31.7239
G01 X156.8928 Y31.7127
G01 X156.8191 Y31.6685
G01 X156.7999 Y31.6564
G01 X156.7813 Y31.6433
G01 X156.7123 Y31.5921
G01 X156.6944 Y31.5781
G01 X156.6772 Y31.5633
G01 X156.6153 Y31.5071
G01 X8.6480 Y31.5071
G01 X8.6311 Y31.5233
G01 X8.5657 Y31.5826
G01 X8.5485 Y31.5975
G01 X8.5305 Y31.6115
G01 X8.4596 Y31.6641
G01 X8.4410 Y31.6772
G01 X8.4218 Y31.6893
G01 X8.3460 Y31.7347
G01 X8.3262 Y31.7460
G01 X8.3161 Y31.7512
G01 X8.2157 Y31.7987
G01 X8.1947 Y31.8074
G01 X8.1780 Y31.8135
G01 X8.1947 Y31.8196
G01 X8.2157 Y31.8283
G01 X8.3161 Y31.8758
G01 X8.3262 Y31.8810
G01 X8.3460 Y31.8923
G01 X8.4218 Y31.9377
G01 X8.4410 Y31.9498
G01 X8.4596 Y31.9629
G01 X8.5305 Y32.0155
G01 X8.5485 Y32.0295
G01 X8.5657 Y32.0444
G01 X8.6311 Y32.1037
G01 X8.6480 Y32.1199
G01 X16.8790 Y32.1199
G01 X16.8959 Y32.1037
G01 X16.9613 Y32.0444
G01 X16.9785 Y32.0295
G01 X16.9965 Y32.0155
G01 X17.0674 Y31.9629
G01 X17.0860 Y31.9498
G01 X17.1052 Y31.9377
G01 X17.1810 Y31.8923
G01 X17.2008 Y31.8810
G01 X17.2211 Y31.8708
G01 X17.3009 Y31.8331
G01 X17.3217 Y31.8238
G01 X17.3430 Y31.8157
G01 X17.4261 Y31.7859
G01 X17.4477 Y31.7788
G01 X17.4696 Y31.7727
G01 X17.5553 Y31.7512
G01 X17.5775 Y31.7463
G01 X17.5999 Y31.7424
G01 X17.6873 Y31.7294
G01 X17.7099 Y31.7266
G01 X17.7325 Y31.7249
G01 X17.8208 Y31.7206
G01 X17.8435 Y31.7201
G01 X17.8662 Y31.7206
G01 X17.9545 Y31.7249
G01 X17.9658 Y31.7256
G01 X17.9884 Y31.7279
G01 X18.0983 Y31.7442
G01 X18.1095 Y31.7463
G01 X18.1317 Y31.7512
G01 X18.2174 Y31.7727
G01 X18.2393 Y31.7788
G01 X18.2609 Y31.7859
G01 X18.3440 Y31.8157
G01 X18.3653 Y31.8238
G01 X18.3861 Y31.8331
G01 X18.4659 Y31.8708
G01 X18.4862 Y31.8810
G01 X18.5060 Y31.8923
G01 X18.5818 Y31.9377
G01 X18.6010 Y31.9498
G01 X18.6196 Y31.9629
G01 X18.6905 Y32.0155
G01 X18.7085 Y32.0295
G01 X18.7257 Y32.0444
G01 X18.7911 Y32.1037
G01 X18.8076 Y32.1194
G01 X18.8233 Y32.1359
G01 X18.8826 Y32.2013
G01 X18.8975 Y32.2185
G01 X18.9115 Y32.2365
G01 X18.9641 Y32.3074
G01 X18.9772 Y32.3260
G01 X18.9893 Y32.3452
G01 X19.0347 Y32.4210
G01 X19.0460 Y32.4408
G01 X19.0562 Y32.4611
G01 X19.0939 Y32.5409
G01 X19.1032 Y32.5617
G01 X19.1113 Y32.5830
G01 X19.1411 Y32.6661
G01 X19.1482 Y32.6877
G01 X19.1543 Y32.7096
G01 X19.1758 Y32.7953
G01 X19.1807 Y32.8175
G01 X19.1846 Y32.8399
G01 X19.1976 Y32.9273
G01 X19.2004 Y32.9499
G01 X19.2021 Y32.9725
G01 X19.2064 Y33.0608
G01 X19.2069 Y33.0835
G01 X19.2064 Y33.1062
G01 X19.2021 Y33.1945
G01 X19.2004 Y33.2171
G01 X19.1976 Y33.2397
G01 X19.1828 Y33.3383
G01 X19.1784 Y33.3606
G01 X19.1758 Y33.3717
G01 X19.1543 Y33.4574
G01 X19.1482 Y33.4793
G01 X19.1411 Y33.5009
G01 X19.1113 Y33.5840
G01 X19.1032 Y33.6053
G01 X19.0939 Y33.6261
G01 X19.0562 Y33.7059
G01 X19.0460 Y33.7262
G01 X19.0347 Y33.7460
G01 X18.9893 Y33.8218
G01 X18.9772 Y33.8410
G01 X18.9641 Y33.8596
G01 X18.9115 Y33.9305
G01 X18.8975 Y33.9485
G01 X18.8901 Y33.9572
G01 X18.8233 Y34.0311
G01 X18.8076 Y34.0476
G01 X18.7911 Y34.0633
G01 X18.7257 Y34.1226
G01 X18.7085 Y34.1375
G01 X18.6905 Y34.1515
G01 X18.6196 Y34.2041
G01 X18.6010 Y34.2172
G01 X18.5818 Y34.2293
G01 X18.5060 Y34.2747
G01 X18.4862 Y34.2860
G01 X18.4659 Y34.2962
G01 X18.3861 Y34.3339
G01 X18.3653 Y34.3432
G01 X18.3547 Y34.3474
G01 X18.2609 Y34.3811
G01 X18.2393 Y34.3882
G01 X18.2174 Y34.3943
G01 X18.1317 Y34.4158
G01 X18.1095 Y34.4207
G01 X18.0871 Y34.4246
G01 X17.9997 Y34.4376
G01 X17.9771 Y34.4404
G01 X17.9658 Y34.4414
G01 X17.8662 Y34.4464
G01 X17.8435 Y34.4469
G01 X17.8321 Y34.4468
G01 X17.7212 Y34.4414
G01 X17.6986 Y34.4391
G01 X17.6873 Y34.4376
G01 X17.5999 Y34.4246
G01 X17.5775 Y34.4207
G01 X17.5553 Y34.4158
G01 X17.4696 Y34.3943
G01 X17.4586 Y34.3914
G01 X17.4369 Y34.3848
G01 X17.3430 Y34.3513
G01 X17.3217 Y34.3432
G01 X17.3009 Y34.3339
G01 X17.2211 Y34.2962
G01 X17.2008 Y34.2860
G01 X17.1810 Y34.2747
G01 X17.1052 Y34.2293
G01 X17.0860 Y34.2172
G01 X17.0674 Y34.2041
G01 X16.9965 Y34.1515
G01 X16.9785 Y34.1375
G01 X16.9613 Y34.1226
G01 X16.8959 Y34.0633
G01 X16.8790 Y34.0471
G01 X8.6480 Y34.0471
G01 X8.6311 Y34.0633
G01 X8.5657 Y34.1226
G01 X8.5485 Y34.1375
G01 X8.5305 Y34.1515
G01 X8.4596 Y34.2041
G01 X8.4410 Y34.2172
G01 X8.4218 Y34.2293
G01 X8.3460 Y34.2747
G01 X8.3262 Y34.2860
G01 X8.3059 Y34.2962
G01 X8.2261 Y34.3339
G01 X8.2053 Y34.3432
G01 X8.1840 Y34.3513
G01 X8.1009 Y34.3811
G01 X8.0793 Y34.3882
G01 X8.0574 Y34.3943
G01 X7.9717 Y34.4158
G01 X7.9495 Y34.4207
G01 X7.9271 Y34.4246
G01 X7.8397 Y34.4376
G01 X7.8171 Y34.4404
G01 X7.7945 Y34.4421
G01 X7.7062 Y34.4464
G01 X7.6835 Y34.4469
G01 X7.6608 Y34.4464
G01 X7.5725 Y34.4421
G01 X7.5499 Y34.4404
G01 X7.5273 Y34.4376
G01 X7.4399 Y34.4246
G01 X7.4175 Y34.4207
G01 X7.3953 Y34.4158
G01 X7.3096 Y34.3943
G01 X7.2877 Y34.3882
G01 X7.2661 Y34.3811
G01 X7.1830 Y34.3513
G01 X7.1617 Y34.3432
G01 X7.1409 Y34.3339
G01 X7.0611 Y34.2962
G01 X7.0408 Y34.2860
G01 X7.0210 Y34.2747
G01 X6.9452 Y34.2293
G01 X6.9260 Y34.2172
G01 X6.9074 Y34.2041
G01 X6.8365 Y34.1515
G01 X6.8185 Y34.1375
G01 X6.8013 Y34.1226
G01 X6.7359 Y34.0633
G01 X6.7190 Y34.0471
G01 X6.1080 Y34.0471
G01 X6.0911 Y34.0633
G01 X6.0257 Y34.1226
G01 X6.0085 Y34.1375
G01 X5.9905 Y34.1515
G01 X5.9196 Y34.2041
G01 X5.9010 Y34.2172
G01 X5.8818 Y34.2293
G01 X5.8060 Y34.2747
G01 X5.7862 Y34.2860
G01 X5.7659 Y34.2962
G01 X5.6861 Y34.3339
G01 X5.6653 Y34.3432
G01 X5.6440 Y34.3513
G01 X5.5609 Y34.3811
G01 X5.5393 Y34.3882
G01 X5.5174 Y34.3943
G01 X5.4317 Y34.4158
G01 X5.4095 Y34.4207
G01 X5.3871 Y34.4246
G01 X5.2997 Y34.4376
G01 X5.2771 Y34.4404
G01 X5.2545 Y34.4421
G01 X5.1662 Y34.4464
G01 X5.1435 Y34.4469
G01 X5.1208 Y34.4464
G01 X5.0325 Y34.4421
G01 X5.0212 Y34.4414
G01 X4.9986 Y34.4391
G01 X4.8887 Y34.4228
G01 X4.8664 Y34.4184
G01 X4.8553 Y34.4158
G01 X4.7696 Y34.3943
G01 X4.7477 Y34.3882
G01 X4.7261 Y34.3811
G01 X4.6430 Y34.3513
G01 X4.6323 Y34.3474
G01 X4.6113 Y34.3387
G01 X4.5211 Y34.2962
G01 X4.5008 Y34.2860
G01 X4.4810 Y34.2747
G01 X4.4052 Y34.2293
G01 X4.3860 Y34.2172
G01 X4.3674 Y34.2041
G01 X4.2965 Y34.1515
G01 X4.2785 Y34.1375
G01 X4.2613 Y34.1226
G01 X4.1959 Y34.0633
G01 X4.1794 Y34.0476
G01 X4.1637 Y34.0311
G01 X4.0969 Y33.9572
G01 X4.0824 Y33.9396
G01 X4.0755 Y33.9305
G01 X4.0229 Y33.8596
G01 X4.0098 Y33.8410
G01 X3.9977 Y33.8218
G01 X3.9523 Y33.7460
G01 X3.9410 Y33.7262
G01 X3.9308 Y33.7059
G01 X3.8883 Y33.6157
G01 X3.8838 Y33.6053
G01 X3.8757 Y33.5840
G01 X3.8459 Y33.5009
G01 X3.8388 Y33.4793
G01 X3.8327 Y33.4574
G01 X3.8112 Y33.3717
G01 X3.8063 Y33.3495
G01 X3.8024 Y33.3271
G01 X3.7894 Y33.2397
G01 X3.7866 Y33.2171
G01 X3.7849 Y33.1945
G01 X3.7806 Y33.1062
G01 X3.7802 Y33.0949
G01 X3.7802 Y33.0721
G01 X3.7849 Y32.9725
G01 X3.7866 Y32.9499
G01 X3.7894 Y32.9273
G01 X3.8024 Y32.8399
G01 X3.8063 Y32.8175
G01 X3.8112 Y32.7953
G01 X3.8327 Y32.7096
G01 X3.8388 Y32.6877
G01 X3.8459 Y32.6661
G01 X3.8757 Y32.5830
G01 X3.8838 Y32.5617
G01 X3.8931 Y32.5409
G01 X3.9308 Y32.4611
G01 X3.9410 Y32.4408
G01 X3.9523 Y32.4210
G01 X3.9977 Y32.3452
G01 X4.0098 Y32.3260
G01 X4.0229 Y32.3074
G01 X4.0755 Y32.2365
G01 X4.0895 Y32.2185
G01 X4.1044 Y32.2013
G01 X4.1637 Y32.1359
G01 X4.1794 Y32.1194
G01 X4.1959 Y32.1037
G01 X4.2613 Y32.0444
G01 X4.2785 Y32.0295
G01 X4.2965 Y32.0155
G01 X4.3674 Y31.9629
G01 X4.3860 Y31.9498
G01 X4.4052 Y31.9377
G01 X4.4810 Y31.8923
G01 X4.5008 Y31.8810
G01 X4.5109 Y31.8758
G01 X4.6009 Y31.8331
G01 X4.6217 Y31.8238
G01 X4.6490 Y31.8135
G01 X4.6323 Y31.8074
G01 X4.6113 Y31.7987
G01 X4.5211 Y31.7562
G01 X4.5008 Y31.7460
G01 X4.4810 Y31.7347
G01 X4.4052 Y31.6893
G01 X4.3860 Y31.6772
G01 X4.3674 Y31.6641
G01 X4.2965 Y31.6115
G01 X4.2785 Y31.5975
G01 X4.2613 Y31.5826
G01 X4.1875 Y31.5155
G01 X4.1794 Y31.5076
G01 X4.1637 Y31.4911
G01 X4.1044 Y31.4257
G01 X4.0895 Y31.4085
G01 X4.0755 Y31.3905
G01 X4.0229 Y31.3196
G01 X4.0098 Y31.3010
G01 X3.9977 Y31.2818
G01 X3.9523 Y31.2060
G01 X3.9410 Y31.1862
G01 X3.9308 Y31.1659
G01 X3.8931 Y31.0861
G01 X3.8838 Y31.0653
G01 X3.8796 Y31.0547
G01 X3.8459 Y30.9609
G01 X3.8388 Y30.9393
G01 X3.8327 Y30.9174
G01 X3.8086 Y30.8206
G01 X3.8042 Y30.7983
G01 X3.8024 Y30.7871
G01 X3.7894 Y30.6997
G01 X3.7866 Y30.6771
G01 X3.7849 Y30.6545
G01 X3.7806 Y30.5662
G01 X3.7801 Y30.5435
G01 X3.7806 Y30.5208
G01 X3.7849 Y30.4325
G01 X3.7866 Y30.4099
G01 X3.7894 Y30.3873
G01 X3.8024 Y30.2999
G01 X3.8063 Y30.2775
G01 X3.8112 Y30.2553
G01 X3.8327 Y30.1696
G01 X3.8388 Y30.1477
G01 X3.8459 Y30.1261
G01 X3.8757 Y30.0430
G01 X3.8796 Y30.0323
G01 X3.8883 Y30.0113
G01 X3.9308 Y29.9211
G01 X3.9410 Y29.9008
G01 X3.9523 Y29.8810
G01 X4.0036 Y29.7955
G01 X4.0163 Y29.7766
G01 X4.0229 Y29.7674
G01 X4.0755 Y29.6965
G01 X4.0895 Y29.6785
G01 X4.1044 Y29.6613
G01 X4.1637 Y29.5959
G01 X4.1794 Y29.5794
G01 X4.1959 Y29.5637
G01 X4.2613 Y29.5044
G01 X4.2785 Y29.4895
G01 X4.2965 Y29.4755
G01 X4.3674 Y29.4229
G01 X4.3860 Y29.4098
G01 X4.4052 Y29.3977
G01 X4.4810 Y29.3523
G01 X4.5008 Y29.3410
G01 X4.5109 Y29.3358
G01 X4.6009 Y29.2931
G01 X4.6217 Y29.2838
G01 X4.6490 Y29.2735
G01 X4.6323 Y29.2674
G01 X4.6113 Y29.2587
G01 X4.5211 Y29.2162
G01 X4.5008 Y29.2060
G01 X4.4810 Y29.1947
G01 X4.4052 Y29.1493
G01 X4.3860 Y29.1372
G01 X4.3674 Y29.1241
G01 X4.2965 Y29.0715
G01 X4.2785 Y29.0575
G01 X4.2613 Y29.0426
G01 X4.1875 Y28.9755
G01 X4.1715 Y28.9595
G01 X4.1637 Y28.9511
G01 X4.1044 Y28.8857
G01 X4.0895 Y28.8685
G01 X4.0755 Y28.8505
G01 X4.0229 Y28.7796
G01 X4.0098 Y28.7610
G01 X3.9977 Y28.7418
G01 X3.9523 Y28.6660
G01 X3.9410 Y28.6462
G01 X3.9308 Y28.6259
G01 X3.8931 Y28.5461
G01 X3.8838 Y28.5253
G01 X3.8757 Y28.5040
G01 X3.8459 Y28.4209
G01 X3.8388 Y28.3993
G01 X3.8327 Y28.3774
G01 X3.8112 Y28.2917
G01 X3.8063 Y28.2695
G01 X3.8024 Y28.2471
G01 X3.7894 Y28.1597
G01 X3.7866 Y28.1371
G01 X3.7849 Y28.1145
G01 X3.7806 Y28.0262
G01 X3.7801 Y28.0035
G01 X3.7806 Y27.9808
G01 X3.7849 Y27.8925
G01 X3.7866 Y27.8699
G01 X3.7894 Y27.8473
G01 X3.8042 Y27.7487
G01 X3.8063 Y27.7375
G01 X3.8112 Y27.7153
G01 X3.8327 Y27.6296
G01 X3.8388 Y27.6077
G01 X3.8459 Y27.5861
G01 X3.8757 Y27.5030
G01 X3.8838 Y27.4817
G01 X3.8931 Y27.4609
G01 X3.9308 Y27.3811
G01 X3.9410 Y27.3608
G01 X3.9523 Y27.3410
G01 X3.9977 Y27.2652
G01 X4.0098 Y27.2460
G01 X4.0229 Y27.2274
G01 X4.0824 Y27.1474
G01 X4.0969 Y27.1298
G01 X4.1044 Y27.1213
G01 X4.1637 Y27.0559
G01 X4.1794 Y27.0394
G01 X4.1959 Y27.0237
G01 X4.2613 Y26.9644
G01 X4.2785 Y26.9495
G01 X4.2965 Y26.9355
G01 X4.3674 Y26.8829
G01 X4.3860 Y26.8698
G01 X4.4052 Y26.8577
G01 X4.4810 Y26.8123
G01 X4.5008 Y26.8010
G01 X4.5109 Y26.7958
G01 X4.6009 Y26.7531
G01 X4.6217 Y26.7438
G01 X4.6490 Y26.7335
G01 X4.6323 Y26.7274
G01 X4.6113 Y26.7187
G01 X4.5211 Y26.6762
G01 X4.5008 Y26.6660
G01 X4.4810 Y26.6547
G01 X4.4052 Y26.6093
G01 X4.3955 Y26.6034
G01 X4.3766 Y26.5907
G01 X4.2965 Y26.5315
G01 X4.2785 Y26.5175
G01 X4.2613 Y26.5026
G01 X4.1959 Y26.4433
G01 X4.1875 Y26.4355
G01 X4.1715 Y26.4195
G01 X4.0969 Y26.3372
G01 X4.0824 Y26.3196
G01 X4.0755 Y26.3105
G01 X4.0229 Y26.2396
G01 X4.0098 Y26.2210
G01 X3.9977 Y26.2018
G01 X3.9523 Y26.1260
G01 X3.9410 Y26.1062
G01 X3.9308 Y26.0859
G01 X3.8931 Y26.0061
G01 X3.8838 Y25.9853
G01 X3.8757 Y25.9640
G01 X3.8459 Y25.8809
G01 X3.8422 Y25.8701
G01 X3.8356 Y25.8484
G01 X3.8086 Y25.7406
G01 X3.8063 Y25.7295
G01 X3.8024 Y25.7071
G01 X3.7894 Y25.6197
G01 X3.7866 Y25.5971
G01 X3.7849 Y25.5745
G01 X3.7806 Y25.4862
G01 X3.7802 Y25.4749
G01 X3.7802 Y25.4521
G01 X3.7849 Y25.3525
G01 X3.7866 Y25.3299
G01 X3.7894 Y25.3073
G01 X3.8024 Y25.2199
G01 X3.8063 Y25.1975
G01 X3.8112 Y25.1753
G01 X3.8327 Y25.0896
G01 X3.8388 Y25.0677
G01 X3.8459 Y25.0461
G01 X3.8757 Y24.9630
G01 X3.8838 Y24.9417
G01 X3.8931 Y24.9209
G01 X3.9308 Y24.8411
G01 X3.9410 Y24.8208
G01 X3.9523 Y24.8010
G01 X3.9977 Y24.7252
G01 X4.0098 Y24.7060
G01 X4.0229 Y24.6874
G01 X4.0755 Y24.6165
G01 X4.0895 Y24.5985
G01 X4.1044 Y24.5813
G01 X4.1637 Y24.5159
G01 X4.1794 Y24.4994
G01 X4.1959 Y24.4837
G01 X4.2613 Y24.4244
G01 X4.2785 Y24.4095
G01 X4.2874 Y24.4024
G01 X4.3766 Y24.3363
G01 X4.3955 Y24.3236
G01 X4.4052 Y24.3177
G01 X4.4810 Y24.2723
G01 X4.4908 Y24.2665
G01 X4.5109 Y24.2558
G01 X4.6009 Y24.2131
G01 X4.6217 Y24.2038
G01 X4.6490 Y24.1935
G01 X4.6217 Y24.1832
G01 X4.6009 Y24.1739
G01 X4.5109 Y24.1312
G01 X4.5008 Y24.1260
G01 X4.4810 Y24.1147
G01 X4.4052 Y24.0693
G01 X4.3860 Y24.0572
G01 X4.3674 Y24.0441
G01 X4.2965 Y23.9915
G01 X4.2785 Y23.9775
G01 X4.2613 Y23.9626
G01 X4.1959 Y23.9033
G01 X4.1794 Y23.8876
G01 X4.1637 Y23.8711
G01 X4.1044 Y23.8057
G01 X4.0969 Y23.7972
G01 X4.0824 Y23.7796
G01 X4.0229 Y23.6996
G01 X4.0098 Y23.6810
G01 X3.9977 Y23.6618
G01 X3.9523 Y23.5860
G01 X3.9410 Y23.5662
G01 X3.9308 Y23.5459
G01 X3.8931 Y23.4661
G01 X3.8838 Y23.4453
G01 X3.8757 Y23.4240
G01 X3.8459 Y23.3409
G01 X3.8388 Y23.3193
G01 X3.8327 Y23.2974
G01 X3.8112 Y23.2117
G01 X3.8086 Y23.2006
G01 X3.8042 Y23.1783
G01 X3.7894 Y23.0797
G01 X3.7866 Y23.0571
G01 X3.7849 Y23.0345
G01 X3.7806 Y22.9462
G01 X3.7801 Y22.9235
G01 X3.7806 Y22.9008
G01 X3.7849 Y22.8125
G01 X3.7856 Y22.8012
G01 X3.7879 Y22.7786
G01 X3.8024 Y22.6799
G01 X3.8063 Y22.6575
G01 X3.8112 Y22.6353
G01 X3.8327 Y22.5496
G01 X3.8388 Y22.5277
G01 X3.8459 Y22.5061
G01 X3.8757 Y22.4230
G01 X3.8838 Y22.4017
G01 X3.8931 Y22.3809
G01 X3.9308 Y22.3011
G01 X3.9410 Y22.2808
G01 X3.9523 Y22.2610
G01 X3.9977 Y22.1852
G01 X4.0098 Y22.1660
G01 X4.0229 Y22.1474
G01 X4.0824 Y22.0674
G01 X4.0969 Y22.0498
G01 X4.1044 Y22.0413
G01 X4.1637 Y21.9759
G01 X4.1794 Y21.9594
G01 X4.1959 Y21.9437
G01 X4.2613 Y21.8844
G01 X4.2785 Y21.8695
G01 X4.2965 Y21.8555
G01 X4.3674 Y21.8029
G01 X4.3860 Y21.7898
G01 X4.4052 Y21.7777
G01 X4.4810 Y21.7323
G01 X4.5008 Y21.7210
G01 X4.5211 Y21.7108
G01 X4.6113 Y21.6683
G01 X4.6323 Y21.6596
G01 X4.6490 Y21.6535
G01 X4.6217 Y21.6432
G01 X4.6009 Y21.6339
G01 X4.5109 Y21.5912
G01 X4.5008 Y21.5860
G01 X4.4810 Y21.5747
G01 X4.4052 Y21.5293
G01 X4.3860 Y21.5172
G01 X4.3674 Y21.5041
G01 X4.2965 Y21.4515
G01 X4.2785 Y21.4375
G01 X4.2613 Y21.4226
G01 X4.1959 Y21.3633
G01 X4.1794 Y21.3476
G01 X4.1637 Y21.3311
G01 X4.1044 Y21.2657
G01 X4.0895 Y21.2485
G01 X4.0755 Y21.2305
G01 X4.0229 Y21.1596
G01 X4.0098 Y21.1410
G01 X4.0036 Y21.1315
G01 X3.9523 Y21.0460
G01 X3.9410 Y21.0262
G01 X3.9308 Y21.0059
G01 X3.8883 Y20.9157
G01 X3.8796 Y20.8947
G01 X3.8757 Y20.8840
G01 X3.8459 Y20.8009
G01 X3.8388 Y20.7793
G01 X3.8327 Y20.7574
G01 X3.8112 Y20.6717
G01 X3.8063 Y20.6495
G01 X3.8024 Y20.6271
G01 X3.7894 Y20.5397
G01 X3.7866 Y20.5171
G01 X3.7849 Y20.4945
G01 X3.7806 Y20.4062
G01 X3.7801 Y20.3835
G01 X3.7806 Y20.3608
G01 X3.7856 Y20.2612
G01 X3.7866 Y20.2499
G01 X3.7894 Y20.2273
G01 X3.8024 Y20.1399
G01 X3.8063 Y20.1175
G01 X3.8112 Y20.0953
G01 X3.8327 Y20.0096
G01 X3.8388 Y19.9877
G01 X3.8459 Y19.9661
G01 X3.8757 Y19.8830
G01 X3.8838 Y19.8617
G01 X3.8931 Y19.8409
G01 X3.9308 Y19.7611
G01 X3.9410 Y19.7408
G01 X3.9523 Y19.7210
G01 X3.9977 Y19.6452
G01 X4.0098 Y19.6260
G01 X4.0229 Y19.6074
G01 X4.0755 Y19.5365
G01 X4.0895 Y19.5185
G01 X4.1044 Y19.5013
G01 X4.1637 Y19.4359
G01 X4.1794 Y19.4194
G01 X4.1875 Y19.4115
G01 X4.2613 Y19.3444
G01 X4.2785 Y19.3295
G01 X4.2965 Y19.3155
G01 X4.3674 Y19.2629
G01 X4.3860 Y19.2498
G01 X4.4052 Y19.2377
G01 X4.4810 Y19.1923
G01 X4.5008 Y19.1810
G01 X4.5211 Y19.1708
G01 X4.6113 Y19.1283
G01 X4.6323 Y19.1196
G01 X4.6490 Y19.1135
G01 X4.6217 Y19.1032
G01 X4.6009 Y19.0939
G01 X4.5109 Y19.0512
G01 X4.4908 Y19.0405
G01 X4.4810 Y19.0347
G01 X4.4052 Y18.9893
G01 X4.3860 Y18.9772
G01 X4.3674 Y18.9641
G01 X4.2965 Y18.9115
G01 X4.2785 Y18.8975
G01 X4.2613 Y18.8826
G01 X4.1959 Y18.8233
G01 X4.1794 Y18.8076
G01 X4.1637 Y18.7911
G01 X4.1044 Y18.7257
G01 X4.0895 Y18.7085
G01 X4.0755 Y18.6905
G01 X4.0229 Y18.6196
G01 X4.0098 Y18.6010
G01 X4.0036 Y18.5915
G01 X3.9523 Y18.5060
G01 X3.9410 Y18.4862
G01 X3.9308 Y18.4659
G01 X3.8883 Y18.3757
G01 X3.8796 Y18.3547
G01 X3.8757 Y18.3440
G01 X3.8459 Y18.2609
G01 X3.8388 Y18.2393
G01 X3.8327 Y18.2174
G01 X3.8112 Y18.1317
G01 X3.8063 Y18.1095
G01 X3.8024 Y18.0871
G01 X3.7894 Y17.9997
G01 X3.7866 Y17.9771
G01 X3.7849 Y17.9545
G01 X3.7806 Y17.8662
G01 X3.7801 Y17.8435
G01 X3.7806 Y17.8208
G01 X3.7849 Y17.7325
G01 X3.7866 Y17.7099
G01 X3.7894 Y17.6873
G01 X3.8024 Y17.5999
G01 X3.8042 Y17.5887
G01 X3.8086 Y17.5664
G01 X3.8327 Y17.4696
G01 X3.8388 Y17.4477
G01 X3.8459 Y17.4261
G01 X3.8796 Y17.3323
G01 X3.8883 Y17.3113
G01 X3.8931 Y17.3009
G01 X3.9308 Y17.2211
G01 X3.9410 Y17.2008
G01 X3.9523 Y17.1810
G01 X3.9977 Y17.1052
G01 X4.0098 Y17.0860
G01 X4.0229 Y17.0674
G01 X4.0755 Y16.9965
G01 X4.0895 Y16.9785
G01 X4.1044 Y16.9613
G01 X4.1637 Y16.8959
G01 X4.1715 Y16.8875
G01 X4.1875 Y16.8715
G01 X4.2613 Y16.8044
G01 X4.2785 Y16.7895
G01 X4.2965 Y16.7755
G01 X4.3674 Y16.7229
G01 X4.3860 Y16.7098
G01 X4.4052 Y16.6977
G01 X4.4810 Y16.6523
G01 X4.5008 Y16.6410
G01 X4.5211 Y16.6308
G01 X4.6113 Y16.5883
G01 X4.6323 Y16.5796
G01 X4.6490 Y16.5735
G01 X4.6217 Y16.5632
G01 X4.6009 Y16.5539
G01 X4.5109 Y16.5112
G01 X4.5008 Y16.5060
G01 X4.4810 Y16.4947
G01 X4.4052 Y16.4493
G01 X4.3860 Y16.4372
G01 X4.3674 Y16.4241
G01 X4.2965 Y16.3715
G01 X4.2785 Y16.3575
G01 X4.2613 Y16.3426
G01 X4.1959 Y16.2833
G01 X4.1794 Y16.2676
G01 X4.1637 Y16.2511
G01 X4.1044 Y16.1857
G01 X4.0895 Y16.1685
G01 X4.0755 Y16.1505
G01 X4.0229 Y16.0796
G01 X4.0098 Y16.0610
G01 X3.9977 Y16.0418
G01 X3.9523 Y15.9660
G01 X3.9410 Y15.9462
G01 X3.9308 Y15.9259
G01 X3.8931 Y15.8461
G01 X3.8838 Y15.8253
G01 X3.8757 Y15.8040
G01 X3.8459 Y15.7209
G01 X3.8388 Y15.6993
G01 X3.8327 Y15.6774
G01 X3.8112 Y15.5917
G01 X3.8063 Y15.5695
G01 X3.8024 Y15.5471
G01 X3.7894 Y15.4597
G01 X3.7866 Y15.4371
G01 X3.7856 Y15.4258
G01 X3.7806 Y15.3262
G01 X3.7801 Y15.3035
G01 X3.7806 Y15.2808
G01 X3.7849 Y15.1925
G01 X3.7866 Y15.1699
G01 X3.7894 Y15.1473
G01 X3.8024 Y15.0599
G01 X3.8063 Y15.0375
G01 X3.8112 Y15.0153
G01 X3.8327 Y14.9296
G01 X3.8388 Y14.9077
G01 X3.8459 Y14.8861
G01 X3.8757 Y14.8030
G01 X3.8838 Y14.7817
G01 X3.8931 Y14.7609
G01 X3.9308 Y14.6811
G01 X3.9410 Y14.6608
G01 X3.9523 Y14.6410
G01 X3.9977 Y14.5652
G01 X4.0036 Y14.5555
G01 X4.0163 Y14.5366
G01 X4.0755 Y14.4565
G01 X4.0895 Y14.4385
G01 X4.1044 Y14.4213
G01 X4.1637 Y14.3559
G01 X4.1794 Y14.3394
G01 X4.1959 Y14.3237
G01 X4.2613 Y14.2644
G01 X4.2785 Y14.2495
G01 X4.2874 Y14.2424
G01 X4.3674 Y14.1829
G01 X4.3860 Y14.1698
G01 X4.4052 Y14.1577
G01 X4.4908 Y14.1065
G01 X4.5008 Y14.1010
G01 X4.5211 Y14.0908
G01 X4.6009 Y14.0531
G01 X4.6217 Y14.0438
G01 X4.6490 Y14.0335
G01 X4.6217 Y14.0232
G01 X4.6009 Y14.0139
G01 X4.5109 Y13.9712
G01 X4.4908 Y13.9605
G01 X4.4810 Y13.9547
G01 X4.4052 Y13.9093
G01 X4.3860 Y13.8972
G01 X4.3674 Y13.8841
G01 X4.2965 Y13.8315
G01 X4.2785 Y13.8175
G01 X4.2613 Y13.8026
G01 X4.1959 Y13.7433
G01 X4.1794 Y13.7276
G01 X4.1637 Y13.7111
G01 X4.1044 Y13.6457
G01 X4.0895 Y13.6285
G01 X4.0755 Y13.6105
G01 X4.0229 Y13.5396
G01 X4.0098 Y13.5210
G01 X3.9977 Y13.5018
G01 X3.9523 Y13.4260
G01 X3.9410 Y13.4062
G01 X3.9308 Y13.3859
G01 X3.8931 Y13.3061
G01 X3.8838 Y13.2853
G01 X3.8757 Y13.2640
G01 X3.8459 Y13.1809
G01 X3.8388 Y13.1593
G01 X3.8327 Y13.1374
G01 X3.8112 Y13.0517
G01 X3.8063 Y13.0295
G01 X3.8024 Y13.0071
G01 X3.7894 Y12.9197
G01 X3.7866 Y12.8971
G01 X3.7856 Y12.8858
G01 X3.7806 Y12.7862
G01 X3.7801 Y12.7635
G01 X3.7806 Y12.7408
G01 X3.7849 Y12.6525
G01 X3.7866 Y12.6299
G01 X3.7894 Y12.6073
G01 X3.8024 Y12.5199
G01 X3.8063 Y12.4975
G01 X3.8112 Y12.4753
G01 X3.8327 Y12.3896
G01 X3.8388 Y12.3677
G01 X3.8459 Y12.3461
G01 X3.8757 Y12.2630
G01 X3.8838 Y12.2417
G01 X3.8931 Y12.2209
G01 X3.9308 Y12.1411
G01 X3.9410 Y12.1208
G01 X3.9523 Y12.1010
G01 X3.9977 Y12.0252
G01 X4.0036 Y12.0155
G01 X4.0163 Y11.9966
G01 X4.0755 Y11.9165
G01 X4.0895 Y11.8985
G01 X4.1044 Y11.8813
G01 X4.1637 Y11.8159
G01 X4.1794 Y11.7994
G01 X4.1959 Y11.7837
G01 X4.2613 Y11.7244
G01 X4.2698 Y11.7169
G01 X4.2874 Y11.7024
G01 X4.3674 Y11.6429
G01 X4.3860 Y11.6298
G01 X4.4052 Y11.6177
G01 X4.4908 Y11.5665
G01 X4.5109 Y11.5558
G01 X4.5211 Y11.5508
G01 X4.6009 Y11.5131
G01 X4.6217 Y11.5038
G01 X4.6490 Y11.4935
G01 X4.6217 Y11.4832
G01 X4.6009 Y11.4739
G01 X4.5109 Y11.4312
G01 X4.4908 Y11.4205
G01 X4.4810 Y11.4147
G01 X4.4052 Y11.3693
G01 X4.3860 Y11.3572
G01 X4.3674 Y11.3441
G01 X4.2965 Y11.2915
G01 X4.2785 Y11.2775
G01 X4.2613 Y11.2626
G01 X4.1959 Y11.2033
G01 X4.1794 Y11.1876
G01 X4.1637 Y11.1711
G01 X4.1044 Y11.1057
G01 X4.0895 Y11.0885
G01 X4.0755 Y11.0705
G01 X4.0229 Y10.9996
G01 X4.0098 Y10.9810
G01 X3.9977 Y10.9618
G01 X3.9523 Y10.8860
G01 X3.9410 Y10.8662
G01 X3.9308 Y10.8459
G01 X3.8931 Y10.7661
G01 X3.8838 Y10.7453
G01 X3.8757 Y10.7240
G01 X3.8459 Y10.6409
G01 X3.8388 Y10.6193
G01 X3.8327 Y10.5974
G01 X3.8112 Y10.5117
G01 X3.8063 Y10.4895
G01 X3.8024 Y10.4671
G01 X3.7894 Y10.3797
G01 X3.7866 Y10.3571
G01 X3.7849 Y10.3345
G01 X3.7806 Y10.2462
G01 X3.7802 Y10.2349
G01 X3.7802 Y10.2121
G01 X3.7849 Y10.1125
G01 X3.7866 Y10.0899
G01 X3.7894 Y10.0673
G01 X3.8024 Y9.9799
G01 X3.8063 Y9.9575
G01 X3.8112 Y9.9353
G01 X3.8327 Y9.8496
G01 X3.8388 Y9.8277
G01 X3.8459 Y9.8061
G01 X3.8757 Y9.7230
G01 X3.8838 Y9.7017
G01 X3.8931 Y9.6809
G01 X3.9308 Y9.6011
G01 X3.9410 Y9.5808
G01 X3.9523 Y9.5610
G01 X3.9977 Y9.4852
G01 X4.0036 Y9.4755
G01 X4.0163 Y9.4566
G01 X4.0755 Y9.3765
G01 X4.0895 Y9.3585
G01 X4.1044 Y9.3413
G01 X4.1637 Y9.2759
G01 X4.1794 Y9.2594
G01 X4.1959 Y9.2437
G01 X4.2613 Y9.1844
G01 X4.2698 Y9.1769
G01 X4.2874 Y9.1624
G01 X4.3674 Y9.1029
G01 X4.3860 Y9.0898
G01 X4.4052 Y9.0777
G01 X4.4908 Y9.0265
G01 X4.5008 Y9.0210
G01 X4.5211 Y9.0108
G01 X4.6009 Y8.9731
G01 X4.6217 Y8.9638
G01 X4.6490 Y8.9535
G01 X4.6217 Y8.9432
G01 X4.6009 Y8.9339
G01 X4.5109 Y8.8912
G01 X4.4908 Y8.8805
G01 X4.4810 Y8.8747
G01 X4.4052 Y8.8293
G01 X4.3860 Y8.8172
G01 X4.3674 Y8.8041
G01 X4.2965 Y8.7515
G01 X4.2785 Y8.7375
G01 X4.2613 Y8.7226
G01 X4.1959 Y8.6633
G01 X4.1794 Y8.6476
G01 X4.1637 Y8.6311
G01 X4.1044 Y8.5657
G01 X4.0895 Y8.5485
G01 X4.0755 Y8.5305
G01 X4.0229 Y8.4596
G01 X4.0098 Y8.4410
G01 X3.9977 Y8.4218
G01 X3.9523 Y8.3460
G01 X3.9410 Y8.3262
G01 X3.9308 Y8.3059
G01 X3.8931 Y8.2261
G01 X3.8838 Y8.2053
G01 X3.8757 Y8.1840
G01 X3.8459 Y8.1009
G01 X3.8388 Y8.0793
G01 X3.8327 Y8.0574
G01 X3.8112 Y7.9717
G01 X3.8063 Y7.9495
G01 X3.8024 Y7.9271
G01 X3.7894 Y7.8397
G01 X3.7866 Y7.8171
G01 X3.7849 Y7.7945
G01 X3.7806 Y7.7062
G01 X3.7802 Y7.6949
G01 X3.7802 Y7.6721
G01 X3.7849 Y7.5725
G01 X3.7866 Y7.5499
G01 X3.7894 Y7.5273
G01 X3.8024 Y7.4399
G01 X3.8063 Y7.4175
G01 X3.8112 Y7.3953
G01 X3.8327 Y7.3096
G01 X3.8388 Y7.2877
G01 X3.8459 Y7.2661
G01 X3.8757 Y7.1830
G01 X3.8838 Y7.1617
G01 X3.8931 Y7.1409
G01 X3.9308 Y7.0611
G01 X3.9410 Y7.0408
G01 X3.9523 Y7.0210
G01 X3.9977 Y6.9452
G01 X4.0098 Y6.9260
G01 X4.0163 Y6.9166
G01 X4.0755 Y6.8365
G01 X4.0895 Y6.8185
G01 X4.1044 Y6.8013
G01 X4.1637 Y6.7359
G01 X4.1794 Y6.7194
G01 X4.1959 Y6.7037
G01 X4.2613 Y6.6444
G01 X4.2698 Y6.6369
G01 X4.2874 Y6.6224
G01 X4.3674 Y6.5629
G01 X4.3860 Y6.5498
G01 X4.4052 Y6.5377
G01 X4.4908 Y6.4865
G01 X4.5109 Y6.4758
G01 X4.5211 Y6.4708
G01 X4.6009 Y6.4331
G01 X4.6217 Y6.4238
G01 X4.6490 Y6.4135
G01 X4.6217 Y6.4032
G01 X4.6009 Y6.3939
G01 X4.5109 Y6.3512
G01 X4.4908 Y6.3405
G01 X4.4810 Y6.3347
G01 X4.4052 Y6.2893
G01 X4.3860 Y6.2772
G01 X4.3674 Y6.2641
G01 X4.2965 Y6.2115
G01 X4.2785 Y6.1975
G01 X4.2613 Y6.1826
G01 X4.1959 Y6.1233
G01 X4.1794 Y6.1076
G01 X4.1637 Y6.0911
G01 X4.1044 Y6.0257
G01 X4.0895 Y6.0085
G01 X4.0755 Y5.9905
G01 X4.0229 Y5.9196
G01 X4.0098 Y5.9010
G01 X3.9977 Y5.8818
G01 X3.9523 Y5.8060
G01 X3.9410 Y5.7862
G01 X3.9308 Y5.7659
G01 X3.8931 Y5.6861
G01 X3.8838 Y5.6653
G01 X3.8757 Y5.6440
G01 X3.8459 Y5.5609
G01 X3.8388 Y5.5393
G01 X3.8327 Y5.5174
G01 X3.8112 Y5.4317
G01 X3.8063 Y5.4095
G01 X3.8024 Y5.3871
G01 X3.7894 Y5.2997
G01 X3.7866 Y5.2771
G01 X3.7856 Y5.2658
G01 X3.7806 Y5.1662
G01 X3.7801 Y5.1435
G01 X3.7806 Y5.1208
G01 X3.7849 Y5.0325
G01 X3.7866 Y5.0099
G01 X3.7894 Y4.9873
G01 X3.8024 Y4.8999
G01 X3.8063 Y4.8775
G01 X3.8112 Y4.8553
G01 X3.8327 Y4.7696
G01 X3.8388 Y4.7477
G01 X3.8459 Y4.7261
G01 X3.8757 Y4.6430
G01 X3.8838 Y4.6217
G01 X3.8931 Y4.6009
G01 X3.9308 Y4.5211
G01 X3.9410 Y4.5008
G01 X3.9523 Y4.4810
G01 X3.9977 Y4.4052
G01 X4.0098 Y4.3860
G01 X4.0229 Y4.3674
G01 X4.0755 Y4.2965
G01 X4.0895 Y4.2785
G01 X4.1044 Y4.2613
G01 X4.1637 Y4.1959
G01 X4.1794 Y4.1794
G01 X4.1959 Y4.1637
G01 X4.2613 Y4.1044
G01 X4.2785 Y4.0895
G01 X4.2965 Y4.0755
G01 X4.3674 Y4.0229
G01 X4.3860 Y4.0098
G01 X4.4052 Y3.9977
G01 X4.4810 Y3.9523
G01 X4.5008 Y3.9410
G01 X4.5211 Y3.9308
G01 X4.6009 Y3.8931
G01 X4.6217 Y3.8838
G01 X4.6430 Y3.8757
G01 X4.7261 Y3.8459
G01 X4.7477 Y3.8388
G01 X4.7696 Y3.8327
G01 X4.8553 Y3.8112
G01 X4.8775 Y3.8063
G01 X4.8999 Y3.8024
G01 X4.9873 Y3.7894
G01 X5.0099 Y3.7866
G01 X5.0325 Y3.7849
G01 X5.1208 Y3.7806
G01 X5.1435 Y3.7801
G01 X5.1662 Y3.7806
G01 X5.2545 Y3.7849
G01 X5.2771 Y3.7866
G01 X5.2997 Y3.7894
G01 X5.3871 Y3.8024
G01 X5.4095 Y3.8063
G01 X5.4317 Y3.8112
G01 X5.5174 Y3.8327
G01 X5.5393 Y3.8388
G01 X5.5609 Y3.8459
G01 X5.6440 Y3.8757
G01 X5.6653 Y3.8838
G01 X5.6861 Y3.8931
G01 X5.7659 Y3.9308
G01 X5.7862 Y3.9410
G01 X5.8060 Y3.9523
G01 X5.8818 Y3.9977
G01 X5.9010 Y4.0098
G01 X5.9196 Y4.0229
G01 X5.9905 Y4.0755
G01 X6.0085 Y4.0895
G01 X6.0257 Y4.1044
G01 X6.0911 Y4.1637
G01 X6.1080 Y4.1799
G00 Z2.0000
G00 X6.2142 Y6.4135
G01 F60.00
G01 Z-0.2001
G01 F320.00
G01 X6.2238 Y6.4050
G01 X6.6032 Y6.4050
G01 X6.6128 Y6.4135
G01 X6.6032 Y6.4220
G01 X6.2238 Y6.4220
G01 X6.2142 Y6.4135
G00 Z2.0000
G00 X5.6380 Y6.4135
G01 F60.00
G01 Z-0.2001
G01 F320.00
G01 X5.6547 Y6.4074
G01 X5.6757 Y6.3987
G01 X5.7761 Y6.3512
G01 X5.7962 Y6.3405
G01 X5.8060 Y6.3347
G01 X5.8818 Y6.2893
G01 X5.9010 Y6.2772
G01 X5.9196 Y6.2641
G01 X5.9905 Y6.2115
G01 X6.0085 Y6.1975
G01 X6.0257 Y6.1826
G01 X6.0911 Y6.1233
G01 X6.1080 Y6.1071
G01 X6.7190 Y6.1071
G01 X6.7359 Y6.1233
G01 X6.8013 Y6.1826
G01 X6.8185 Y6.1975
G01 X6.8365 Y6.2115
G01 X6.9074 Y6.2641
G01 X6.9260 Y6.2772
G01 X6.9452 Y6.2893
G01 X7.0210 Y6.3347
G01 X7.0408 Y6.3460
G01 X7.0509 Y6.3512
G01 X7.1513 Y6.3987
G01 X7.1723 Y6.4074
G01 X7.1890 Y6.4135
G01 X7.1723 Y6.4196
G01 X7.1513 Y6.4283
G01 X7.0509 Y6.4758
G01 X7.0408 Y6.4810
G01 X7.0210 Y6.4923
G01 X6.9452 Y6.5377
G01 X6.9260 Y6.5498
G01 X6.9074 Y6.5629
G01 X6.8365 Y6.6155
G01 X6.8185 Y6.6295
G01 X6.8013 Y6.6444
G01 X6.7359 Y6.7037
G01 X6.7190 Y6.7199
G01 X6.1080 Y6.7199
G01 X6.0911 Y6.7037
G01 X6.0257 Y6.6444
G01 X6.0085 Y6.6295
G01 X5.9905 Y6.6155
G01 X5.9196 Y6.5629
G01 X5.9010 Y6.5498
G01 X5.8818 Y6.5377
G01 X5.8060 Y6.4923
G01 X5.7862 Y6.4810
G01 X5.7761 Y6.4758
G01 X5.6757 Y6.4283
G01 X5.6547 Y6.4196
G01 X5.6380 Y6.4135
G00 Z2.0000
G00 X5.6380 Y8.9535
G01 F60.00
G01 Z-0.2001
G01 F320.00
G01 X5.6547 Y8.9474
G01 X5.6757 Y8.9387
G01 X5.7761 Y8.8912
G01 X5.7962 Y8.8805
G01 X5.8060 Y8.8747
G01 X5.8818 Y8.8293
G01 X5.9010 Y8.8172
G01 X5.9196 Y8.8041
G01 X5.9905 Y8.7515
G01 X6.0085 Y8.7375
G01 X6.0257 Y8.7226
G01 X6.0911 Y8.6633
G01 X6.1080 Y8.6471
G01 X6.7190 Y8.6471
G01 X6.7359 Y8.6633
G01 X6.8013 Y8.7226
G01 X6.8185 Y8.7375
G01 X6.8365 Y8.7515
G01 X6.9074 Y8.8041
G01 X6.9260 Y8.8172
G01 X6.9452 Y8.8293
G01 X7.0210 Y8.8747
G01 X7.0308 Y8.8805
G01 X7.0509 Y8.8912
G01 X7.1513 Y8.9387
G01 X7.1723 Y8.9474
G01 X7.1890 Y8.9535
G01 X7.1723 Y8.9596
G01 X7.1513 Y8.9683
G01 X7.0509 Y9.0158
G01 X7.0308 Y9.0265
G01 X7.0210 Y9.0323
G01 X6.9452 Y9.0777
G01 X6.9260 Y9.0898
G01 X6.9074 Y9.1029
G01 X6.8365 Y9.1555
G01 X6.8185 Y9.1695
G01 X6.8013 Y9.1844
G01 X6.7359 Y9.2437
G01 X6.7190 Y9.2599
G01 X6.1080 Y9.2599
G01 X6.0911 Y9.2437
G01 X6.0257 Y9.1844
G01 X6.0085 Y9.1695
G01 X5.9905 Y9.1555
G01 X5.9196 Y9.1029
G01 X5.9010 Y9.0898
G01 X5.8818 Y9.0777
G01 X5.8060 Y9.0323
G01 X5.7962 Y9.0265
G01 X5.7761 Y9.0158
G01 X5.6757 Y8.9683
G01 X5.6547 Y8.9596
G01 X5.6380 Y8.9535
G00 Z2.0000
G00 X6.2142 Y8.9535
G01 F60.00
G01 Z-0.2001
G01 F320.00
G01 X6.2238 Y8.9450
G01 X6.6032 Y8.9450
G01 X6.6128 Y8.9535
G01 X6.6032 Y8.9620
G01 X6.2238 Y8.9620
G01 X6.2142 Y8.9535
G00 Z2.0000
G00 X8.1780 Y8.9535
G01 F60.00
G01 Z-0.2001
G01 F320.00
G01 X8.1947 Y8.9474
G01 X8.2157 Y8.9387
G01 X8.3161 Y8.8912
G01 X8.3262 Y8.8860
G01 X8.3460 Y8.8747
G01 X8.4218 Y8.8293
G01 X8.4410 Y8.8172
G01 X8.4596 Y8.8041
G01 X8.5305 Y8.7515
G01 X8.5485 Y8.7375
G01 X8.5657 Y8.7226
G01 X8.6311 Y8.6633
G01 X8.6480 Y8.6471
G01 X11.7990 Y8.6471
G01 X11.8159 Y8.6633
G01 X11.8813 Y8.7226
G01 X11.8985 Y8.7375
G01 X11.9165 Y8.7515
G01 X11.9874 Y8.8041
G01 X12.0060 Y8.8172
G01 X12.0252 Y8.8293
G01 X12.1010 Y8.8747
G01 X12.1208 Y8.8860
G01 X12.1411 Y8.8962
G01 X12.2209 Y8.9339
G01 X12.2417 Y8.9432
G01 X12.2630 Y8.9513
G01 X12.3461 Y8.9811
G01 X12.3677 Y8.9882
G01 X12.3896 Y8.9943
G01 X12.4753 Y9.0158
G01 X12.4975 Y9.0207
G01 X12.5199 Y9.0246
G01 X12.6073 Y9.0376
G01 X12.6299 Y9.0404
G01 X12.6525 Y9.0421
G01 X12.7408 Y9.0464
G01 X12.7635 Y9.0469
G01 X12.7862 Y9.0464
G01 X12.8745 Y9.0421
G01 X12.8971 Y9.0404
G01 X12.9084 Y9.0391
G01 X13.0183 Y9.0228
G01 X13.0406 Y9.0184
G01 X13.0517 Y9.0158
G01 X13.1374 Y8.9943
G01 X13.1593 Y8.9882
G01 X13.1809 Y8.9811
G01 X13.2640 Y8.9513
G01 X13.2853 Y8.9432
G01 X13.3061 Y8.9339
G01 X13.3859 Y8.8962
G01 X13.4062 Y8.8860
G01 X13.4260 Y8.8747
G01 X13.5018 Y8.8293
G01 X13.5210 Y8.8172
G01 X13.5396 Y8.8041
G01 X13.6105 Y8.7515
G01 X13.6285 Y8.7375
G01 X13.6457 Y8.7226
G01 X13.7111 Y8.6633
G01 X13.7276 Y8.6476
G01 X13.7433 Y8.6311
G01 X13.8026 Y8.5657
G01 X13.8175 Y8.5485
G01 X13.8315 Y8.5305
G01 X13.8841 Y8.4596
G01 X13.8972 Y8.4410
G01 X13.9093 Y8.4218
G01 X13.9547 Y8.3460
G01 X13.9660 Y8.3262
G01 X13.9762 Y8.3059
G01 X14.0139 Y8.2261
G01 X14.0232 Y8.2053
G01 X14.0313 Y8.1840
G01 X14.0611 Y8.1009
G01 X14.0682 Y8.0793
G01 X14.0743 Y8.0574
G01 X14.0958 Y7.9717
G01 X14.0984 Y7.9606
G01 X14.1028 Y7.9383
G01 X14.1176 Y7.8397
G01 X14.1204 Y7.8171
G01 X14.1221 Y7.7945
G01 X14.1264 Y7.7062
G01 X14.1269 Y7.6835
G01 X14.1264 Y7.6608
G01 X14.1221 Y7.5725
G01 X14.1204 Y7.5499
G01 X14.1176 Y7.5273
G01 X14.1028 Y7.4287
G01 X14.0984 Y7.4064
G01 X14.0958 Y7.3953
G01 X14.0743 Y7.3096
G01 X14.0682 Y7.2877
G01 X14.0611 Y7.2661
G01 X14.0313 Y7.1830
G01 X14.0274 Y7.1723
G01 X14.0187 Y7.1513
G01 X13.9762 Y7.0611
G01 X13.9660 Y7.0408
G01 X13.9547 Y7.0210
G01 X13.9093 Y6.9452
G01 X13.8972 Y6.9260
G01 X13.8841 Y6.9074
G01 X13.8315 Y6.8365
G01 X13.8175 Y6.8185
G01 X13.8026 Y6.8013
G01 X13.7433 Y6.7359
G01 X13.7276 Y6.7194
G01 X13.7111 Y6.7037
G01 X13.6457 Y6.6444
G01 X13.6285 Y6.6295
G01 X13.6105 Y6.6155
G01 X13.5396 Y6.5629
G01 X13.5210 Y6.5498
G01 X13.5018 Y6.5377
G01 X13.4260 Y6.4923
G01 X13.4062 Y6.4810
G01 X13.3859 Y6.4708
G01 X13.3061 Y6.4331
G01 X13.2853 Y6.4238
G01 X13.2640 Y6.4157
G01 X13.1701 Y6.3822
G01 X13.1593 Y6.3788
G01 X13.1374 Y6.3727
G01 X13.0517 Y6.3512
G01 X13.0295 Y6.3463
G01 X13.0071 Y6.3424
G01 X12.9197 Y6.3294
G01 X12.8971 Y6.3266
G01 X12.8745 Y6.3249
G01 X12.7862 Y6.3206
G01 X12.7635 Y6.3201
G01 X12.7408 Y6.3206
G01 X12.6525 Y6.3249
G01 X12.6299 Y6.3266
G01 X12.6073 Y6.3294
G01 X12.5199 Y6.3424
G01 X12.4975 Y6.3463
G01 X12.4753 Y6.3512
G01 X12.3896 Y6.3727
G01 X12.3677 Y6.3788
G01 X12.3461 Y6.3859
G01 X12.2630 Y6.4157
G01 X12.2417 Y6.4238
G01 X12.2209 Y6.4331
G01 X12.1411 Y6.4708
G01 X12.1208 Y6.4810
G01 X12.1010 Y6.4923
G01 X12.0252 Y6.5377
G01 X12.0060 Y6.5498
G01 X11.9874 Y6.5629
G01 X11.9165 Y6.6155
G01 X11.8985 Y6.6295
G01 X11.8813 Y6.6444
G01 X11.8159 Y6.7037
G01 X11.7990 Y6.7199
G01 X8.6480 Y6.7199
G01 X8.6311 Y6.7037
G01 X8.5657 Y6.6444
G01 X8.5485 Y6.6295
G01 X8.5305 Y6.6155
G01 X8.4596 Y6.5629
G01 X8.4410 Y6.5498
G01 X8.4218 Y6.5377
G01 X8.3460 Y6.4923
G01 X8.3362 Y6.4865
G01 X8.3161 Y6.4758
G01 X8.2157 Y6.4283
G01 X8.1947 Y6.4196
G01 X8.1780 Y6.4135
G01 X8.1947 Y6.4074
G01 X8.2157 Y6.3987
G01 X8.3161 Y6.3512
G01 X8.3262 Y6.3460
G01 X8.3460 Y6.3347
G01 X8.4218 Y6.2893
G01 X8.4410 Y6.2772
G01 X8.4596 Y6.2641
G01 X8.5305 Y6.2115
G01 X8.5485 Y6.1975
G01 X8.5657 Y6.1826
G01 X8.6311 Y6.1233
G01 X8.6480 Y6.1071
G01 X9.2590 Y6.1071
G01 X9.2759 Y6.1233
G01 X9.3413 Y6.1826
G01 X9.3585 Y6.1975
G01 X9.3765 Y6.2115
G01 X9.4474 Y6.2641
G01 X9.4660 Y6.2772
G01 X9.4852 Y6.2893
G01 X9.5610 Y6.3347
G01 X9.5808 Y6.3460
G01 X9.6011 Y6.3562
G01 X9.6809 Y6.3939
G01 X9.7017 Y6.4032
G01 X9.7230 Y6.4113
G01 X9.8061 Y6.4411
G01 X9.8277 Y6.4482
G01 X9.8496 Y6.4543
G01 X9.9353 Y6.4758
G01 X9.9575 Y6.4807
G01 X9.9799 Y6.4846
G01 X10.0673 Y6.4976
G01 X10.0899 Y6.5004
G01 X10.1125 Y6.5021
G01 X10.2121 Y6.5068
G01 X10.2349 Y6.5068
G01 X10.2462 Y6.5064
G01 X10.3345 Y6.5021
G01 X10.3571 Y6.5004
G01 X10.3797 Y6.4976
G01 X10.4671 Y6.4846
G01 X10.4895 Y6.4807
G01 X10.5117 Y6.4758
G01 X10.5974 Y6.4543
G01 X10.6193 Y6.4482
G01 X10.6409 Y6.4411
G01 X10.7240 Y6.4113
G01 X10.7453 Y6.4032
G01 X10.7661 Y6.3939
G01 X10.8459 Y6.3562
G01 X10.8662 Y6.3460
G01 X10.8860 Y6.3347
G01 X10.9618 Y6.2893
G01 X10.9810 Y6.2772
G01 X10.9996 Y6.2641
G01 X11.0705 Y6.2115
G01 X11.0885 Y6.1975
G01 X11.1057 Y6.1826
G01 X11.1711 Y6.1233
G01 X11.1880 Y6.1071
G01 X24.3635 Y6.1071
G01 X24.4130 Y6.1618
G01 X24.4287 Y6.1783
G01 X24.4452 Y6.1940
G01 X24.5179 Y6.2599
G01 X24.5351 Y6.2747
G01 X24.5531 Y6.2887
G01 X24.6319 Y6.3472
G01 X24.6505 Y6.3603
G01 X24.6697 Y6.3724
G01 X24.7382 Y6.4135
G01 X24.6697 Y6.4546
G01 X24.6505 Y6.4667
G01 X24.6319 Y6.4798
G01 X24.5531 Y6.5383
G01 X24.5351 Y6.5523
G01 X24.5179 Y6.5671
G01 X24.4452 Y6.6330
G01 X24.4287 Y6.6487
G01 X24.4130 Y6.6652
G01 X24.3635 Y6.7199
G01 X17.8321 Y6.7200
G01 X17.7962 Y6.7210
G01 X17.5473 Y6.7332
G01 X17.5246 Y6.7349
G01 X17.4757 Y6.7397
G01 X17.4531 Y6.7425
G01 X17.2066 Y6.7791
G01 X17.1842 Y6.7830
G01 X17.1360 Y6.7926
G01 X17.1138 Y6.7975
G01 X16.8610 Y6.8610
G01 X16.8031 Y6.8784
G01 X16.7815 Y6.8856
G01 X16.5468 Y6.9695
G01 X16.5256 Y6.9777
G01 X16.4803 Y6.9965
G01 X16.4595 Y7.0057
G01 X16.2341 Y7.1123
G01 X16.2138 Y7.1225
G01 X16.1705 Y7.1457
G01 X16.1507 Y7.1569
G01 X15.9369 Y7.2850
G01 X15.9177 Y7.2972
G01 X15.8769 Y7.3245
G01 X15.8583 Y7.3376
G01 X15.6581 Y7.4860
G01 X15.6402 Y7.5000
G01 X15.5935 Y7.5385
G01 X15.3920 Y7.7212
G01 X15.3491 Y7.7638
G01 X15.3334 Y7.7803
G01 X15.1660 Y7.9650
G01 X15.1512 Y7.9822
G01 X15.1200 Y8.0202
G01 X15.1060 Y8.0381
G01 X14.9576 Y8.2383
G01 X14.9445 Y8.2569
G01 X14.9172 Y8.2977
G01 X14.9050 Y8.3169
G01 X14.7769 Y8.5307
G01 X14.7657 Y8.5505
G01 X14.7373 Y8.6039
G01 X14.6257 Y8.8395
G01 X14.6165 Y8.8603
G01 X14.5977 Y8.9056
G01 X14.5895 Y8.9268
G01 X14.5262 Y9.1038
G01 X14.4565 Y9.1555
G01 X14.4385 Y9.1695
G01 X14.4213 Y9.1844
G01 X14.3559 Y9.2437
G01 X14.3390 Y9.2599
G01 X8.6480 Y9.2599
G01 X8.6311 Y9.2437
G01 X8.5657 Y9.1844
G01 X8.5485 Y9.1695
G01 X8.5305 Y9.1555
G01 X8.4596 Y9.1029
G01 X8.4410 Y9.0898
G01 X8.4218 Y9.0777
G01 X8.3460 Y9.0323
G01 X8.3262 Y9.0210
G01 X8.3161 Y9.0158
G01 X8.2157 Y8.9683
G01 X8.1947 Y8.9596
G01 X8.1780 Y8.9535
G00 Z2.0000
G00 X8.7542 Y8.9535
G01 F60.00
G01 Z-0.2001
G01 F320.00
G01 X8.7638 Y8.9450
G01 X11.6832 Y8.9450
G01 X11.7027 Y8.9620
G01 X8.7638 Y8.9620
G01 X8.7542 Y8.9535
G00 Z2.0000
G00 X8.7542 Y6.4135
G01 F60.00
G01 Z-0.2001
G01 F320.00
G01 X8.7638 Y6.4050
G01 X9.1432 Y6.4050
G01 X9.1627 Y6.4220
G01 X8.7638 Y6.4220
G01 X8.7542 Y6.4135
G00 Z2.0000
G00 X11.2843 Y6.4220
G01 F60.00
G01 Z-0.2001
G01 F320.00
G01 X11.3038 Y6.4050
G01 X11.7027 Y6.4050
G01 X11.6832 Y6.4220
G01 X11.2843 Y6.4220
G00 Z2.0000
G00 X11.9320 Y8.3492
G01 F60.00
G01 Z-0.2001
G01 F320.00
G01 X8.5150 Y8.3492
G01 X8.5072 Y8.3595
G01 X8.5019 Y8.3656
G01 X8.4370 Y8.4370
G01 X8.3595 Y8.5072
G01 X8.2755 Y8.5695
G01 X8.1929 Y8.6192
G01 X8.1785 Y8.6269
G01 X8.0913 Y8.6679
G01 X8.0005 Y8.7006
G01 X7.9850 Y8.7053
G01 X7.8993 Y8.7268
G01 X7.8834 Y8.7300
G01 X7.7879 Y8.7439
G01 X7.6835 Y8.7490
G01 X7.5791 Y8.7439
G01 X7.4836 Y8.7300
G01 X7.4677 Y8.7268
G01 X7.3820 Y8.7053
G01 X7.3665 Y8.7006
G01 X7.2757 Y8.6679
G01 X7.1885 Y8.6269
G01 X7.1741 Y8.6192
G01 X7.0915 Y8.5695
G01 X7.0075 Y8.5072
G01 X6.9300 Y8.4370
G01 X6.8651 Y8.3656
G01 X6.8598 Y8.3595
G01 X6.8520 Y8.3492
G01 X5.9750 Y8.3492
G01 X5.9672 Y8.3595
G01 X5.9619 Y8.3656
G01 X5.8970 Y8.4370
G01 X5.8256 Y8.5019
G01 X5.8131 Y8.5122
G01 X5.7355 Y8.5695
G01 X5.6529 Y8.6192
G01 X5.6385 Y8.6269
G01 X5.5513 Y8.6679
G01 X5.4605 Y8.7006
G01 X5.4450 Y8.7053
G01 X5.3514 Y8.7286
G01 X5.2560 Y8.7429
G01 X5.2398 Y8.7445
G01 X5.1435 Y8.7490
G01 X5.0391 Y8.7439
G01 X4.9356 Y8.7286
G01 X4.8342 Y8.7032
G01 X4.7357 Y8.6679
G01 X4.6412 Y8.6232
G01 X4.5515 Y8.5695
G01 X4.4675 Y8.5072
G01 X4.3900 Y8.4370
G01 X4.3198 Y8.3595
G01 X4.2575 Y8.2755
G01 X4.2038 Y8.1858
G01 X4.1591 Y8.0913
G01 X4.1238 Y7.9928
G01 X4.0984 Y7.8914
G01 X4.0831 Y7.7879
G01 X4.0780 Y7.6835
G01 X4.0831 Y7.5791
G01 X4.0984 Y7.4756
G01 X4.1217 Y7.3820
G01 X4.1264 Y7.3665
G01 X4.1561 Y7.2833
G01 X4.1624 Y7.2683
G01 X4.2038 Y7.1812
G01 X4.2575 Y7.0915
G01 X4.3198 Y7.0075
G01 X4.3900 Y6.9300
G01 X4.4675 Y6.8598
G01 X4.5515 Y6.7975
G01 X4.6412 Y6.7438
G01 X4.7283 Y6.7024
G01 X4.7433 Y6.6961
G01 X4.8265 Y6.6664
G01 X4.8420 Y6.6617
G01 X4.9356 Y6.6384
G01 X5.0310 Y6.6241
G01 X5.0472 Y6.6225
G01 X5.1435 Y6.6180
G01 X5.2398 Y6.6225
G01 X5.2560 Y6.6241
G01 X5.3434 Y6.6370
G01 X5.3593 Y6.6402
G01 X5.4528 Y6.6638
G01 X5.5513 Y6.6991
G01 X5.6385 Y6.7401
G01 X5.6529 Y6.7478
G01 X5.7355 Y6.7975
G01 X5.8131 Y6.8548
G01 X5.8256 Y6.8651
G01 X5.8970 Y6.9300
G01 X5.9619 Y7.0014
G01 X5.9672 Y7.0075
G01 X5.9750 Y7.0178
G01 X6.8520 Y7.0178
G01 X6.8598 Y7.0075
G01 X6.8651 Y7.0014
G01 X6.9300 Y6.9300
G01 X7.0075 Y6.8598
G01 X7.0915 Y6.7975
G01 X7.1741 Y6.7478
G01 X7.1885 Y6.7401
G01 X7.2757 Y6.6991
G01 X7.3665 Y6.6664
G01 X7.3820 Y6.6617
G01 X7.4677 Y6.6402
G01 X7.4836 Y6.6370
G01 X7.5791 Y6.6231
G01 X7.6835 Y6.6180
G01 X7.7879 Y6.6231
G01 X7.8834 Y6.6370
G01 X7.8993 Y6.6402
G01 X7.9850 Y6.6617
G01 X8.0005 Y6.6664
G01 X8.0913 Y6.6991
G01 X8.1785 Y6.7401
G01 X8.1929 Y6.7478
G01 X8.2755 Y6.7975
G01 X8.3595 Y6.8598
G01 X8.4370 Y6.9300
G01 X8.5019 Y7.0014
G01 X8.5072 Y7.0075
G01 X8.5150 Y7.0178
G01 X11.9320 Y7.0178
G01 X11.9398 Y7.0075
G01 X11.9451 Y7.0014
G01 X12.0100 Y6.9300
G01 X12.0875 Y6.8598
G01 X12.1715 Y6.7975
G01 X12.2541 Y6.7478
G01 X12.2685 Y6.7401
G01 X12.3557 Y6.6991
G01 X12.4465 Y6.6664
G01 X12.4620 Y6.6617
G01 X12.5477 Y6.6402
G01 X12.5636 Y6.6370
G01 X12.6591 Y6.6231
G01 X12.7635 Y6.6180
G01 X12.8679 Y6.6231
G01 X12.9714 Y6.6384
G01 X13.0728 Y6.6638
G01 X13.1637 Y6.6961
G01 X13.1787 Y6.7024
G01 X13.2658 Y6.7438
G01 X13.3486 Y6.7932
G01 X13.3621 Y6.8022
G01 X13.4331 Y6.8548
G01 X13.4456 Y6.8651
G01 X13.5170 Y6.9300
G01 X13.5872 Y7.0075
G01 X13.6495 Y7.0915
G01 X13.7032 Y7.1812
G01 X13.7479 Y7.2757
G01 X13.7832 Y7.3742
G01 X13.8086 Y7.4756
G01 X13.8239 Y7.5791
G01 X13.8290 Y7.6835
G01 X13.8239 Y7.7879
G01 X13.8086 Y7.8914
G01 X13.7832 Y7.9928
G01 X13.7479 Y8.0913
G01 X13.7032 Y8.1858
G01 X13.6495 Y8.2755
G01 X13.5872 Y8.3595
G01 X13.5170 Y8.4370
G01 X13.4395 Y8.5072
G01 X13.3555 Y8.5695
G01 X13.2658 Y8.6232
G01 X13.1713 Y8.6679
G01 X13.0728 Y8.7032
G01 X12.9714 Y8.7286
G01 X12.8679 Y8.7439
G01 X12.7635 Y8.7490
G01 X12.6591 Y8.7439
G01 X12.5556 Y8.7286
G01 X12.4542 Y8.7032
G01 X12.3557 Y8.6679
G01 X12.2612 Y8.6232
G01 X12.1715 Y8.5695
G01 X12.0875 Y8.5072
G01 X12.0100 Y8.4370
G01 X11.9451 Y8.3656
G01 X11.9398 Y8.3595
G01 X11.9320 Y8.3492
G00 Z2.0000
G00 X13.8243 Y8.9620
G01 F60.00
G01 Z-0.2001
G01 F320.00
G01 X13.8457 Y8.9433
G01 X13.9112 Y8.8840
G01 X13.9249 Y8.8713
G01 X13.9513 Y8.8449
G01 X14.0357 Y8.7517
G01 X14.0477 Y8.7374
G01 X14.0707 Y8.7080
G01 X14.1343 Y8.6219
G01 X14.1449 Y8.6065
G01 X14.1649 Y8.5749
G01 X14.2103 Y8.4992
G01 X14.2287 Y8.4667
G01 X14.2455 Y8.4333
G01 X14.2832 Y8.3534
G01 X14.2910 Y8.3364
G01 X14.3053 Y8.3019
G01 X14.3477 Y8.1836
G01 X14.3533 Y8.1658
G01 X14.3633 Y8.1298
G01 X14.3847 Y8.0441
G01 X14.3929 Y8.0076
G01 X14.3993 Y7.9708
G01 X14.4123 Y7.8834
G01 X14.4168 Y7.8463
G01 X14.4196 Y7.8091
G01 X14.4239 Y7.7209
G01 X14.4248 Y7.6835
G01 X14.4239 Y7.6461
G01 X14.4196 Y7.5579
G01 X14.4168 Y7.5207
G01 X14.4123 Y7.4836
G01 X14.3993 Y7.3962
G01 X14.3929 Y7.3594
G01 X14.3847 Y7.3229
G01 X14.3633 Y7.2372
G01 X14.3533 Y7.2012
G01 X14.3477 Y7.1834
G01 X14.3053 Y7.0651
G01 X14.2910 Y7.0306
G01 X14.2832 Y7.0136
G01 X14.2455 Y6.9337
G01 X14.2287 Y6.9003
G01 X14.2103 Y6.8678
G01 X14.1649 Y6.7921
G01 X14.1449 Y6.7605
G01 X14.1343 Y6.7451
G01 X14.0707 Y6.6590
G01 X14.0477 Y6.6296
G01 X14.0357 Y6.6153
G01 X13.9513 Y6.5221
G01 X13.9249 Y6.4957
G01 X13.9112 Y6.4830
G01 X13.8457 Y6.4237
G01 X13.8243 Y6.4050
G01 X24.2348 Y6.4050
G01 X24.2439 Y6.4135
G01 X24.2348 Y6.4220
G01 X17.8248 Y6.4222
G01 X17.7816 Y6.4235
G01 X17.5326 Y6.4357
G01 X17.4954 Y6.4385
G01 X17.4465 Y6.4433
G01 X17.4094 Y6.4478
G01 X17.1444 Y6.4874
G01 X17.0779 Y6.5004
G01 X17.0414 Y6.5086
G01 X16.7996 Y6.5691
G01 X16.7636 Y6.5791
G01 X16.7167 Y6.5933
G01 X16.6812 Y6.6051
G01 X16.4465 Y6.6890
G01 X16.4116 Y6.7025
G01 X16.3491 Y6.7286
G01 X16.1068 Y6.8430
G01 X16.0734 Y6.8598
G01 X16.0137 Y6.8919
G01 X15.7679 Y7.0393
G01 X15.7114 Y7.0768
G01 X15.6808 Y7.0983
G01 X15.4658 Y7.2581
G01 X15.3989 Y7.3129
G01 X15.2002 Y7.4927
G01 X15.1732 Y7.5185
G01 X15.1385 Y7.5532
G01 X15.1127 Y7.5802
G01 X14.9453 Y7.7649
G01 X14.9209 Y7.7932
G01 X14.8898 Y7.8312
G01 X14.8668 Y7.8606
G01 X14.7073 Y8.0760
G01 X14.6695 Y8.1322
G01 X14.6495 Y8.1638
G01 X14.5119 Y8.3937
G01 X14.4712 Y8.4700
G01 X14.3486 Y8.7291
G01 X14.3156 Y8.8090
G01 X14.2761 Y8.9185
G01 X14.2496 Y8.9393
G01 X14.2232 Y8.9620
G01 X13.8243 Y8.9620
G00 Z2.0000
G00 X14.7744 Y9.2996
G01 F60.00
G01 Z-0.2001
G01 F320.00
G01 X14.7860 Y9.2619
G01 X14.8700 Y9.0272
G01 X14.8950 Y8.9668
G01 X15.0052 Y8.7343
G01 X15.0324 Y8.6839
G01 X15.1605 Y8.4701
G01 X15.1968 Y8.4158
G01 X15.3503 Y8.2092
G01 X15.3868 Y8.1651
G01 X15.5542 Y7.9804
G01 X15.5945 Y7.9398
G01 X15.7851 Y7.7668
G01 X15.8356 Y7.7253
G01 X16.0358 Y7.5768
G01 X16.0832 Y7.5449
G01 X16.3039 Y7.4124
G01 X16.3615 Y7.3816
G01 X16.5868 Y7.2750
G01 X16.6396 Y7.2529
G01 X16.8819 Y7.1660
G01 X16.9444 Y7.1471
G01 X17.1862 Y7.0865
G01 X17.2423 Y7.0752
G01 X17.4969 Y7.0372
G01 X17.5619 Y7.0308
G01 X17.8108 Y7.0186
G01 X17.8394 Y7.0178
G01 X24.5077 Y7.0178
G01 X24.5626 Y6.9441
G01 X24.6338 Y6.8653
G01 X24.6453 Y6.8538
G01 X24.7180 Y6.7879
G01 X24.7305 Y6.7776
G01 X24.8160 Y6.7144
G01 X24.9070 Y6.6596
G01 X24.9213 Y6.6520
G01 X25.0175 Y6.6067
G01 X25.1252 Y6.5682
G01 X25.2361 Y6.5404
G01 X25.3412 Y6.5246
G01 X25.3533 Y6.5233
G01 X25.4554 Y6.5182
G01 X25.4716 Y6.5182
G01 X25.5777 Y6.5236
G01 X25.6829 Y6.5390
G01 X25.6988 Y6.5422
G01 X25.8018 Y6.5682
G01 X25.9019 Y6.6038
G01 X25.9169 Y6.6100
G01 X26.0129 Y6.6556
G01 X26.1042 Y6.7101
G01 X26.1177 Y6.7191
G01 X26.2029 Y6.7826
G01 X26.2817 Y6.8538
G01 X26.2932 Y6.8653
G01 X26.3644 Y6.9441
G01 X26.4193 Y7.0178
G01 X32.1277 Y7.0178
G01 X32.1826 Y6.9441
G01 X32.2538 Y6.8653
G01 X32.2653 Y6.8538
G01 X32.3380 Y6.7879
G01 X32.3505 Y6.7776
G01 X32.4360 Y6.7144
G01 X32.5341 Y6.6556
G01 X32.6375 Y6.6067
G01 X32.7375 Y6.5707
G01 X32.7530 Y6.5660
G01 X32.8561 Y6.5404
G01 X32.9612 Y6.5246
G01 X32.9774 Y6.5230
G01 X33.0835 Y6.5180
G01 X33.1977 Y6.5236
G01 X33.3029 Y6.5390
G01 X33.3188 Y6.5422
G01 X33.4218 Y6.5682
G01 X33.5219 Y6.6038
G01 X33.5369 Y6.6100
G01 X33.6329 Y6.6556
G01 X33.7310 Y6.7144
G01 X33.8165 Y6.7776
G01 X33.8290 Y6.7879
G01 X33.9017 Y6.8538
G01 X33.9132 Y6.8653
G01 X33.9844 Y6.9441
G01 X34.0393 Y7.0178
G01 X39.7477 Y7.0178
G01 X39.8026 Y6.9441
G01 X39.8738 Y6.8653
G01 X39.8853 Y6.8538
G01 X39.9641 Y6.7826
G01 X40.0493 Y6.7191
G01 X40.0628 Y6.7101
G01 X40.1541 Y6.6556
G01 X40.2501 Y6.6100
G01 X40.2651 Y6.6038
G01 X40.3652 Y6.5682
G01 X40.4682 Y6.5422
G01 X40.4841 Y6.5390
G01 X40.5893 Y6.5236
G01 X40.6954 Y6.5182
G01 X40.7116 Y6.5182
G01 X40.8137 Y6.5233
G01 X40.8258 Y6.5246
G01 X40.9309 Y6.5404
G01 X41.0340 Y6.5660
G01 X41.0495 Y6.5707
G01 X41.1419 Y6.6038
G01 X41.1569 Y6.6100
G01 X41.2529 Y6.6556
G01 X41.3510 Y6.7144
G01 X41.4429 Y6.7826
G01 X41.5276 Y6.8594
G01 X41.6044 Y6.9441
G01 X41.6726 Y7.0360
G01 X41.7314 Y7.1341
G01 X41.7770 Y7.2301
G01 X41.7832 Y7.2451
G01 X41.8163 Y7.3375
G01 X41.8210 Y7.3530
G01 X41.8466 Y7.4561
G01 X41.8624 Y7.5612
G01 X41.8637 Y7.5733
G01 X41.8690 Y7.6835
G01 X41.8634 Y7.7977
G01 X41.8466 Y7.9109
G01 X41.8210 Y8.0140
G01 X41.8163 Y8.0295
G01 X41.7803 Y8.1295
G01 X41.7350 Y8.2257
G01 X41.7274 Y8.2400
G01 X41.6769 Y8.3242
G01 X41.6679 Y8.3377
G01 X41.6044 Y8.4229
G01 X41.5332 Y8.5017
G01 X41.5217 Y8.5132
G01 X41.4429 Y8.5844
G01 X41.3510 Y8.6526
G01 X41.2529 Y8.7114
G01 X41.1495 Y8.7603
G01 X41.0418 Y8.7988
G01 X40.9309 Y8.8266
G01 X40.8177 Y8.8434
G01 X40.7076 Y8.8489
G01 X40.6954 Y8.8488
G01 X40.5893 Y8.8434
G01 X40.4841 Y8.8280
G01 X40.4682 Y8.8248
G01 X40.3652 Y8.7988
G01 X40.2651 Y8.7632
G01 X40.2501 Y8.7570
G01 X40.1541 Y8.7114
G01 X40.0560 Y8.6526
G01 X39.9705 Y8.5894
G01 X39.9580 Y8.5791
G01 X39.8853 Y8.5132
G01 X39.8738 Y8.5017
G01 X39.8026 Y8.4229
G01 X39.7477 Y8.3492
G01 X34.0393 Y8.3492
G01 X33.9844 Y8.4229
G01 X33.9132 Y8.5017
G01 X33.9017 Y8.5132
G01 X33.8290 Y8.5791
G01 X33.8165 Y8.5894
G01 X33.7310 Y8.6526
G01 X33.6329 Y8.7114
G01 X33.5295 Y8.7603
G01 X33.4295 Y8.7963
G01 X33.4140 Y8.8010
G01 X33.3109 Y8.8266
G01 X33.2058 Y8.8424
G01 X33.1896 Y8.8440
G01 X33.0835 Y8.8490
G01 X32.9693 Y8.8434
G01 X32.8641 Y8.8280
G01 X32.8482 Y8.8248
G01 X32.7452 Y8.7988
G01 X32.6451 Y8.7632
G01 X32.6301 Y8.7570
G01 X32.5341 Y8.7114
G01 X32.4360 Y8.6526
G01 X32.3505 Y8.5894
G01 X32.3380 Y8.5791
G01 X32.2653 Y8.5132
G01 X32.2538 Y8.5017
G01 X32.1826 Y8.4229
G01 X32.1277 Y8.3492
G01 X26.4193 Y8.3492
G01 X26.3644 Y8.4229
G01 X26.2932 Y8.5017
G01 X26.2817 Y8.5132
G01 X26.2090 Y8.5791
G01 X26.1965 Y8.5894
G01 X26.1110 Y8.6526
G01 X26.0129 Y8.7114
G01 X25.9095 Y8.7603
G01 X25.8095 Y8.7963
G01 X25.7940 Y8.8010
G01 X25.6909 Y8.8266
G01 X25.5858 Y8.8424
G01 X25.5696 Y8.8440
G01 X25.4635 Y8.8490
G01 X25.3493 Y8.8434
G01 X25.2441 Y8.8280
G01 X25.2282 Y8.8248
G01 X25.1252 Y8.7988
G01 X25.0251 Y8.7632
G01 X25.0101 Y8.7570
G01 X24.9141 Y8.7114
G01 X24.8160 Y8.6526
G01 X24.7305 Y8.5894
G01 X24.7180 Y8.5791
G01 X24.6453 Y8.5132
G01 X24.6338 Y8.5017
G01 X24.5626 Y8.4229
G01 X24.5077 Y8.3492
G01 X17.8598 Y8.3492
G01 X17.6599 Y8.3591
G01 X17.4780 Y8.3860
G01 X17.2997 Y8.4307
G01 X17.1266 Y8.4927
G01 X16.9604 Y8.5713
G01 X16.8027 Y8.6658
G01 X16.6550 Y8.7753
G01 X16.5188 Y8.8988
G01 X16.3953 Y9.0350
G01 X16.2858 Y9.1827
G01 X16.1913 Y9.3404
G01 X16.1127 Y9.5066
G01 X16.1063 Y9.5242
G01 X16.1246 Y9.5444
G01 X16.1297 Y9.5507
G01 X16.1872 Y9.6282
G01 X16.1938 Y9.6384
G01 X16.2392 Y9.7141
G01 X16.2451 Y9.7248
G01 X16.2879 Y9.8157
G01 X16.3206 Y9.9065
G01 X16.3253 Y9.9220
G01 X16.3468 Y10.0077
G01 X16.3493 Y10.0196
G01 X16.3639 Y10.1191
G01 X16.3688 Y10.2154
G01 X16.3688 Y10.2316
G01 X16.3639 Y10.3279
G01 X16.3486 Y10.4314
G01 X16.3253 Y10.5250
G01 X16.3206 Y10.5405
G01 X16.2909 Y10.6237
G01 X16.2863 Y10.6350
G01 X16.2432 Y10.7258
G01 X16.1938 Y10.8086
G01 X16.1848 Y10.8221
G01 X16.1272 Y10.8995
G01 X16.0626 Y10.9711
G01 X16.0511 Y10.9826
G01 X15.9795 Y11.0472
G01 X15.9021 Y11.1048
G01 X15.8886 Y11.1138
G01 X15.8058 Y11.1632
G01 X15.7187 Y11.2046
G01 X15.7037 Y11.2109
G01 X15.6128 Y11.2432
G01 X15.5193 Y11.2668
G01 X15.5034 Y11.2700
G01 X15.4160 Y11.2829
G01 X15.4039 Y11.2843
G01 X15.3116 Y11.2888
G01 X15.2954 Y11.2888
G01 X15.1991 Y11.2839
G01 X15.1036 Y11.2700
G01 X15.0877 Y11.2668
G01 X14.9942 Y11.2432
G01 X14.8957 Y11.2079
G01 X14.8085 Y11.1669
G01 X14.7941 Y11.1592
G01 X14.7115 Y11.1095
G01 X14.6339 Y11.0522
G01 X14.6214 Y11.0419
G01 X14.5500 Y10.9770
G01 X14.4851 Y10.9056
G01 X14.4798 Y10.8995
G01 X14.4720 Y10.8892
G01 X8.5150 Y10.8892
G01 X8.5072 Y10.8995
G01 X8.5019 Y10.9056
G01 X8.4370 Y10.9770
G01 X8.3595 Y11.0472
G01 X8.2755 Y11.1095
G01 X8.1858 Y11.1632
G01 X8.0913 Y11.2079
G01 X7.9928 Y11.2432
G01 X7.8914 Y11.2686
G01 X7.7920 Y11.2835
G01 X7.7798 Y11.2845
G01 X7.6835 Y11.2890
G01 X7.5872 Y11.2845
G01 X7.5710 Y11.2829
G01 X7.4756 Y11.2686
G01 X7.3820 Y11.2453
G01 X7.3665 Y11.2406
G01 X7.2757 Y11.2079
G01 X7.1885 Y11.1669
G01 X7.1741 Y11.1592
G01 X7.0915 Y11.1095
G01 X7.0139 Y11.0522
G01 X7.0014 Y11.0419
G01 X6.9300 Y10.9770
G01 X6.8651 Y10.9056
G01 X6.8598 Y10.8995
G01 X6.8520 Y10.8892
G01 X5.9750 Y10.8892
G01 X5.9672 Y10.8995
G01 X5.9619 Y10.9056
G01 X5.8970 Y10.9770
G01 X5.8256 Y11.0419
G01 X5.8131 Y11.0522
G01 X5.7355 Y11.1095
G01 X5.6529 Y11.1592
G01 X5.6385 Y11.1669
G01 X5.5513 Y11.2079
G01 X5.4528 Y11.2432
G01 X5.3593 Y11.2668
G01 X5.3434 Y11.2700
G01 X5.2479 Y11.2839
G01 X5.1516 Y11.2888
G01 X5.1354 Y11.2888
G01 X5.0431 Y11.2843
G01 X5.0310 Y11.2829
G01 X4.9356 Y11.2686
G01 X4.8420 Y11.2453
G01 X4.8265 Y11.2406
G01 X4.7433 Y11.2109
G01 X4.7283 Y11.2046
G01 X4.6412 Y11.1632
G01 X4.5515 Y11.1095
G01 X4.4675 Y11.0472
G01 X4.3900 Y10.9770
G01 X4.3198 Y10.8995
G01 X4.2622 Y10.8221
G01 X4.2532 Y10.8086
G01 X4.2078 Y10.7329
G01 X4.2001 Y10.7185
G01 X4.1591 Y10.6313
G01 X4.1238 Y10.5328
G01 X4.0984 Y10.4314
G01 X4.0831 Y10.3279
G01 X4.0780 Y10.2235
G01 X4.0831 Y10.1191
G01 X4.0984 Y10.0156
G01 X4.1238 Y9.9142
G01 X4.1591 Y9.8157
G01 X4.2038 Y9.7212
G01 X4.2575 Y9.6315
G01 X4.3198 Y9.5475
G01 X4.3900 Y9.4700
G01 X4.4675 Y9.3998
G01 X4.5515 Y9.3375
G01 X4.6412 Y9.2838
G01 X4.7357 Y9.2391
G01 X4.8342 Y9.2038
G01 X4.9356 Y9.1784
G01 X5.0391 Y9.1631
G01 X5.1435 Y9.1580
G01 X5.2398 Y9.1625
G01 X5.2560 Y9.1641
G01 X5.3514 Y9.1784
G01 X5.4450 Y9.2017
G01 X5.4605 Y9.2064
G01 X5.5513 Y9.2391
G01 X5.6385 Y9.2801
G01 X5.6529 Y9.2878
G01 X5.7355 Y9.3375
G01 X5.8131 Y9.3948
G01 X5.8256 Y9.4051
G01 X5.8970 Y9.4700
G01 X5.9619 Y9.5414
G01 X5.9672 Y9.5475
G01 X5.9750 Y9.5578
G01 X6.8520 Y9.5578
G01 X6.8598 Y9.5475
G01 X6.8651 Y9.5414
G01 X6.9300 Y9.4700
G01 X7.0075 Y9.3998
G01 X7.0915 Y9.3375
G01 X7.1741 Y9.2878
G01 X7.1885 Y9.2801
G01 X7.2757 Y9.2391
G01 X7.3665 Y9.2064
G01 X7.3820 Y9.2017
G01 X7.4677 Y9.1802
G01 X7.4836 Y9.1770
G01 X7.5791 Y9.1631
G01 X7.6794 Y9.1580
G01 X7.6916 Y9.1582
G01 X7.7879 Y9.1631
G01 X7.8834 Y9.1770
G01 X7.8993 Y9.1802
G01 X7.9850 Y9.2017
G01 X8.0005 Y9.2064
G01 X8.0913 Y9.2391
G01 X8.1785 Y9.2801
G01 X8.1929 Y9.2878
G01 X8.2755 Y9.3375
G01 X8.3595 Y9.3998
G01 X8.4370 Y9.4700
G01 X8.5019 Y9.5414
G01 X8.5072 Y9.5475
G01 X8.5150 Y9.5578
G01 X14.4720 Y9.5578
G01 X14.4798 Y9.5475
G01 X14.4851 Y9.5414
G01 X14.5500 Y9.4700
G01 X14.6244 Y9.4024
G01 X14.6339 Y9.3948
G01 X14.7115 Y9.3375
G01 X14.7744 Y9.2996
G00 Z2.0000
G00 X16.3643 Y11.5020
G01 F60.00
G01 Z-0.2001
G01 F320.00
G01 X16.3857 Y11.4833
G01 X16.4512 Y11.4240
G01 X16.4782 Y11.3982
G01 X16.5040 Y11.3712
G01 X16.5735 Y11.2942
G01 X16.6430 Y11.3712
G01 X16.6688 Y11.3982
G01 X16.6958 Y11.4240
G01 X16.7613 Y11.4833
G01 X16.7827 Y11.5020
G01 X16.3643 Y11.5020
G00 Z2.0000
G00 X18.9238 Y8.9620
G01 F60.00
G01 Z-0.2001
G01 F320.00
G01 X18.9043 Y8.9450
G01 X24.2348 Y8.9450
G01 X24.2532 Y8.9620
G01 X18.9238 Y8.9620
G00 Z2.0000
G00 X24.5077 Y4.4778
G01 F60.00
G01 Z-0.2001
G01 F320.00
G01 X24.5626 Y4.4041
G01 X24.6338 Y4.3253
G01 X24.6453 Y4.3138
G01 X24.7180 Y4.2479
G01 X24.7305 Y4.2376
G01 X24.8160 Y4.1744
G01 X24.9141 Y4.1156
G01 X25.0175 Y4.0667
G01 X25.1175 Y4.0307
G01 X25.1330 Y4.0260
G01 X25.2361 Y4.0004
G01 X25.3412 Y3.9846
G01 X25.3574 Y3.9830
G01 X25.4594 Y3.9781
G01 X25.4716 Y3.9782
G01 X25.5777 Y3.9836
G01 X25.6829 Y3.9990
G01 X25.6988 Y4.0022
G01 X25.8018 Y4.0282
G01 X25.9019 Y4.0638
G01 X25.9169 Y4.0700
G01 X26.0129 Y4.1156
G01 X26.1110 Y4.1744
G01 X26.1965 Y4.2376
G01 X26.2090 Y4.2479
G01 X26.2817 Y4.3138
G01 X26.2932 Y4.3253
G01 X26.3644 Y4.4041
G01 X26.4193 Y4.4778
G01 X32.1277 Y4.4778
G01 X32.1826 Y4.4041
G01 X32.2538 Y4.3253
G01 X32.2653 Y4.3138
G01 X32.3380 Y4.2479
G01 X32.3505 Y4.2376
G01 X32.4360 Y4.1744
G01 X32.5341 Y4.1156
G01 X32.6375 Y4.0667
G01 X32.7375 Y4.0307
G01 X32.7530 Y4.0260
G01 X32.8561 Y4.0004
G01 X32.9612 Y3.9846
G01 X32.9774 Y3.9830
G01 X33.0835 Y3.9780
G01 X33.1977 Y3.9836
G01 X33.3029 Y3.9990
G01 X33.3188 Y4.0022
G01 X33.4218 Y4.0282
G01 X33.5219 Y4.0638
G01 X33.5369 Y4.0700
G01 X33.6329 Y4.1156
G01 X33.7310 Y4.1744
G01 X33.8165 Y4.2376
G01 X33.8290 Y4.2479
G01 X33.9017 Y4.3138
G01 X33.9132 Y4.3253
G01 X33.9844 Y4.4041
G01 X34.0393 Y4.4778
G01 X39.7477 Y4.4778
G01 X39.8026 Y4.4041
G01 X39.8738 Y4.3253
G01 X39.8853 Y4.3138
G01 X39.9580 Y4.2479
G01 X39.9705 Y4.2376
G01 X40.0560 Y4.1744
G01 X40.1470 Y4.1196
G01 X40.1577 Y4.1138
G01 X40.2501 Y4.0700
G01 X40.2651 Y4.0638
G01 X40.3652 Y4.0282
G01 X40.4682 Y4.0022
G01 X40.4841 Y3.9990
G01 X40.5893 Y3.9836
G01 X40.6954 Y3.9782
G01 X40.7116 Y3.9782
G01 X40.8177 Y3.9836
G01 X40.9309 Y4.0004
G01 X41.0418 Y4.0282
G01 X41.1495 Y4.0667
G01 X41.2529 Y4.1156
G01 X41.3510 Y4.1744
G01 X41.4429 Y4.2426
G01 X41.5276 Y4.3194
G01 X41.6044 Y4.4041
G01 X41.6726 Y4.4960
G01 X41.7314 Y4.5941
G01 X41.7803 Y4.6975
G01 X41.8188 Y4.8052
G01 X41.8466 Y4.9161
G01 X41.8634 Y5.0293
G01 X41.8688 Y5.1354
G01 X41.8688 Y5.1516
G01 X41.8634 Y5.2577
G01 X41.8466 Y5.3709
G01 X41.8188 Y5.4818
G01 X41.7803 Y5.5895
G01 X41.7314 Y5.6929
G01 X41.6726 Y5.7910
G01 X41.6044 Y5.8829
G01 X41.5332 Y5.9617
G01 X41.5217 Y5.9732
G01 X41.4490 Y6.0391
G01 X41.4365 Y6.0494
G01 X41.3510 Y6.1126
G01 X41.2600 Y6.1674
G01 X41.2457 Y6.1750
G01 X41.1495 Y6.2203
G01 X41.0418 Y6.2588
G01 X40.9309 Y6.2866
G01 X40.8258 Y6.3024
G01 X40.8137 Y6.3037
G01 X40.7116 Y6.3088
G01 X40.6954 Y6.3088
G01 X40.5893 Y6.3034
G01 X40.4841 Y6.2880
G01 X40.4682 Y6.2848
G01 X40.3652 Y6.2588
G01 X40.2651 Y6.2232
G01 X40.2501 Y6.2170
G01 X40.1541 Y6.1714
G01 X40.0628 Y6.1169
G01 X40.0493 Y6.1079
G01 X39.9641 Y6.0444
G01 X39.8853 Y5.9732
G01 X39.8738 Y5.9617
G01 X39.8026 Y5.8829
G01 X39.7477 Y5.8092
G01 X34.0393 Y5.8092
G01 X33.9844 Y5.8829
G01 X33.9132 Y5.9617
G01 X33.9017 Y5.9732
G01 X33.8290 Y6.0391
G01 X33.8165 Y6.0494
G01 X33.7310 Y6.1126
G01 X33.6329 Y6.1714
G01 X33.5295 Y6.2203
G01 X33.4295 Y6.2563
G01 X33.4140 Y6.2610
G01 X33.3109 Y6.2866
G01 X33.2058 Y6.3024
G01 X33.1896 Y6.3040
G01 X33.0835 Y6.3090
G01 X32.9693 Y6.3034
G01 X32.8641 Y6.2880
G01 X32.8482 Y6.2848
G01 X32.7452 Y6.2588
G01 X32.6451 Y6.2232
G01 X32.6301 Y6.2170
G01 X32.5341 Y6.1714
G01 X32.4360 Y6.1126
G01 X32.3505 Y6.0494
G01 X32.3380 Y6.0391
G01 X32.2653 Y5.9732
G01 X32.2538 Y5.9617
G01 X32.1826 Y5.8829
G01 X32.1277 Y5.8092
G01 X26.4193 Y5.8092
G01 X26.3644 Y5.8829
G01 X26.2932 Y5.9617
G01 X26.2817 Y5.9732
G01 X26.2090 Y6.0391
G01 X26.1965 Y6.0494
G01 X26.1110 Y6.1126
G01 X26.0129 Y6.1714
G01 X25.9095 Y6.2203
G01 X25.8095 Y6.2563
G01 X25.7940 Y6.2610
G01 X25.6909 Y6.2866
G01 X25.5858 Y6.3024
G01 X25.5696 Y6.3040
G01 X25.4635 Y6.3090
G01 X25.3493 Y6.3034
G01 X25.2441 Y6.2880
G01 X25.2282 Y6.2848
G01 X25.1252 Y6.2588
G01 X25.0251 Y6.2232
G01 X25.0101 Y6.2170
G01 X24.9141 Y6.1714
G01 X24.8160 Y6.1126
G01 X24.7305 Y6.0494
G01 X24.7180 Y6.0391
G01 X24.6453 Y5.9732
G01 X24.6338 Y5.9617
G01 X24.5626 Y5.8829
G01 X24.5077 Y5.8092
G01 X11.0550 Y5.8092
G01 X11.0472 Y5.8195
G01 X11.0419 Y5.8256
G01 X10.9770 Y5.8970
G01 X10.8995 Y5.9672
G01 X10.8155 Y6.0295
G01 X10.7329 Y6.0792
G01 X10.7185 Y6.0869
G01 X10.6313 Y6.1279
G01 X10.5405 Y6.1606
G01 X10.5250 Y6.1653
G01 X10.4393 Y6.1868
G01 X10.4234 Y6.1900
G01 X10.3279 Y6.2039
G01 X10.2235 Y6.2090
G01 X10.1191 Y6.2039
G01 X10.0236 Y6.1900
G01 X10.0077 Y6.1868
G01 X9.9220 Y6.1653
G01 X9.9065 Y6.1606
G01 X9.8157 Y6.1279
G01 X9.7285 Y6.0869
G01 X9.7141 Y6.0792
G01 X9.6315 Y6.0295
G01 X9.5475 Y5.9672
G01 X9.4700 Y5.8970
G01 X9.4051 Y5.8256
G01 X9.3998 Y5.8195
G01 X9.3920 Y5.8092
G01 X8.5150 Y5.8092
G01 X8.5072 Y5.8195
G01 X8.5019 Y5.8256
G01 X8.4370 Y5.8970
G01 X8.3595 Y5.9672
G01 X8.2755 Y6.0295
G01 X8.1929 Y6.0792
G01 X8.1785 Y6.0869
G01 X8.0913 Y6.1279
G01 X8.0005 Y6.1606
G01 X7.9850 Y6.1653
G01 X7.8993 Y6.1868
G01 X7.8834 Y6.1900
G01 X7.7879 Y6.2039
G01 X7.6835 Y6.2090
G01 X7.5791 Y6.2039
G01 X7.4836 Y6.1900
G01 X7.4677 Y6.1868
G01 X7.3820 Y6.1653
G01 X7.3665 Y6.1606
G01 X7.2757 Y6.1279
G01 X7.1885 Y6.0869
G01 X7.1741 Y6.0792
G01 X7.0915 Y6.0295
G01 X7.0075 Y5.9672
G01 X6.9300 Y5.8970
G01 X6.8651 Y5.8256
G01 X6.8598 Y5.8195
G01 X6.8520 Y5.8092
G01 X5.9750 Y5.8092
G01 X5.9672 Y5.8195
G01 X5.9619 Y5.8256
G01 X5.8970 Y5.8970
G01 X5.8256 Y5.9619
G01 X5.8131 Y5.9722
G01 X5.7355 Y6.0295
G01 X5.6529 Y6.0792
G01 X5.6385 Y6.0869
G01 X5.5513 Y6.1279
G01 X5.4528 Y6.1632
G01 X5.3593 Y6.1868
G01 X5.3434 Y6.1900
G01 X5.2560 Y6.2029
G01 X5.2398 Y6.2045
G01 X5.1435 Y6.2090
G01 X5.0472 Y6.2045
G01 X5.0310 Y6.2029
G01 X4.9356 Y6.1886
G01 X4.8420 Y6.1653
G01 X4.8265 Y6.1606
G01 X4.7433 Y6.1309
G01 X4.7283 Y6.1246
G01 X4.6412 Y6.0832
G01 X4.5515 Y6.0295
G01 X4.4675 Y5.9672
G01 X4.3959 Y5.9026
G01 X4.3844 Y5.8911
G01 X4.3198 Y5.8195
G01 X4.2575 Y5.7355
G01 X4.2038 Y5.6458
G01 X4.1591 Y5.5513
G01 X4.1238 Y5.4528
G01 X4.0984 Y5.3514
G01 X4.0831 Y5.2479
G01 X4.0780 Y5.1476
G01 X4.0782 Y5.1354
G01 X4.0831 Y5.0391
G01 X4.0984 Y4.9356
G01 X4.1238 Y4.8342
G01 X4.1591 Y4.7357
G01 X4.2038 Y4.6412
G01 X4.2575 Y4.5515
G01 X4.3198 Y4.4675
G01 X4.3900 Y4.3900
G01 X4.4675 Y4.3198
G01 X4.5515 Y4.2575
G01 X4.6412 Y4.2038
G01 X4.7357 Y4.1591
G01 X4.8342 Y4.1238
G01 X4.9356 Y4.0984
G01 X5.0391 Y4.0831
G01 X5.1394 Y4.0780
G01 X5.1516 Y4.0782
G01 X5.2479 Y4.0831
G01 X5.3434 Y4.0970
G01 X5.3593 Y4.1002
G01 X5.4450 Y4.1217
G01 X5.4605 Y4.1264
G01 X5.5513 Y4.1591
G01 X5.6385 Y4.2001
G01 X5.6529 Y4.2078
G01 X5.7355 Y4.2575
G01 X5.8195 Y4.3198
G01 X5.8970 Y4.3900
G01 X5.9619 Y4.4614
G01 X5.9672 Y4.4675
G01 X5.9750 Y4.4778
G01 X6.8520 Y4.4778
G01 X6.8598 Y4.4675
G01 X6.8651 Y4.4614
G01 X6.9300 Y4.3900
G01 X7.0075 Y4.3198
G01 X7.0915 Y4.2575
G01 X7.1741 Y4.2078
G01 X7.1885 Y4.2001
G01 X7.2757 Y4.1591
G01 X7.3665 Y4.1264
G01 X7.3820 Y4.1217
G01 X7.4677 Y4.1002
G01 X7.4836 Y4.0970
G01 X7.5791 Y4.0831
G01 X7.6835 Y4.0780
G01 X7.7879 Y4.0831
G01 X7.8834 Y4.0970
G01 X7.8993 Y4.1002
G01 X7.9850 Y4.1217
G01 X8.0005 Y4.1264
G01 X8.0913 Y4.1591
G01 X8.1785 Y4.2001
G01 X8.1929 Y4.2078
G01 X8.2755 Y4.2575
G01 X8.3595 Y4.3198
G01 X8.4370 Y4.3900
G01 X8.5019 Y4.4614
G01 X8.5072 Y4.4675
G01 X8.5150 Y4.4778
G01 X9.3920 Y4.4778
G01 X9.3998 Y4.4675
G01 X9.4051 Y4.4614
G01 X9.4700 Y4.3900
G01 X9.5475 Y4.3198
G01 X9.6315 Y4.2575
G01 X9.7141 Y4.2078
G01 X9.7285 Y4.2001
G01 X9.8157 Y4.1591
G01 X9.9065 Y4.1264
G01 X9.9220 Y4.1217
G01 X10.0077 Y4.1002
G01 X10.0236 Y4.0970
G01 X10.1191 Y4.0831
G01 X10.2235 Y4.0780
G01 X10.3279 Y4.0831
G01 X10.4234 Y4.0970
G01 X10.4393 Y4.1002
G01 X10.5250 Y4.1217
G01 X10.5405 Y4.1264
G01 X10.6313 Y4.1591
G01 X10.7185 Y4.2001
G01 X10.7329 Y4.2078
G01 X10.8155 Y4.2575
G01 X10.8995 Y4.3198
G01 X10.9770 Y4.3900
G01 X11.0419 Y4.4614
G01 X11.0472 Y4.4675
G01 X11.0550 Y4.4778
G01 X24.5077 Y4.4778
G00 Z2.0000
G00 X26.1888 Y6.4135
G01 F60.00
G01 Z-0.2001
G01 F320.00
G01 X26.2573 Y6.3724
G01 X26.2765 Y6.3603
G01 X26.2951 Y6.3472
G01 X26.3739 Y6.2887
G01 X26.3919 Y6.2747
G01 X26.4091 Y6.2599
G01 X26.4818 Y6.1940
G01 X26.4983 Y6.1783
G01 X26.5140 Y6.1618
G01 X26.5635 Y6.1071
G01 X31.9835 Y6.1071
G01 X32.0330 Y6.1618
G01 X32.0487 Y6.1783
G01 X32.0652 Y6.1940
G01 X32.1379 Y6.2599
G01 X32.1551 Y6.2747
G01 X32.1731 Y6.2887
G01 X32.2519 Y6.3472
G01 X32.2705 Y6.3603
G01 X32.2897 Y6.3724
G01 X32.3582 Y6.4135
G01 X32.2897 Y6.4546
G01 X32.2705 Y6.4667
G01 X32.2519 Y6.4798
G01 X32.1731 Y6.5383
G01 X32.1551 Y6.5523
G01 X32.1379 Y6.5671
G01 X32.0652 Y6.6330
G01 X32.0487 Y6.6487
G01 X32.0330 Y6.6652
G01 X31.9835 Y6.7199
G01 X26.5635 Y6.7199
G01 X26.5140 Y6.6652
G01 X26.4983 Y6.6487
G01 X26.4818 Y6.6330
G01 X26.4091 Y6.5671
G01 X26.3919 Y6.5523
G01 X26.3739 Y6.5383
G01 X26.2951 Y6.4798
G01 X26.2765 Y6.4667
G01 X26.2573 Y6.4546
G01 X26.1888 Y6.4135
G00 Z2.0000
G00 X26.6831 Y6.4135
G01 F60.00
G01 Z-0.2001
G01 F320.00
G01 X26.6922 Y6.4050
G01 X31.8548 Y6.4050
G01 X31.8639 Y6.4135
G01 X31.8548 Y6.4220
G01 X26.6922 Y6.4220
G01 X26.6831 Y6.4135
G00 Z2.0000
G00 X31.8732 Y8.9620
G01 F60.00
G01 Z-0.2001
G01 F320.00
G01 X26.6738 Y8.9620
G01 X26.6922 Y8.9450
G01 X31.8548 Y8.9450
G01 X31.8732 Y8.9620
G00 Z2.0000
G00 X33.8088 Y6.4135
G01 F60.00
G01 Z-0.2001
G01 F320.00
G01 X33.8773 Y6.3724
G01 X33.8965 Y6.3603
G01 X33.9151 Y6.3472
G01 X33.9939 Y6.2887
G01 X34.0119 Y6.2747
G01 X34.0291 Y6.2599
G01 X34.1018 Y6.1940
G01 X34.1183 Y6.1783
G01 X34.1340 Y6.1618
G01 X34.1835 Y6.1071
G01 X39.6035 Y6.1071
G01 X39.6530 Y6.1618
G01 X39.6687 Y6.1783
G01 X39.6852 Y6.1940
G01 X39.7579 Y6.2599
G01 X39.7751 Y6.2747
G01 X39.7931 Y6.2887
G01 X39.8719 Y6.3472
G01 X39.8905 Y6.3603
G01 X39.9097 Y6.3724
G01 X39.9782 Y6.4135
G01 X39.9097 Y6.4546
G01 X39.8905 Y6.4667
G01 X39.8719 Y6.4798
G01 X39.7931 Y6.5383
G01 X39.7751 Y6.5523
G01 X39.7579 Y6.5671
G01 X39.6852 Y6.6330
G01 X39.6687 Y6.6487
G01 X39.6530 Y6.6652
G01 X39.6035 Y6.7199
G01 X34.1835 Y6.7199
G01 X34.1340 Y6.6652
G01 X34.1183 Y6.6487
G01 X34.1018 Y6.6330
G01 X34.0291 Y6.5671
G01 X34.0119 Y6.5523
G01 X33.9939 Y6.5383
G01 X33.9151 Y6.4798
G01 X33.8965 Y6.4667
G01 X33.8773 Y6.4546
G01 X33.8088 Y6.4135
G00 Z2.0000
G00 X34.3031 Y6.4135
G01 F60.00
G01 Z-0.2001
G01 F320.00
G01 X34.3122 Y6.4050
G01 X39.4748 Y6.4050
G01 X39.4839 Y6.4135
G01 X39.4748 Y6.4220
G01 X34.3122 Y6.4220
G01 X34.3031 Y6.4135
G00 Z2.0000
G00 X39.4932 Y8.9620
G01 F60.00
G01 Z-0.2001
G01 F320.00
G01 X34.2938 Y8.9620
G01 X34.3122 Y8.9450
G01 X39.4748 Y8.9450
G01 X39.4932 Y8.9620
G00 Z2.0000
G00 X33.8830 Y34.9578
G01 F60.00
