(G-CODE GENERATED BY FLATCAM v8.994 - www.flatcam.org - Version Date: 2020/11/7)

(Name: Halt - NC Drill Data - [Through Hole].drl_cnc)
(Type: G-code from Geometry)
(Units: MM)

(Created on Sunday, 08 December 2024 at 13:32)

(This preprocessor is the default preprocessor used by FlatCAM.)
(It is made to work with MACH3 compatible motion controllers.)


(TOOLS DIAMETER: )
(Tool: 1 -> Dia: 0.8000999999999999)
(Tool: 2 -> Dia: 0.8128)
(Tool: 3 -> Dia: 0.889)
(Tool: 4 -> Dia: 2.199894)

(FEEDRATE Z: )
(Tool: 1 -> Feedrate: 300)
(Tool: 2 -> Feedrate: 300)
(Tool: 3 -> Feedrate: 300)
(Tool: 4 -> Feedrate: 300)

(FEEDRATE RAPIDS: )
(Tool: 1 -> Feedrate Rapids: 1500)
(Tool: 2 -> Feedrate Rapids: 1500)
(Tool: 3 -> Feedrate Rapids: 1500)
(Tool: 4 -> Feedrate Rapids: 1500)

(Z_CUT: )
(Tool: 1 -> Z_Cut: -2.0)
(Tool: 2 -> Z_Cut: -2.0)
(Tool: 3 -> Z_Cut: -2.0)
(Tool: 4 -> Z_Cut: -2.0)

(Tools Offset: )
(Tool: 1 -> Offset Z: 0.0)
(Tool: 2 -> Offset Z: 0.0)
(Tool: 3 -> Offset Z: 0.0)
(Tool: 4 -> Offset Z: 0.0)

(Z_MOVE: )
(Tool: 1 -> Z_Move: 2)
(Tool: 2 -> Z_Move: 2)
(Tool: 3 -> Z_Move: 2)
(Tool: 4 -> Z_Move: 2)

(Z Toolchange: 15 mm)
(X,Y Toolchange: 0.0000, 0.0000 mm)
(Z Start: None mm)
(Z End: 0.5 mm)
(X,Y End: None mm)
(Steps per circle: 64)
(Preprocessor Excellon: default)

(X range:    4.6990 ...  157.9880  mm)
(Y range:    4.6990 ...  109.7280  mm)

(Spindle Speed: 0 RPM)
G21
G90
G94

G01 F300.00
G00 Z15.0000

G01 F300.00
M03
G00 X40.7035 Y5.1435
G01 Z-2.0000
G01 Z0
G00 Z2.0000
G00 X40.7035 Y7.6835
G01 Z-2.0000
G01 Z0
G00 Z2.0000
G00 X33.0835 Y7.6835
G01 Z-2.0000
G01 Z0
G00 Z2.0000
G00 X33.0835 Y5.1435
G01 Z-2.0000
G01 Z0
G00 Z2.0000
G00 X25.4635 Y5.1435
G01 Z-2.0000
G01 Z0
G00 Z2.0000
G00 X25.4635 Y7.6835
G01 Z-2.0000
G01 Z0
G00 Z2.0000
G00 X17.8435 Y10.2235
G01 Z-2.0000
G01 Z0
G00 Z2.0000
G00 X15.3035 Y10.2235
G01 Z-2.0000
G01 Z0
G00 Z2.0000
G00 X12.7635 Y7.6835
G01 Z-2.0000
G01 Z0
G00 Z2.0000
G00 X10.2235 Y5.1435
G01 Z-2.0000
G01 Z0
G00 Z2.0000
G00 X7.6835 Y5.1435
G01 Z-2.0000
G01 Z0
G00 Z2.0000
G00 X5.1435 Y5.1435
G01 Z-2.0000
G01 Z0
G00 Z2.0000
G00 X5.1435 Y7.6835
G01 Z-2.0000
G01 Z0
G00 Z2.0000
G00 X7.6835 Y7.6835
G01 Z-2.0000
G01 Z0
G00 Z2.0000
G00 X7.6835 Y10.2235
G01 Z-2.0000
G01 Z0
G00 Z2.0000
G00 X5.1435 Y10.2235
G01 Z-2.0000
G01 Z0
G00 Z2.0000
G00 X5.1435 Y12.7635
G01 Z-2.0000
G01 Z0
G00 Z2.0000
G00 X7.6835 Y12.7635
G01 Z-2.0000
G01 Z0
G00 Z2.0000
G00 X7.6835 Y15.3035
G01 Z-2.0000
G01 Z0
G00 Z2.0000
G00 X5.1435 Y15.3035
G01 Z-2.0000
G01 Z0
G00 Z2.0000
G00 X5.1435 Y17.8435
G01 Z-2.0000
G01 Z0
G00 Z2.0000
G00 X7.6835 Y17.8435
G01 Z-2.0000
G01 Z0
G00 Z2.0000
G00 X7.6835 Y20.3835
G01 Z-2.0000
G01 Z0
G00 Z2.0000
G00 X7.6835 Y22.9235
G01 Z-2.0000
G01 Z0
G00 Z2.0000
G00 X5.1435 Y20.3835
G01 Z-2.0000
G01 Z0
G00 Z2.0000
G00 X5.1435 Y22.9235
G01 Z-2.0000
G01 Z0
G00 Z2.0000
G00 X5.1435 Y25.4635
G01 Z-2.0000
G01 Z0
G00 Z2.0000
G00 X5.1435 Y28.0035
G01 Z-2.0000
G01 Z0
G00 Z2.0000
G00 X5.1435 Y30.5435
G01 Z-2.0000
G01 Z0
G00 Z2.0000
G00 X5.1435 Y33.0835
G01 Z-2.0000
G01 Z0
G00 Z2.0000
G00 X7.6835 Y33.0835
G01 Z-2.0000
G01 Z0
G00 Z2.0000
G00 X7.6835 Y30.5435
G01 Z-2.0000
G01 Z0
G00 Z2.0000
G00 X7.6835 Y28.0035
G01 Z-2.0000
G01 Z0
G00 Z2.0000
G00 X7.6835 Y25.4635
G01 Z-2.0000
G01 Z0
G00 Z2.0000
G00 X17.8435 Y33.0835
G01 Z-2.0000
G01 Z0
G00 Z2.0000
G00 X15.3035 Y35.6235
G01 Z-2.0000
G01 Z0
G00 Z2.0000
G00 X12.7635 Y38.1635
G01 Z-2.0000
G01 Z0
G00 Z2.0000
G00 X10.2235 Y40.7035
G01 Z-2.0000
G01 Z0
G00 Z2.0000
G00 X17.8435 Y53.4035
G01 Z-2.0000
G01 Z0
G00 Z2.0000
G00 X25.4635 Y45.7835
G01 Z-2.0000
G01 Z0
G00 Z2.0000
G00 X25.4635 Y43.2435
G01 Z-2.0000
G01 Z0
G00 Z2.0000
G00 X25.4635 Y40.7035
G01 Z-2.0000
G01 Z0
G00 Z2.0000
G00 X25.4635 Y38.1635
G01 Z-2.0000
G01 Z0
G00 Z2.0000
G00 X33.0835 Y35.6235
G01 Z-2.0000
G01 Z0
G00 Z2.0000
G00 X33.0835 Y38.1635
G01 Z-2.0000
G01 Z0
G00 Z2.0000
G00 X33.0835 Y40.7035
G01 Z-2.0000
G01 Z0
G00 Z2.0000
G00 X33.0835 Y43.2435
G01 Z-2.0000
G01 Z0
G00 Z2.0000
G00 X33.0835 Y45.7835
G01 Z-2.0000
G01 Z0
G00 Z2.0000
G00 X43.2435 Y53.4035
G01 Z-2.0000
G01 Z0
G00 Z2.0000
G00 X55.9435 Y68.6435
G01 Z-2.0000
G01 Z0
G00 Z2.0000
G00 X63.5635 Y68.6435
G01 Z-2.0000
G01 Z0
G00 Z2.0000
G00 X71.1835 Y71.1835
G01 Z-2.0000
G01 Z0
G00 Z2.0000
G00 X71.1835 Y76.2635
G01 Z-2.0000
G01 Z0
G00 Z2.0000
G00 X76.2635 Y76.2635
G01 Z-2.0000
G01 Z0
G00 Z2.0000
G00 X76.2635 Y71.1835
G01 Z-2.0000
G01 Z0
G00 Z2.0000
G00 X86.4235 Y71.1835
G01 Z-2.0000
G01 Z0
G00 Z2.0000
G00 X91.0234 Y67.7835
G01 Z-2.0000
G01 Z0
G00 Z2.0000
G00 X94.5236 Y66.4835
G01 Z-2.0000
G01 Z0
G00 Z2.0000
G00 X97.7235 Y67.8835
G01 Z-2.0000
G01 Z0
G00 Z2.0000
G00 X99.1235 Y71.1835
G01 Z-2.0000
G01 Z0
G00 Z2.0000
G00 X97.6234 Y74.4835
G01 Z-2.0000
G01 Z0
G00 Z2.0000
G00 X94.5236 Y75.8835
G01 Z-2.0000
G01 Z0
G00 Z2.0000
G00 X91.0234 Y74.5835
G01 Z-2.0000
G01 Z0
G00 Z2.0000
G00 X86.4235 Y76.2635
G01 Z-2.0000
G01 Z0
G00 Z2.0000
G00 X86.4235 Y78.8035
G01 Z-2.0000
G01 Z0
G00 Z2.0000
G00 X86.4235 Y83.8835
G01 Z-2.0000
G01 Z0
G00 Z2.0000
G00 X71.1835 Y94.0435
G01 Z-2.0000
G01 Z0
G00 Z2.0000
G00 X63.5635 Y88.9635
G01 Z-2.0000
G01 Z0
G00 Z2.0000
G00 X55.9435 Y86.4235
G01 Z-2.0000
G01 Z0
G00 Z2.0000
G00 X55.9435 Y94.0435
G01 Z-2.0000
G01 Z0
G00 Z2.0000
G00 X68.6435 Y101.6635
G01 Z-2.0000
G01 Z0
G00 Z2.0000
G00 X78.8035 Y101.6635
G01 Z-2.0000
G01 Z0
G00 Z2.0000
G00 X76.2635 Y96.5835
G01 Z-2.0000
G01 Z0
G00 Z2.0000
G00 X81.3435 Y94.0435
G01 Z-2.0000
G01 Z0
G00 Z2.0000
G00 X86.4235 Y96.5835
G01 Z-2.0000
G01 Z0
G00 Z2.0000
G00 X91.0234 Y94.9035
G01 Z-2.0000
G01 Z0
G00 Z2.0000
G00 X91.0234 Y88.1035
G01 Z-2.0000
G01 Z0
G00 Z2.0000
G00 X94.5236 Y86.8035
G01 Z-2.0000
G01 Z0
G00 Z2.0000
G00 X97.7235 Y88.2035
G01 Z-2.0000
G01 Z0
G00 Z2.0000
G00 X99.1235 Y91.5035
G01 Z-2.0000
G01 Z0
G00 Z2.0000
G00 X97.6234 Y94.8035
G01 Z-2.0000
G01 Z0
G00 Z2.0000
G00 X94.5236 Y96.2035
G01 Z-2.0000
G01 Z0
G00 Z2.0000
G00 X111.8235 Y109.2835
G01 Z-2.0000
G01 Z0
G00 Z2.0000
G00 X114.3635 Y109.2835
G01 Z-2.0000
G01 Z0
G00 Z2.0000
G00 X116.9035 Y109.2835
G01 Z-2.0000
G01 Z0
G00 Z2.0000
G00 X121.9835 Y109.2835
G01 Z-2.0000
G01 Z0
G00 Z2.0000
G00 X124.5235 Y109.2835
G01 Z-2.0000
G01 Z0
G00 Z2.0000
G00 X127.0635 Y109.2835
G01 Z-2.0000
G01 Z0
G00 Z2.0000
G00 X132.1435 Y109.2835
G01 Z-2.0000
G01 Z0
G00 Z2.0000
G00 X134.6835 Y109.2835
G01 Z-2.0000
G01 Z0
G00 Z2.0000
G00 X137.2235 Y109.2835
G01 Z-2.0000
G01 Z0
G00 Z2.0000
G00 X142.3035 Y109.2835
G01 Z-2.0000
G01 Z0
G00 Z2.0000
G00 X144.8435 Y109.2835
G01 Z-2.0000
G01 Z0
G00 Z2.0000
G00 X147.3835 Y109.2835
G01 Z-2.0000
G01 Z0
G00 Z2.0000
G00 X149.9235 Y109.2835
G01 Z-2.0000
G01 Z0
G00 Z2.0000
G00 X152.4635 Y109.2835
G01 Z-2.0000
G01 Z0
G00 Z2.0000
G00 X157.5435 Y101.6635
G01 Z-2.0000
G01 Z0
G00 Z2.0000
G00 X157.5435 Y99.1235
G01 Z-2.0000
G01 Z0
G00 Z2.0000
G00 X157.5435 Y96.5835
G01 Z-2.0000
G01 Z0
G00 Z2.0000
G00 X149.9235 Y96.5835
G01 Z-2.0000
G01 Z0
G00 Z2.0000
G00 X139.7635 Y99.1235
G01 Z-2.0000
G01 Z0
G00 Z2.0000
G00 X139.7635 Y101.6635
G01 Z-2.0000
G01 Z0
G00 Z2.0000
G00 X134.6835 Y101.6635
G01 Z-2.0000
G01 Z0
G00 Z2.0000
G00 X134.6835 Y99.1235
G01 Z-2.0000
G01 Z0
G00 Z2.0000
G00 X134.6835 Y96.5835
G01 Z-2.0000
G01 Z0
G00 Z2.0000
G00 X134.6835 Y88.9635
G01 Z-2.0000
G01 Z0
G00 Z2.0000
G00 X134.6835 Y83.8835
G01 Z-2.0000
G01 Z0
G00 Z2.0000
G00 X134.6835 Y78.8035
G01 Z-2.0000
G01 Z0
G00 Z2.0000
G00 X134.6835 Y73.7235
G01 Z-2.0000
G01 Z0
G00 Z2.0000
G00 X116.9035 Y88.9635
G01 Z-2.0000
G01 Z0
G00 Z2.0000
G00 X116.9035 Y83.8835
G01 Z-2.0000
G01 Z0
G00 Z2.0000
G00 X116.9035 Y78.8035
G01 Z-2.0000
G01 Z0
G00 Z2.0000
G00 X116.9035 Y73.7235
G01 Z-2.0000
G01 Z0
G00 Z2.0000
G00 X121.9835 Y61.0235
G01 Z-2.0000
G01 Z0
G00 Z2.0000
G00 X121.9835 Y58.4835
G01 Z-2.0000
G01 Z0
G00 Z2.0000
G00 X121.9835 Y55.9435
G01 Z-2.0000
G01 Z0
G00 Z2.0000
G00 X121.9835 Y53.4035
G01 Z-2.0000
G01 Z0
G00 Z2.0000
G00 X132.1435 Y61.0235
G01 Z-2.0000
G01 Z0
G00 Z2.0000
G00 X132.1435 Y58.4835
G01 Z-2.0000
G01 Z0
G00 Z2.0000
G00 X132.1435 Y55.9435
G01 Z-2.0000
G01 Z0
G00 Z2.0000
G00 X132.1435 Y53.4035
G01 Z-2.0000
G01 Z0
G00 Z2.0000
G00 X152.4635 Y48.3235
G01 Z-2.0000
G01 Z0
G00 Z2.0000
G00 X152.4635 Y35.6235
G01 Z-2.0000
G01 Z0
G00 Z2.0000
G00 X157.5435 Y30.5435
G01 Z-2.0000
G01 Z0
G00 Z2.0000
G00 X157.5435 Y28.0035
G01 Z-2.0000
G01 Z0
G00 Z2.0000
G00 X157.5435 Y25.4635
G01 Z-2.0000
G01 Z0
G00 Z2.0000
G00 X157.5435 Y22.9235
G01 Z-2.0000
G01 Z0
G00 Z2.0000
G00 X157.5435 Y20.3835
G01 Z-2.0000
G01 Z0
G00 Z2.0000
G00 X157.5435 Y17.8435
G01 Z-2.0000
G01 Z0
G00 Z2.0000
G00 X157.5435 Y15.3035
G01 Z-2.0000
G01 Z0
G00 Z2.0000
G00 X157.5435 Y12.7635
G01 Z-2.0000
G01 Z0
G00 Z2.0000
G00 X147.3835 Y5.1435
G01 Z-2.0000
G01 Z0
G00 Z2.0000
G00 X144.8435 Y5.1435
G01 Z-2.0000
G01 Z0
G00 Z2.0000
M05
G00 Z0.50


