(G-CODE GENERATED BY FLATCAM v8.994 - www.flatcam.org - Version Date: 2020/11/7)

(Name: Halt - Cut.gbr_iso_combined_cnc)
(Type: G-code from Geometry)
(Units: MM)

(Created on Sunday, 08 December 2024 at 13:31)

(This preprocessor is the default preprocessor used by FlatCAM.)
(It is made to work with MACH3 compatible motion controllers.)

(TOOL DIAMETER: 1.5 mm)
(Feedrate_XY: 120.0 mm/min)
(Feedrate_Z: 60.0 mm/min)
(Feedrate rapids 1500.0 mm/min)

(Z_Cut: -2.4 mm)
(Z_Move: 2.0 mm)
(Z Start: None mm)
(Z End: 15.0 mm)
(X,Y End: None mm)
(Steps per circle: 64)
(Preprocessor Geometry: default)

(X range:   -0.7500 ...  163.4370  mm)
(Y range:   -0.7500 ...  115.1770  mm)

(Spindle Speed: 0.0 RPM)
G21
G90
G94

G01 F120.00
G00 Z15.0000

M03
G01 F120.00
G00 X0.0267 Y-0.7491
G01 F60.00
G01 Z-2.4000
G01 F120.00
G01 X0.0635 Y-0.7500
G01 X162.6235 Y-0.7500
G01 X162.6603 Y-0.7491
G01 X162.6849 Y-0.7477
G01 X162.7215 Y-0.7441
G01 X162.7459 Y-0.7407
G01 X162.7822 Y-0.7344
G01 X162.8002 Y-0.7306
G01 X162.8242 Y-0.7248
G01 X162.8597 Y-0.7150
G01 X162.8946 Y-0.7035
G01 X162.9177 Y-0.6949
G01 X162.9517 Y-0.6809
G01 X162.9741 Y-0.6705
G01 X163.0070 Y-0.6540
G01 X163.0390 Y-0.6358
G01 X163.0600 Y-0.6230
G01 X163.0907 Y-0.6025
G01 X163.1252 Y-0.5769
G01 X163.1537 Y-0.5535
G01 X163.1675 Y-0.5413
G01 X163.1856 Y-0.5246
G01 X163.1988 Y-0.5118
G01 X163.2116 Y-0.4986
G01 X163.2283 Y-0.4805
G01 X163.2524 Y-0.4526
G01 X163.2639 Y-0.4382
G01 X163.2895 Y-0.4037
G01 X163.2999 Y-0.3885
G01 X163.3196 Y-0.3574
G01 X163.3321 Y-0.3361
G01 X163.3410 Y-0.3200
G01 X163.3494 Y-0.3037
G01 X163.3602 Y-0.2815
G01 X163.3679 Y-0.2647
G01 X163.3819 Y-0.2307
G01 X163.3905 Y-0.2076
G01 X163.4020 Y-0.1727
G01 X163.4071 Y-0.1550
G01 X163.4133 Y-0.1311
G01 X163.4214 Y-0.0952
G01 X163.4248 Y-0.0771
G01 X163.4311 Y-0.0345
G01 X163.4331 Y-0.0162
G01 X163.4358 Y0.0205
G01 X163.4368 Y0.0451
G01 X163.4370 Y0.0635
G01 X163.4370 Y114.3635
G01 X163.4361 Y114.4003
G01 X163.4347 Y114.4249
G01 X163.4311 Y114.4615
G01 X163.4277 Y114.4859
G01 X163.4214 Y114.5222
G01 X163.4176 Y114.5402
G01 X163.4118 Y114.5642
G01 X163.4020 Y114.5997
G01 X163.3905 Y114.6346
G01 X163.3819 Y114.6577
G01 X163.3679 Y114.6917
G01 X163.3575 Y114.7141
G01 X163.3410 Y114.7470
G01 X163.3228 Y114.7790
G01 X163.3100 Y114.8000
G01 X163.2895 Y114.8307
G01 X163.2639 Y114.8652
G01 X163.2405 Y114.8937
G01 X163.2283 Y114.9075
G01 X163.2116 Y114.9256
G01 X163.1988 Y114.9388
G01 X163.1856 Y114.9516
G01 X163.1675 Y114.9683
G01 X163.1396 Y114.9924
G01 X163.1252 Y115.0039
G01 X163.0907 Y115.0295
G01 X163.0600 Y115.0500
G01 X163.0444 Y115.0596
G01 X163.0231 Y115.0721
G01 X163.0070 Y115.0810
G01 X162.9907 Y115.0894
G01 X162.9685 Y115.1002
G01 X162.9348 Y115.1151
G01 X162.9177 Y115.1219
G01 X162.8946 Y115.1305
G01 X162.8597 Y115.1420
G01 X162.8420 Y115.1471
G01 X162.8181 Y115.1533
G01 X162.7822 Y115.1614
G01 X162.7641 Y115.1648
G01 X162.7215 Y115.1711
G01 X162.6849 Y115.1747
G01 X162.6665 Y115.1758
G01 X162.6419 Y115.1768
G01 X162.6235 Y115.1770
G01 X0.0635 Y115.1770
G01 X0.0267 Y115.1761
G01 X0.0021 Y115.1747
G01 X-0.0345 Y115.1711
G01 X-0.0589 Y115.1677
G01 X-0.0771 Y115.1648
G01 X-0.1132 Y115.1576
G01 X-0.1372 Y115.1518
G01 X-0.1727 Y115.1420
G01 X-0.2076 Y115.1305
G01 X-0.2307 Y115.1219
G01 X-0.2647 Y115.1079
G01 X-0.2871 Y115.0975
G01 X-0.3200 Y115.0810
G01 X-0.3520 Y115.0628
G01 X-0.3730 Y115.0500
G01 X-0.4037 Y115.0295
G01 X-0.4382 Y115.0039
G01 X-0.4667 Y114.9805
G01 X-0.4805 Y114.9683
G01 X-0.4986 Y114.9516
G01 X-0.5118 Y114.9388
G01 X-0.5246 Y114.9256
G01 X-0.5413 Y114.9075
G01 X-0.5654 Y114.8796
G01 X-0.5769 Y114.8652
G01 X-0.6025 Y114.8307
G01 X-0.6230 Y114.8000
G01 X-0.6326 Y114.7844
G01 X-0.6451 Y114.7631
G01 X-0.6540 Y114.7470
G01 X-0.6624 Y114.7307
G01 X-0.6732 Y114.7085
G01 X-0.6881 Y114.6748
G01 X-0.6949 Y114.6577
G01 X-0.7035 Y114.6346
G01 X-0.7150 Y114.5997
G01 X-0.7201 Y114.5820
G01 X-0.7263 Y114.5581
G01 X-0.7344 Y114.5222
G01 X-0.7378 Y114.5041
G01 X-0.7441 Y114.4615
G01 X-0.7477 Y114.4249
G01 X-0.7488 Y114.4065
G01 X-0.7498 Y114.3819
G01 X-0.7500 Y114.3635
G01 X-0.7500 Y0.0635
G01 X-0.7491 Y0.0267
G01 X-0.7477 Y0.0021
G01 X-0.7461 Y-0.0162
G01 X-0.7441 Y-0.0345
G01 X-0.7407 Y-0.0589
G01 X-0.7344 Y-0.0952
G01 X-0.7263 Y-0.1311
G01 X-0.7201 Y-0.1550
G01 X-0.7150 Y-0.1727
G01 X-0.7035 Y-0.2076
G01 X-0.6949 Y-0.2307
G01 X-0.6881 Y-0.2478
G01 X-0.6732 Y-0.2815
G01 X-0.6624 Y-0.3037
G01 X-0.6540 Y-0.3200
G01 X-0.6451 Y-0.3361
G01 X-0.6326 Y-0.3574
G01 X-0.6129 Y-0.3885
G01 X-0.5917 Y-0.4186
G01 X-0.5769 Y-0.4382
G01 X-0.5654 Y-0.4526
G01 X-0.5413 Y-0.4805
G01 X-0.5246 Y-0.4986
G01 X-0.4986 Y-0.5246
G01 X-0.4667 Y-0.5535
G01 X-0.4382 Y-0.5769
G01 X-0.4037 Y-0.6025
G01 X-0.3730 Y-0.6230
G01 X-0.3361 Y-0.6451
G01 X-0.3037 Y-0.6624
G01 X-0.2647 Y-0.6809
G01 X-0.2307 Y-0.6949
G01 X-0.1902 Y-0.7094
G01 X-0.1550 Y-0.7201
G01 X-0.1132 Y-0.7306
G01 X-0.0771 Y-0.7378
G01 X-0.0345 Y-0.7441
G01 X0.0021 Y-0.7477
G01 X0.0267 Y-0.7491
G00 Z2.0000
G00 X9.7104 Y70.5385
G01 F60.00
G01 Z-2.4000
G01 F120.00
G01 X9.7664 Y70.4637
G01 X9.8150 Y70.3839
G01 X9.8558 Y70.2999
G01 X9.8885 Y70.2124
G01 X9.9127 Y70.1222
G01 X9.9282 Y70.0300
G01 X9.9348 Y69.9369
G01 X9.9326 Y69.8435
G01 X9.9215 Y69.7507
G01 X9.9017 Y69.6594
G01 X9.8732 Y69.5705
G01 X9.8364 Y69.4846
G01 X9.7917 Y69.4026
G01 X9.7393 Y69.3252
G01 X9.6798 Y69.2532
G01 X9.6138 Y69.1872
G01 X9.5418 Y69.1277
G01 X9.4644 Y69.0753
G01 X9.3824 Y69.0306
G01 X9.2965 Y68.9938
G01 X9.2076 Y68.9653
G01 X9.1163 Y68.9455
G01 X9.0235 Y68.9344
G01 X8.9301 Y68.9322
G01 X8.8370 Y68.9388
G01 X8.7448 Y68.9543
G01 X8.6546 Y68.9785
G01 X8.5671 Y69.0112
G01 X8.4831 Y69.0520
G01 X8.4033 Y69.1006
G01 X8.3285 Y69.1566
G01 X8.2594 Y69.2194
G01 X8.1966 Y69.2885
G01 X8.1406 Y69.3633
G01 X8.0920 Y69.4431
G01 X8.0512 Y69.5271
G01 X8.0185 Y69.6146
G01 X7.9943 Y69.7048
G01 X7.9788 Y69.7970
G01 X7.9722 Y69.8901
G01 X7.9744 Y69.9835
G01 X7.9855 Y70.0763
G01 X8.0053 Y70.1676
G01 X8.0338 Y70.2565
G01 X8.0706 Y70.3424
G01 X8.1153 Y70.4244
G01 X8.1677 Y70.5018
G01 X8.2272 Y70.5738
G01 X8.2932 Y70.6398
G01 X8.3652 Y70.6993
G01 X8.4426 Y70.7517
G01 X8.5246 Y70.7964
G01 X8.6105 Y70.8332
G01 X8.6994 Y70.8617
G01 X8.7907 Y70.8815
G01 X8.8835 Y70.8926
G01 X8.9769 Y70.8948
G01 X9.0700 Y70.8882
G01 X9.1622 Y70.8727
G01 X9.2524 Y70.8485
G01 X9.3399 Y70.8158
G01 X9.4239 Y70.7750
G01 X9.5037 Y70.7264
G01 X9.5785 Y70.6704
G01 X9.6476 Y70.6076
G01 X9.7104 Y70.5385
G00 Z2.0000
G00 X22.1100 Y67.8300
G01 F60.00
G01 Z-2.4000
G01 F120.00
G01 X22.1100 Y64.3770
G01 X21.1970 Y64.3770
G01 X21.1970 Y67.8300
G01 X22.1100 Y67.8300
G00 Z2.0000
G00 X22.1100 Y75.4500
G01 F60.00
G01 Z-2.4000
G01 F120.00
G01 X22.1100 Y71.9970
G01 X21.1970 Y71.9970
G01 X21.1970 Y75.4500
G01 X22.1100 Y75.4500
G00 Z2.0000
G00 X32.2700 Y75.4500
G01 F60.00
G01 Z-2.4000
G01 F120.00
G01 X32.2700 Y71.9970
G01 X31.3570 Y71.9970
G01 X31.3570 Y75.4500
G01 X32.2700 Y75.4500
G00 Z2.0000
G00 X37.3500 Y75.4500
G01 F60.00
G01 Z-2.4000
G01 F120.00
G01 X37.3500 Y71.9970
G01 X36.4370 Y71.9970
G01 X36.4370 Y75.4500
G01 X37.3500 Y75.4500
G00 Z2.0000
G00 X37.3500 Y67.8300
G01 F60.00
G01 Z-2.4000
G01 F120.00
G01 X37.3500 Y64.3770
G01 X36.4370 Y64.3770
G01 X36.4370 Y67.8300
G01 X37.3500 Y67.8300
G00 Z2.0000
G00 X32.2700 Y67.8300
G01 F60.00
G01 Z-2.4000
G01 F120.00
G01 X32.2700 Y64.3770
G01 X31.3570 Y64.3770
G01 X31.3570 Y67.8300
G01 X32.2700 Y67.8300
G00 Z2.0000
G00 X32.2700 Y93.2300
G01 F60.00
G01 Z-2.4000
G01 F120.00
G01 X32.2700 Y89.7770
G01 X31.3570 Y89.7770
G01 X31.3570 Y93.2300
G01 X32.2700 Y93.2300
G00 Z2.0000
G00 X37.3500 Y93.2300
G01 F60.00
G01 Z-2.4000
G01 F120.00
G01 X37.3500 Y89.7770
G01 X36.4370 Y89.7770
G01 X36.4370 Y93.2300
G01 X37.3500 Y93.2300
G00 Z2.0000
G00 X37.3500 Y100.8500
G01 F60.00
G01 Z-2.4000
G01 F120.00
G01 X37.3500 Y97.3970
G01 X36.4370 Y97.3970
G01 X36.4370 Y100.8500
G01 X37.3500 Y100.8500
G00 Z2.0000
G00 X32.2700 Y100.8500
G01 F60.00
G01 Z-2.4000
G01 F120.00
G01 X32.2700 Y97.3970
G01 X31.3570 Y97.3970
G01 X31.3570 Y100.8500
G01 X32.2700 Y100.8500
G00 Z2.0000
G00 X22.1100 Y100.8500
G01 F60.00
G01 Z-2.4000
G01 F120.00
G01 X22.1100 Y97.3970
G01 X21.1970 Y97.3970
G01 X21.1970 Y100.8500
G01 X22.1100 Y100.8500
G00 Z2.0000
G00 X22.1100 Y93.2300
G01 F60.00
G01 Z-2.4000
G01 F120.00
G01 X22.1100 Y89.7770
G01 X21.1970 Y89.7770
G01 X21.1970 Y93.2300
G01 X22.1100 Y93.2300
G00 Z2.0000
G00 X9.7104 Y95.9385
G01 F60.00
G01 Z-2.4000
G01 F120.00
G01 X9.7664 Y95.8637
G01 X9.8150 Y95.7839
G01 X9.8558 Y95.6999
G01 X9.8885 Y95.6124
G01 X9.9127 Y95.5222
G01 X9.9282 Y95.4300
G01 X9.9348 Y95.3369
G01 X9.9326 Y95.2435
G01 X9.9215 Y95.1507
G01 X9.9017 Y95.0594
G01 X9.8732 Y94.9705
G01 X9.8364 Y94.8846
G01 X9.7917 Y94.8026
G01 X9.7393 Y94.7252
G01 X9.6798 Y94.6532
G01 X9.6138 Y94.5872
G01 X9.5418 Y94.5277
G01 X9.4644 Y94.4753
G01 X9.3824 Y94.4306
G01 X9.2965 Y94.3938
G01 X9.2076 Y94.3653
G01 X9.1163 Y94.3455
G01 X9.0235 Y94.3344
G01 X8.9301 Y94.3322
G01 X8.8370 Y94.3388
G01 X8.7448 Y94.3543
G01 X8.6546 Y94.3785
G01 X8.5671 Y94.4112
G01 X8.4831 Y94.4520
G01 X8.4033 Y94.5006
G01 X8.3285 Y94.5566
G01 X8.2594 Y94.6194
G01 X8.1966 Y94.6885
G01 X8.1406 Y94.7633
G01 X8.0920 Y94.8431
G01 X8.0512 Y94.9271
G01 X8.0185 Y95.0146
G01 X7.9943 Y95.1048
G01 X7.9788 Y95.1970
G01 X7.9722 Y95.2901
G01 X7.9744 Y95.3835
G01 X7.9855 Y95.4763
G01 X8.0053 Y95.5676
G01 X8.0338 Y95.6565
G01 X8.0706 Y95.7424
G01 X8.1153 Y95.8244
G01 X8.1677 Y95.9018
G01 X8.2272 Y95.9738
G01 X8.2932 Y96.0398
G01 X8.3652 Y96.0993
G01 X8.4426 Y96.1517
G01 X8.5246 Y96.1964
G01 X8.6105 Y96.2332
G01 X8.6994 Y96.2617
G01 X8.7907 Y96.2815
G01 X8.8835 Y96.2926
G01 X8.9769 Y96.2948
G01 X9.0700 Y96.2882
G01 X9.1622 Y96.2727
G01 X9.2524 Y96.2485
G01 X9.3399 Y96.2158
G01 X9.4239 Y96.1750
G01 X9.5037 Y96.1264
G01 X9.5785 Y96.0704
G01 X9.6476 Y96.0076
G01 X9.7104 Y95.9385
G00 Z2.0000
G00 X91.3091 Y94.9045
G01 F60.00
G01 Z-2.4000
G01 F120.00
G01 X91.3076 Y94.8756
G01 X91.3035 Y94.8478
G01 X91.2967 Y94.8206
G01 X91.2873 Y94.7943
G01 X91.2753 Y94.7689
G01 X91.2609 Y94.7449
G01 X91.2442 Y94.7224
G01 X91.2254 Y94.7016
G01 X91.2046 Y94.6828
G01 X91.1821 Y94.6661
G01 X91.1581 Y94.6517
G01 X91.1327 Y94.6397
G01 X91.1063 Y94.6303
G01 X91.0792 Y94.6235
G01 X91.0514 Y94.6194
G01 X91.0234 Y94.6180
G01 X90.9954 Y94.6194
G01 X90.9677 Y94.6235
G01 X90.9405 Y94.6303
G01 X90.9142 Y94.6397
G01 X90.8888 Y94.6517
G01 X90.8648 Y94.6661
G01 X90.8423 Y94.6828
G01 X90.8215 Y94.7016
G01 X90.8027 Y94.7224
G01 X90.7860 Y94.7449
G01 X90.7716 Y94.7689
G01 X90.7596 Y94.7943
G01 X90.7502 Y94.8206
G01 X90.7434 Y94.8478
G01 X90.7394 Y94.8746
G01 X90.7381 Y94.9026
G01 X90.7395 Y94.9315
G01 X90.7436 Y94.9593
G01 X90.7504 Y94.9864
G01 X90.7599 Y95.0128
G01 X90.7718 Y95.0382
G01 X90.7863 Y95.0622
G01 X90.8030 Y95.0847
G01 X90.8218 Y95.1055
G01 X90.8425 Y95.1243
G01 X90.8650 Y95.1410
G01 X90.8891 Y95.1554
G01 X90.9144 Y95.1674
G01 X90.9408 Y95.1768
G01 X90.9680 Y95.1836
G01 X90.9957 Y95.1877
G01 X91.0237 Y95.1891
G01 X91.0517 Y95.1877
G01 X91.0794 Y95.1836
G01 X91.1066 Y95.1768
G01 X91.1330 Y95.1674
G01 X91.1583 Y95.1554
G01 X91.1823 Y95.1410
G01 X91.2049 Y95.1243
G01 X91.2256 Y95.1055
G01 X91.2444 Y95.0847
G01 X91.2611 Y95.0622
G01 X91.2755 Y95.0382
G01 X91.2875 Y95.0128
G01 X91.2970 Y94.9864
G01 X91.3038 Y94.9593
G01 X91.3077 Y94.9325
G01 X91.3091 Y94.9045
G00 Z2.0000
G00 X94.8089 Y96.2045
G01 F60.00
G01 Z-2.4000
G01 F120.00
G01 X94.8075 Y96.1755
G01 X94.8034 Y96.1478
G01 X94.7966 Y96.1206
G01 X94.7871 Y96.0942
G01 X94.7752 Y96.0689
G01 X94.7607 Y96.0449
G01 X94.7440 Y96.0224
G01 X94.7252 Y96.0016
G01 X94.7045 Y95.9828
G01 X94.6820 Y95.9661
G01 X94.6579 Y95.9517
G01 X94.6326 Y95.9397
G01 X94.6062 Y95.9302
G01 X94.5790 Y95.9234
G01 X94.5513 Y95.9193
G01 X94.5233 Y95.9180
G01 X94.4953 Y95.9193
G01 X94.4676 Y95.9234
G01 X94.4404 Y95.9302
G01 X94.4140 Y95.9397
G01 X94.3887 Y95.9517
G01 X94.3647 Y95.9661
G01 X94.3421 Y95.9828
G01 X94.3214 Y96.0016
G01 X94.3026 Y96.0224
G01 X94.2859 Y96.0449
G01 X94.2715 Y96.0689
G01 X94.2595 Y96.0942
G01 X94.2500 Y96.1206
G01 X94.2432 Y96.1478
G01 X94.2393 Y96.1746
G01 X94.2379 Y96.2026
G01 X94.2394 Y96.2315
G01 X94.2435 Y96.2592
G01 X94.2503 Y96.2864
G01 X94.2597 Y96.3128
G01 X94.2717 Y96.3381
G01 X94.2861 Y96.3622
G01 X94.3028 Y96.3847
G01 X94.3216 Y96.4054
G01 X94.3424 Y96.4243
G01 X94.3649 Y96.4410
G01 X94.3889 Y96.4554
G01 X94.4143 Y96.4673
G01 X94.4407 Y96.4768
G01 X94.4678 Y96.4836
G01 X94.4956 Y96.4877
G01 X94.5236 Y96.4891
G01 X94.5516 Y96.4877
G01 X94.5793 Y96.4836
G01 X94.6065 Y96.4768
G01 X94.6328 Y96.4673
G01 X94.6582 Y96.4554
G01 X94.6822 Y96.4410
G01 X94.7047 Y96.4243
G01 X94.7255 Y96.4054
G01 X94.7443 Y96.3847
G01 X94.7610 Y96.3622
G01 X94.7754 Y96.3381
G01 X94.7874 Y96.3128
G01 X94.7968 Y96.2864
G01 X94.8036 Y96.2592
G01 X94.8076 Y96.2325
G01 X94.8089 Y96.2045
G00 Z2.0000
G00 X97.9090 Y94.8044
G01 F60.00
G01 Z-2.4000
G01 F120.00
G01 X97.9076 Y94.7755
G01 X97.9035 Y94.7478
G01 X97.8966 Y94.7206
G01 X97.8872 Y94.6942
G01 X97.8752 Y94.6689
G01 X97.8608 Y94.6448
G01 X97.8441 Y94.6223
G01 X97.8253 Y94.6015
G01 X97.8045 Y94.5827
G01 X97.7820 Y94.5660
G01 X97.7580 Y94.5516
G01 X97.7327 Y94.5396
G01 X97.7063 Y94.5302
G01 X97.6791 Y94.5234
G01 X97.6514 Y94.5193
G01 X97.6234 Y94.5179
G01 X97.5954 Y94.5193
G01 X97.5677 Y94.5234
G01 X97.5405 Y94.5302
G01 X97.5141 Y94.5396
G01 X97.4888 Y94.5516
G01 X97.4647 Y94.5660
G01 X97.4422 Y94.5827
G01 X97.4215 Y94.6015
G01 X97.4026 Y94.6223
G01 X97.3859 Y94.6448
G01 X97.3715 Y94.6689
G01 X97.3595 Y94.6942
G01 X97.3501 Y94.7206
G01 X97.3433 Y94.7478
G01 X97.3393 Y94.7745
G01 X97.3380 Y94.8025
G01 X97.3394 Y94.8315
G01 X97.3436 Y94.8592
G01 X97.3504 Y94.8864
G01 X97.3598 Y94.9127
G01 X97.3718 Y94.9381
G01 X97.3862 Y94.9621
G01 X97.4029 Y94.9846
G01 X97.4217 Y95.0054
G01 X97.4425 Y95.0242
G01 X97.4650 Y95.0409
G01 X97.4890 Y95.0553
G01 X97.5143 Y95.0673
G01 X97.5407 Y95.0767
G01 X97.5679 Y95.0835
G01 X97.5956 Y95.0877
G01 X97.6236 Y95.0890
G01 X97.6516 Y95.0877
G01 X97.6793 Y95.0835
G01 X97.7065 Y95.0767
G01 X97.7329 Y95.0673
G01 X97.7582 Y95.0553
G01 X97.7823 Y95.0409
G01 X97.8048 Y95.0242
G01 X97.8256 Y95.0054
G01 X97.8444 Y94.9846
G01 X97.8611 Y94.9621
G01 X97.8755 Y94.9381
G01 X97.8875 Y94.9127
G01 X97.8969 Y94.8864
G01 X97.9037 Y94.8592
G01 X97.9077 Y94.8324
G01 X97.9090 Y94.8044
G00 Z2.0000
G00 X99.4091 Y91.5035
G01 F60.00
G01 Z-2.4000
G01 F120.00
G01 X99.4077 Y91.4755
G01 X99.4036 Y91.4478
G01 X99.3968 Y91.4206
G01 X99.3873 Y91.3942
G01 X99.3753 Y91.3689
G01 X99.3609 Y91.3448
G01 X99.3442 Y91.3223
G01 X99.3254 Y91.3016
G01 X99.3047 Y91.2828
G01 X99.2822 Y91.2661
G01 X99.2581 Y91.2517
G01 X99.2328 Y91.2397
G01 X99.2064 Y91.2302
G01 X99.1792 Y91.2234
G01 X99.1515 Y91.2193
G01 X99.1235 Y91.2179
G01 X99.0955 Y91.2193
G01 X99.0678 Y91.2234
G01 X99.0406 Y91.2302
G01 X99.0142 Y91.2397
G01 X98.9889 Y91.2517
G01 X98.9648 Y91.2661
G01 X98.9423 Y91.2828
G01 X98.9216 Y91.3016
G01 X98.9028 Y91.3223
G01 X98.8861 Y91.3448
G01 X98.8717 Y91.3689
G01 X98.8597 Y91.3942
G01 X98.8502 Y91.4206
G01 X98.8434 Y91.4478
G01 X98.8393 Y91.4755
G01 X98.8379 Y91.5035
G01 X98.8393 Y91.5315
G01 X98.8434 Y91.5592
G01 X98.8502 Y91.5864
G01 X98.8597 Y91.6128
G01 X98.8717 Y91.6381
G01 X98.8861 Y91.6622
G01 X98.9028 Y91.6847
G01 X98.9216 Y91.7054
G01 X98.9423 Y91.7242
G01 X98.9648 Y91.7409
G01 X98.9889 Y91.7553
G01 X99.0142 Y91.7673
G01 X99.0406 Y91.7768
G01 X99.0678 Y91.7836
G01 X99.0955 Y91.7877
G01 X99.1235 Y91.7891
G01 X99.1515 Y91.7877
G01 X99.1792 Y91.7836
G01 X99.2064 Y91.7768
G01 X99.2328 Y91.7673
G01 X99.2581 Y91.7553
G01 X99.2822 Y91.7409
G01 X99.3047 Y91.7242
G01 X99.3254 Y91.7054
G01 X99.3442 Y91.6847
G01 X99.3609 Y91.6622
G01 X99.3753 Y91.6381
G01 X99.3873 Y91.6128
G01 X99.3968 Y91.5864
G01 X99.4036 Y91.5592
G01 X99.4077 Y91.5315
G01 X99.4091 Y91.5035
G00 Z2.0000
G00 X98.0090 Y88.2035
G01 F60.00
G01 Z-2.4000
G01 F120.00
G01 X98.0076 Y88.1755
G01 X98.0035 Y88.1478
G01 X97.9967 Y88.1206
G01 X97.9873 Y88.0943
G01 X97.9753 Y88.0689
G01 X97.9609 Y88.0449
G01 X97.9442 Y88.0224
G01 X97.9254 Y88.0016
G01 X97.9046 Y87.9828
G01 X97.8821 Y87.9661
G01 X97.8581 Y87.9517
G01 X97.8327 Y87.9397
G01 X97.8063 Y87.9303
G01 X97.7792 Y87.9235
G01 X97.7514 Y87.9193
G01 X97.7235 Y87.9180
G01 X97.6955 Y87.9193
G01 X97.6677 Y87.9235
G01 X97.6406 Y87.9303
G01 X97.6142 Y87.9397
G01 X97.5888 Y87.9517
G01 X97.5648 Y87.9661
G01 X97.5423 Y87.9828
G01 X97.5215 Y88.0016
G01 X97.5027 Y88.0224
G01 X97.4860 Y88.0449
G01 X97.4716 Y88.0689
G01 X97.4596 Y88.0943
G01 X97.4502 Y88.1206
G01 X97.4434 Y88.1478
G01 X97.4393 Y88.1755
G01 X97.4379 Y88.2035
G01 X97.4393 Y88.2315
G01 X97.4434 Y88.2592
G01 X97.4502 Y88.2864
G01 X97.4596 Y88.3128
G01 X97.4716 Y88.3381
G01 X97.4860 Y88.3622
G01 X97.5027 Y88.3847
G01 X97.5215 Y88.4055
G01 X97.5423 Y88.4243
G01 X97.5648 Y88.4410
G01 X97.5888 Y88.4554
G01 X97.6142 Y88.4674
G01 X97.6406 Y88.4768
G01 X97.6677 Y88.4836
G01 X97.6955 Y88.4877
G01 X97.7235 Y88.4891
G01 X97.7514 Y88.4877
G01 X97.7792 Y88.4836
G01 X97.8063 Y88.4768
G01 X97.8327 Y88.4674
G01 X97.8581 Y88.4554
G01 X97.8821 Y88.4410
G01 X97.9046 Y88.4243
G01 X97.9254 Y88.4055
G01 X97.9442 Y88.3847
G01 X97.9609 Y88.3622
G01 X97.9753 Y88.3381
G01 X97.9873 Y88.3128
G01 X97.9967 Y88.2864
G01 X98.0035 Y88.2592
G01 X98.0076 Y88.2315
G01 X98.0090 Y88.2035
G00 Z2.0000
G00 X94.8089 Y86.8044
G01 F60.00
G01 Z-2.4000
G01 F120.00
G01 X94.8075 Y86.7755
G01 X94.8034 Y86.7478
G01 X94.7966 Y86.7206
G01 X94.7871 Y86.6942
G01 X94.7752 Y86.6689
G01 X94.7607 Y86.6448
G01 X94.7440 Y86.6223
G01 X94.7252 Y86.6016
G01 X94.7045 Y86.5827
G01 X94.6820 Y86.5660
G01 X94.6579 Y86.5516
G01 X94.6326 Y86.5397
G01 X94.6062 Y86.5302
G01 X94.5790 Y86.5234
G01 X94.5513 Y86.5193
G01 X94.5233 Y86.5179
G01 X94.4953 Y86.5193
G01 X94.4676 Y86.5234
G01 X94.4404 Y86.5302
G01 X94.4140 Y86.5397
G01 X94.3887 Y86.5516
G01 X94.3647 Y86.5660
G01 X94.3421 Y86.5827
G01 X94.3214 Y86.6016
G01 X94.3026 Y86.6223
G01 X94.2859 Y86.6448
G01 X94.2715 Y86.6689
G01 X94.2595 Y86.6942
G01 X94.2500 Y86.7206
G01 X94.2432 Y86.7478
G01 X94.2393 Y86.7745
G01 X94.2379 Y86.8025
G01 X94.2394 Y86.8315
G01 X94.2435 Y86.8592
G01 X94.2503 Y86.8864
G01 X94.2597 Y86.9128
G01 X94.2717 Y86.9381
G01 X94.2861 Y86.9621
G01 X94.3028 Y86.9846
G01 X94.3216 Y87.0054
G01 X94.3424 Y87.0242
G01 X94.3649 Y87.0409
G01 X94.3889 Y87.0553
G01 X94.4143 Y87.0673
G01 X94.4407 Y87.0768
G01 X94.4678 Y87.0836
G01 X94.4956 Y87.0877
G01 X94.5236 Y87.0890
G01 X94.5516 Y87.0877
G01 X94.5793 Y87.0836
G01 X94.6065 Y87.0768
G01 X94.6328 Y87.0673
G01 X94.6582 Y87.0553
G01 X94.6822 Y87.0409
G01 X94.7047 Y87.0242
G01 X94.7255 Y87.0054
G01 X94.7443 Y86.9846
G01 X94.7610 Y86.9621
G01 X94.7754 Y86.9381
G01 X94.7874 Y86.9128
G01 X94.7968 Y86.8864
G01 X94.8036 Y86.8592
G01 X94.8076 Y86.8324
G01 X94.8089 Y86.8044
G00 Z2.0000
G00 X91.3091 Y88.1044
G01 F60.00
G01 Z-2.4000
G01 F120.00
G01 X91.3076 Y88.0755
G01 X91.3035 Y88.0477
G01 X91.2967 Y88.0206
G01 X91.2873 Y87.9942
G01 X91.2753 Y87.9688
G01 X91.2609 Y87.9448
G01 X91.2442 Y87.9223
G01 X91.2254 Y87.9015
G01 X91.2046 Y87.8827
G01 X91.1821 Y87.8660
G01 X91.1581 Y87.8516
G01 X91.1327 Y87.8396
G01 X91.1063 Y87.8302
G01 X91.0792 Y87.8234
G01 X91.0514 Y87.8193
G01 X91.0234 Y87.8179
G01 X90.9954 Y87.8193
G01 X90.9677 Y87.8234
G01 X90.9405 Y87.8302
G01 X90.9142 Y87.8396
G01 X90.8888 Y87.8516
G01 X90.8648 Y87.8660
G01 X90.8423 Y87.8827
G01 X90.8215 Y87.9015
G01 X90.8027 Y87.9223
G01 X90.7860 Y87.9448
G01 X90.7716 Y87.9688
G01 X90.7596 Y87.9942
G01 X90.7502 Y88.0206
G01 X90.7434 Y88.0477
G01 X90.7394 Y88.0745
G01 X90.7381 Y88.1025
G01 X90.7395 Y88.1314
G01 X90.7436 Y88.1592
G01 X90.7504 Y88.1864
G01 X90.7599 Y88.2127
G01 X90.7718 Y88.2381
G01 X90.7863 Y88.2621
G01 X90.8030 Y88.2846
G01 X90.8218 Y88.3054
G01 X90.8425 Y88.3242
G01 X90.8650 Y88.3409
G01 X90.8891 Y88.3553
G01 X90.9144 Y88.3673
G01 X90.9408 Y88.3767
G01 X90.9680 Y88.3835
G01 X90.9957 Y88.3876
G01 X91.0237 Y88.3890
G01 X91.0517 Y88.3876
G01 X91.0794 Y88.3835
G01 X91.1066 Y88.3767
G01 X91.1330 Y88.3673
G01 X91.1583 Y88.3553
G01 X91.1823 Y88.3409
G01 X91.2049 Y88.3242
G01 X91.2256 Y88.3054
G01 X91.2444 Y88.2846
G01 X91.2611 Y88.2621
G01 X91.2755 Y88.2381
G01 X91.2875 Y88.2127
G01 X91.2970 Y88.1864
G01 X91.3038 Y88.1592
G01 X91.3077 Y88.1324
G01 X91.3091 Y88.1044
G00 Z2.0000
G00 X94.8089 Y75.8845
G01 F60.00
G01 Z-2.4000
G01 F120.00
G01 X94.8075 Y75.8555
G01 X94.8034 Y75.8278
G01 X94.7966 Y75.8006
G01 X94.7871 Y75.7742
G01 X94.7752 Y75.7489
G01 X94.7607 Y75.7249
G01 X94.7440 Y75.7024
G01 X94.7252 Y75.6816
G01 X94.7045 Y75.6628
G01 X94.6820 Y75.6461
G01 X94.6579 Y75.6317
G01 X94.6326 Y75.6197
G01 X94.6062 Y75.6102
G01 X94.5790 Y75.6034
G01 X94.5513 Y75.5993
G01 X94.5233 Y75.5980
G01 X94.4953 Y75.5993
G01 X94.4676 Y75.6034
G01 X94.4404 Y75.6102
G01 X94.4140 Y75.6197
G01 X94.3887 Y75.6317
G01 X94.3647 Y75.6461
G01 X94.3421 Y75.6628
G01 X94.3214 Y75.6816
G01 X94.3026 Y75.7024
G01 X94.2859 Y75.7249
G01 X94.2715 Y75.7489
G01 X94.2595 Y75.7742
G01 X94.2500 Y75.8006
G01 X94.2432 Y75.8278
G01 X94.2393 Y75.8546
G01 X94.2379 Y75.8826
G01 X94.2394 Y75.9115
G01 X94.2435 Y75.9392
G01 X94.2503 Y75.9664
G01 X94.2597 Y75.9928
G01 X94.2717 Y76.0181
G01 X94.2861 Y76.0422
G01 X94.3028 Y76.0647
G01 X94.3216 Y76.0854
G01 X94.3424 Y76.1043
G01 X94.3649 Y76.1210
G01 X94.3889 Y76.1354
G01 X94.4143 Y76.1473
G01 X94.4407 Y76.1568
G01 X94.4678 Y76.1636
G01 X94.4956 Y76.1677
G01 X94.5236 Y76.1691
G01 X94.5516 Y76.1677
G01 X94.5793 Y76.1636
G01 X94.6065 Y76.1568
G01 X94.6328 Y76.1473
G01 X94.6582 Y76.1354
G01 X94.6822 Y76.1210
G01 X94.7047 Y76.1043
G01 X94.7255 Y76.0854
G01 X94.7443 Y76.0647
G01 X94.7610 Y76.0422
G01 X94.7754 Y76.0181
G01 X94.7874 Y75.9928
G01 X94.7968 Y75.9664
G01 X94.8036 Y75.9392
G01 X94.8076 Y75.9125
G01 X94.8089 Y75.8845
G00 Z2.0000
G00 X97.9090 Y74.4844
G01 F60.00
G01 Z-2.4000
G01 F120.00
G01 X97.9076 Y74.4555
G01 X97.9035 Y74.4278
G01 X97.8966 Y74.4006
G01 X97.8872 Y74.3742
G01 X97.8752 Y74.3489
G01 X97.8608 Y74.3248
G01 X97.8441 Y74.3023
G01 X97.8253 Y74.2815
G01 X97.8045 Y74.2627
G01 X97.7820 Y74.2460
G01 X97.7580 Y74.2316
G01 X97.7327 Y74.2196
G01 X97.7063 Y74.2102
G01 X97.6791 Y74.2034
G01 X97.6514 Y74.1993
G01 X97.6234 Y74.1979
G01 X97.5954 Y74.1993
G01 X97.5677 Y74.2034
G01 X97.5405 Y74.2102
G01 X97.5141 Y74.2196
G01 X97.4888 Y74.2316
G01 X97.4647 Y74.2460
G01 X97.4422 Y74.2627
G01 X97.4215 Y74.2815
G01 X97.4026 Y74.3023
G01 X97.3859 Y74.3248
G01 X97.3715 Y74.3489
G01 X97.3595 Y74.3742
G01 X97.3501 Y74.4006
G01 X97.3433 Y74.4278
G01 X97.3393 Y74.4545
G01 X97.3380 Y74.4825
G01 X97.3394 Y74.5115
G01 X97.3436 Y74.5392
G01 X97.3504 Y74.5664
G01 X97.3598 Y74.5927
G01 X97.3718 Y74.6181
G01 X97.3862 Y74.6421
G01 X97.4029 Y74.6646
G01 X97.4217 Y74.6854
G01 X97.4425 Y74.7042
G01 X97.4650 Y74.7209
G01 X97.4890 Y74.7353
G01 X97.5143 Y74.7473
G01 X97.5407 Y74.7567
G01 X97.5679 Y74.7635
G01 X97.5956 Y74.7677
G01 X97.6236 Y74.7690
G01 X97.6516 Y74.7677
G01 X97.6793 Y74.7635
G01 X97.7065 Y74.7567
G01 X97.7329 Y74.7473
G01 X97.7582 Y74.7353
G01 X97.7823 Y74.7209
G01 X97.8048 Y74.7042
G01 X97.8256 Y74.6854
G01 X97.8444 Y74.6646
G01 X97.8611 Y74.6421
G01 X97.8755 Y74.6181
G01 X97.8875 Y74.5927
G01 X97.8969 Y74.5664
G01 X97.9037 Y74.5392
G01 X97.9077 Y74.5124
G01 X97.9090 Y74.4844
G00 Z2.0000
G00 X99.4091 Y71.1835
G01 F60.00
G01 Z-2.4000
G01 F120.00
G01 X99.4077 Y71.1555
G01 X99.4036 Y71.1278
G01 X99.3968 Y71.1006
G01 X99.3873 Y71.0742
G01 X99.3753 Y71.0489
G01 X99.3609 Y71.0248
G01 X99.3442 Y71.0023
G01 X99.3254 Y70.9816
G01 X99.3047 Y70.9628
G01 X99.2822 Y70.9461
G01 X99.2581 Y70.9317
G01 X99.2328 Y70.9197
G01 X99.2064 Y70.9102
G01 X99.1792 Y70.9034
G01 X99.1515 Y70.8993
G01 X99.1235 Y70.8979
G01 X99.0955 Y70.8993
G01 X99.0678 Y70.9034
G01 X99.0406 Y70.9102
G01 X99.0142 Y70.9197
G01 X98.9889 Y70.9317
G01 X98.9648 Y70.9461
G01 X98.9423 Y70.9628
G01 X98.9216 Y70.9816
G01 X98.9028 Y71.0023
G01 X98.8861 Y71.0248
G01 X98.8717 Y71.0489
G01 X98.8597 Y71.0742
G01 X98.8502 Y71.1006
G01 X98.8434 Y71.1278
G01 X98.8393 Y71.1555
G01 X98.8379 Y71.1835
G01 X98.8393 Y71.2115
G01 X98.8434 Y71.2392
G01 X98.8502 Y71.2664
G01 X98.8597 Y71.2928
G01 X98.8717 Y71.3181
G01 X98.8861 Y71.3422
G01 X98.9028 Y71.3647
G01 X98.9216 Y71.3854
G01 X98.9423 Y71.4042
G01 X98.9648 Y71.4209
G01 X98.9889 Y71.4353
G01 X99.0142 Y71.4473
G01 X99.0406 Y71.4568
G01 X99.0678 Y71.4636
G01 X99.0955 Y71.4677
G01 X99.1235 Y71.4691
G01 X99.1515 Y71.4677
G01 X99.1792 Y71.4636
G01 X99.2064 Y71.4568
G01 X99.2328 Y71.4473
G01 X99.2581 Y71.4353
G01 X99.2822 Y71.4209
G01 X99.3047 Y71.4042
G01 X99.3254 Y71.3854
G01 X99.3442 Y71.3647
G01 X99.3609 Y71.3422
G01 X99.3753 Y71.3181
G01 X99.3873 Y71.2928
G01 X99.3968 Y71.2664
G01 X99.4036 Y71.2392
G01 X99.4077 Y71.2115
G01 X99.4091 Y71.1835
G00 Z2.0000
G00 X98.0090 Y67.8835
G01 F60.00
G01 Z-2.4000
G01 F120.00
G01 X98.0076 Y67.8555
G01 X98.0035 Y67.8278
G01 X97.9967 Y67.8006
G01 X97.9873 Y67.7743
G01 X97.9753 Y67.7489
G01 X97.9609 Y67.7249
G01 X97.9442 Y67.7024
G01 X97.9254 Y67.6816
G01 X97.9046 Y67.6628
G01 X97.8821 Y67.6461
G01 X97.8581 Y67.6317
G01 X97.8327 Y67.6197
G01 X97.8063 Y67.6103
G01 X97.7792 Y67.6035
G01 X97.7514 Y67.5993
G01 X97.7235 Y67.5980
G01 X97.6955 Y67.5993
G01 X97.6677 Y67.6035
G01 X97.6406 Y67.6103
G01 X97.6142 Y67.6197
G01 X97.5888 Y67.6317
G01 X97.5648 Y67.6461
G01 X97.5423 Y67.6628
G01 X97.5215 Y67.6816
G01 X97.5027 Y67.7024
G01 X97.4860 Y67.7249
G01 X97.4716 Y67.7489
G01 X97.4596 Y67.7743
G01 X97.4502 Y67.8006
G01 X97.4434 Y67.8278
G01 X97.4393 Y67.8555
G01 X97.4379 Y67.8835
G01 X97.4393 Y67.9115
G01 X97.4434 Y67.9392
G01 X97.4502 Y67.9664
G01 X97.4596 Y67.9928
G01 X97.4716 Y68.0181
G01 X97.4860 Y68.0422
G01 X97.5027 Y68.0647
G01 X97.5215 Y68.0855
G01 X97.5423 Y68.1043
G01 X97.5648 Y68.1210
G01 X97.5888 Y68.1354
G01 X97.6142 Y68.1474
G01 X97.6406 Y68.1568
G01 X97.6677 Y68.1636
G01 X97.6955 Y68.1677
G01 X97.7235 Y68.1691
G01 X97.7514 Y68.1677
G01 X97.7792 Y68.1636
G01 X97.8063 Y68.1568
G01 X97.8327 Y68.1474
G01 X97.8581 Y68.1354
G01 X97.8821 Y68.1210
G01 X97.9046 Y68.1043
G01 X97.9254 Y68.0855
G01 X97.9442 Y68.0647
G01 X97.9609 Y68.0422
G01 X97.9753 Y68.0181
G01 X97.9873 Y67.9928
G01 X97.9967 Y67.9664
G01 X98.0035 Y67.9392
G01 X98.0076 Y67.9115
G01 X98.0090 Y67.8835
G00 Z2.0000
G00 X94.8089 Y66.4844
G01 F60.00
G01 Z-2.4000
G01 F120.00
G01 X94.8075 Y66.4555
G01 X94.8034 Y66.4278
G01 X94.7966 Y66.4006
G01 X94.7871 Y66.3742
G01 X94.7752 Y66.3489
G01 X94.7607 Y66.3248
G01 X94.7440 Y66.3023
G01 X94.7252 Y66.2816
G01 X94.7045 Y66.2627
G01 X94.6820 Y66.2460
G01 X94.6579 Y66.2316
G01 X94.6326 Y66.2197
G01 X94.6062 Y66.2102
G01 X94.5790 Y66.2034
G01 X94.5513 Y66.1993
G01 X94.5233 Y66.1979
G01 X94.4953 Y66.1993
G01 X94.4676 Y66.2034
G01 X94.4404 Y66.2102
G01 X94.4140 Y66.2197
G01 X94.3887 Y66.2316
G01 X94.3647 Y66.2460
G01 X94.3421 Y66.2627
G01 X94.3214 Y66.2816
G01 X94.3026 Y66.3023
G01 X94.2859 Y66.3248
G01 X94.2715 Y66.3489
G01 X94.2595 Y66.3742
G01 X94.2500 Y66.4006
G01 X94.2432 Y66.4278
G01 X94.2393 Y66.4545
G01 X94.2379 Y66.4825
G01 X94.2394 Y66.5115
G01 X94.2435 Y66.5392
G01 X94.2503 Y66.5664
G01 X94.2597 Y66.5928
G01 X94.2717 Y66.6181
G01 X94.2861 Y66.6421
G01 X94.3028 Y66.6646
G01 X94.3216 Y66.6854
G01 X94.3424 Y66.7042
G01 X94.3649 Y66.7209
G01 X94.3889 Y66.7353
G01 X94.4143 Y66.7473
G01 X94.4407 Y66.7568
G01 X94.4678 Y66.7636
G01 X94.4956 Y66.7677
G01 X94.5236 Y66.7690
G01 X94.5516 Y66.7677
G01 X94.5793 Y66.7636
G01 X94.6065 Y66.7568
G01 X94.6328 Y66.7473
G01 X94.6582 Y66.7353
G01 X94.6822 Y66.7209
G01 X94.7047 Y66.7042
G01 X94.7255 Y66.6854
G01 X94.7443 Y66.6646
G01 X94.7610 Y66.6421
G01 X94.7754 Y66.6181
G01 X94.7874 Y66.5928
G01 X94.7968 Y66.5664
G01 X94.8036 Y66.5392
G01 X94.8076 Y66.5124
G01 X94.8089 Y66.4844
G00 Z2.0000
G00 X91.3091 Y67.7844
G01 F60.00
G01 Z-2.4000
G01 F120.00
G01 X91.3076 Y67.7555
G01 X91.3035 Y67.7277
G01 X91.2967 Y67.7006
G01 X91.2873 Y67.6742
G01 X91.2753 Y67.6488
G01 X91.2609 Y67.6248
G01 X91.2442 Y67.6023
G01 X91.2254 Y67.5815
G01 X91.2046 Y67.5627
G01 X91.1821 Y67.5460
G01 X91.1581 Y67.5316
G01 X91.1327 Y67.5196
G01 X91.1063 Y67.5102
G01 X91.0792 Y67.5034
G01 X91.0514 Y67.4993
G01 X91.0234 Y67.4979
G01 X90.9954 Y67.4993
G01 X90.9677 Y67.5034
G01 X90.9405 Y67.5102
G01 X90.9142 Y67.5196
G01 X90.8888 Y67.5316
G01 X90.8648 Y67.5460
G01 X90.8423 Y67.5627
G01 X90.8215 Y67.5815
G01 X90.8027 Y67.6023
G01 X90.7860 Y67.6248
G01 X90.7716 Y67.6488
G01 X90.7596 Y67.6742
G01 X90.7502 Y67.7006
G01 X90.7434 Y67.7277
G01 X90.7394 Y67.7545
G01 X90.7381 Y67.7825
G01 X90.7395 Y67.8114
G01 X90.7436 Y67.8392
G01 X90.7504 Y67.8664
G01 X90.7599 Y67.8927
G01 X90.7718 Y67.9181
G01 X90.7863 Y67.9421
G01 X90.8030 Y67.9646
G01 X90.8218 Y67.9854
G01 X90.8425 Y68.0042
G01 X90.8650 Y68.0209
G01 X90.8891 Y68.0353
G01 X90.9144 Y68.0473
G01 X90.9408 Y68.0567
G01 X90.9680 Y68.0635
G01 X90.9957 Y68.0676
G01 X91.0237 Y68.0690
G01 X91.0517 Y68.0676
G01 X91.0794 Y68.0635
G01 X91.1066 Y68.0567
G01 X91.1330 Y68.0473
G01 X91.1583 Y68.0353
G01 X91.1823 Y68.0209
G01 X91.2049 Y68.0042
G01 X91.2256 Y67.9854
G01 X91.2444 Y67.9646
G01 X91.2611 Y67.9421
G01 X91.2755 Y67.9181
G01 X91.2875 Y67.8927
G01 X91.2970 Y67.8664
G01 X91.3038 Y67.8392
G01 X91.3077 Y67.8124
G01 X91.3091 Y67.7844
G00 Z2.0000
G00 X91.3091 Y74.5845
G01 F60.00
G01 Z-2.4000
G01 F120.00
G01 X91.3076 Y74.5556
G01 X91.3035 Y74.5278
G01 X91.2967 Y74.5006
G01 X91.2873 Y74.4743
G01 X91.2753 Y74.4489
G01 X91.2609 Y74.4249
G01 X91.2442 Y74.4024
G01 X91.2254 Y74.3816
G01 X91.2046 Y74.3628
G01 X91.1821 Y74.3461
G01 X91.1581 Y74.3317
G01 X91.1327 Y74.3197
G01 X91.1063 Y74.3103
G01 X91.0792 Y74.3035
G01 X91.0514 Y74.2994
G01 X91.0234 Y74.2980
G01 X90.9954 Y74.2994
G01 X90.9677 Y74.3035
G01 X90.9405 Y74.3103
G01 X90.9142 Y74.3197
G01 X90.8888 Y74.3317
G01 X90.8648 Y74.3461
G01 X90.8423 Y74.3628
G01 X90.8215 Y74.3816
G01 X90.8027 Y74.4024
G01 X90.7860 Y74.4249
G01 X90.7716 Y74.4489
G01 X90.7596 Y74.4743
G01 X90.7502 Y74.5006
G01 X90.7434 Y74.5278
G01 X90.7394 Y74.5546
G01 X90.7381 Y74.5826
G01 X90.7395 Y74.6115
G01 X90.7436 Y74.6393
G01 X90.7504 Y74.6664
G01 X90.7599 Y74.6928
G01 X90.7718 Y74.7182
G01 X90.7863 Y74.7422
G01 X90.8030 Y74.7647
G01 X90.8218 Y74.7855
G01 X90.8425 Y74.8043
G01 X90.8650 Y74.8210
G01 X90.8891 Y74.8354
G01 X90.9144 Y74.8474
G01 X90.9408 Y74.8568
G01 X90.9680 Y74.8636
G01 X90.9957 Y74.8677
G01 X91.0237 Y74.8691
G01 X91.0517 Y74.8677
G01 X91.0794 Y74.8636
G01 X91.1066 Y74.8568
G01 X91.1330 Y74.8474
G01 X91.1583 Y74.8354
G01 X91.1823 Y74.8210
G01 X91.2049 Y74.8043
G01 X91.2256 Y74.7855
G01 X91.2444 Y74.7647
G01 X91.2611 Y74.7422
G01 X91.2755 Y74.7182
G01 X91.2875 Y74.6928
G01 X91.2970 Y74.6664
G01 X91.3038 Y74.6393
G01 X91.3077 Y74.6125
G01 X91.3091 Y74.5845
G00 Z2.0000
G00 X157.0322 Y85.7762
G01 F60.00
G01 Z-2.4000
G01 F120.00
G01 X157.0896 Y85.6988
G01 X157.1391 Y85.6162
G01 X157.1803 Y85.5291
G01 X157.2128 Y85.4384
G01 X157.2362 Y85.3450
G01 X157.2503 Y85.2497
G01 X157.2550 Y85.1535
G01 X157.2503 Y85.0573
G01 X157.2362 Y84.9620
G01 X157.2128 Y84.8686
G01 X157.1803 Y84.7779
G01 X157.1391 Y84.6908
G01 X157.0896 Y84.6082
G01 X157.0322 Y84.5308
G01 X156.9676 Y84.4594
G01 X156.8962 Y84.3948
G01 X156.8188 Y84.3374
G01 X156.7362 Y84.2879
G01 X156.6491 Y84.2467
G01 X156.5584 Y84.2142
G01 X156.4650 Y84.1908
G01 X156.3697 Y84.1767
G01 X156.2735 Y84.1720
G01 X156.1773 Y84.1767
G01 X156.0820 Y84.1908
G01 X155.9886 Y84.2142
G01 X155.8979 Y84.2467
G01 X155.8108 Y84.2879
G01 X155.7282 Y84.3374
G01 X155.6508 Y84.3948
G01 X155.5794 Y84.4594
G01 X155.5148 Y84.5308
G01 X155.4574 Y84.6082
G01 X155.4079 Y84.6908
G01 X155.3667 Y84.7779
G01 X155.3342 Y84.8686
G01 X155.3108 Y84.9620
G01 X155.2967 Y85.0573
G01 X155.2920 Y85.1535
G01 X155.2967 Y85.2497
G01 X155.3108 Y85.3450
G01 X155.3342 Y85.4384
G01 X155.3667 Y85.5291
G01 X155.4079 Y85.6162
G01 X155.4574 Y85.6988
G01 X155.5148 Y85.7762
G01 X155.5794 Y85.8476
G01 X155.6508 Y85.9122
G01 X155.7282 Y85.9696
G01 X155.8108 Y86.0191
G01 X155.8979 Y86.0603
G01 X155.9886 Y86.0928
G01 X156.0820 Y86.1162
G01 X156.1773 Y86.1303
G01 X156.2735 Y86.1350
G01 X156.3697 Y86.1303
G01 X156.4650 Y86.1162
G01 X156.5584 Y86.0928
G01 X156.6491 Y86.0603
G01 X156.7362 Y86.0191
G01 X156.8188 Y85.9696
G01 X156.8962 Y85.9122
G01 X156.9676 Y85.8476
G01 X157.0322 Y85.7762
G00 Z2.0000
G00 X157.0322 Y7.0362
G01 F60.00
G01 Z-2.4000
G01 F120.00
G01 X157.0896 Y6.9588
G01 X157.1391 Y6.8762
G01 X157.1803 Y6.7891
G01 X157.2128 Y6.6984
G01 X157.2362 Y6.6050
G01 X157.2503 Y6.5097
G01 X157.2550 Y6.4135
G01 X157.2503 Y6.3173
G01 X157.2362 Y6.2220
G01 X157.2128 Y6.1286
G01 X157.1803 Y6.0379
G01 X157.1391 Y5.9508
G01 X157.0896 Y5.8682
G01 X157.0322 Y5.7908
G01 X156.9676 Y5.7194
G01 X156.8962 Y5.6548
G01 X156.8188 Y5.5974
G01 X156.7362 Y5.5479
G01 X156.6491 Y5.5067
G01 X156.5584 Y5.4742
G01 X156.4650 Y5.4508
G01 X156.3697 Y5.4367
G01 X156.2735 Y5.4320
G01 X156.1773 Y5.4367
G01 X156.0820 Y5.4508
G01 X155.9886 Y5.4742
G01 X155.8979 Y5.5067
G01 X155.8108 Y5.5479
G01 X155.7282 Y5.5974
G01 X155.6508 Y5.6548
G01 X155.5794 Y5.7194
G01 X155.5148 Y5.7908
G01 X155.4574 Y5.8682
G01 X155.4079 Y5.9508
G01 X155.3667 Y6.0379
G01 X155.3342 Y6.1286
G01 X155.3108 Y6.2220
G01 X155.2967 Y6.3173
G01 X155.2920 Y6.4135
G01 X155.2967 Y6.5097
G01 X155.3108 Y6.6050
G01 X155.3342 Y6.6984
G01 X155.3667 Y6.7891
G01 X155.4079 Y6.8762
G01 X155.4574 Y6.9588
G01 X155.5148 Y7.0362
G01 X155.5794 Y7.1076
G01 X155.6508 Y7.1722
G01 X155.7282 Y7.2296
G01 X155.8108 Y7.2791
G01 X155.8979 Y7.3203
G01 X155.9886 Y7.3528
G01 X156.0820 Y7.3762
G01 X156.1773 Y7.3903
G01 X156.2735 Y7.3950
G01 X156.3697 Y7.3903
G01 X156.4650 Y7.3762
G01 X156.5584 Y7.3528
G01 X156.6491 Y7.3203
G01 X156.7362 Y7.2791
G01 X156.8188 Y7.2296
G01 X156.8962 Y7.1722
G01 X156.9676 Y7.1076
G01 X157.0322 Y7.0362
G00 Z2.0000
M05
G00 Z2.0000
G00 Z15.00


