(G-CODE GENERATED BY FLATCAM v8.994 - www.flatcam.org - Version Date: 2020/11/7)

(Name: Clock - Bottom Copper.gbr_iso_combined_cnc)
(Type: G-code from Geometry)
(Units: MM)

(Created on Wednesday, 04 December 2024 at 10:09)

(This preprocessor is the default preprocessor used by FlatCAM.)
(It is made to work with MACH3 compatible motion controllers.)

(TOOL DIAMETER: 0.331 mm)
(Feedrate_XY: 320.0 mm/min)
(Feedrate_Z: 60.0 mm/min)
(Feedrate rapids 1500.0 mm/min)

(Z_Cut: -0.2001 mm)
(Z_Move: 2.0 mm)
(Z Start: None mm)
(Z End: 15.0 mm)
(X,Y End: None mm)
(Steps per circle: 64)
(Preprocessor Geometry: default)

(X range:    3.5072 ...  225.2448  mm)
(Y range:    3.4822 ...   90.5998  mm)

(Spindle Speed: 0.0 RPM)
G21
G90
G94

G01 F320.00
G00 Z15.0000

M03
G01 F320.00
G00 X6.1856 Y3.8820
G01 F60.00
G01 Z-0.2001
G01 F320.00
G01 X16.8014 Y3.8820
G01 X16.8200 Y3.8669
G01 X16.8349 Y3.8556
G01 X16.9039 Y3.8045
G01 X16.9344 Y3.7829
G01 X16.9660 Y3.7630
G01 X17.0396 Y3.7188
G01 X17.0721 Y3.7004
G01 X17.1055 Y3.6836
G01 X17.1831 Y3.6469
G01 X17.2173 Y3.6317
G01 X17.2522 Y3.6183
G01 X17.3507 Y3.5833
G01 X17.3864 Y3.5724
G01 X17.4045 Y3.5677
G01 X17.4878 Y3.5468
G01 X17.5243 Y3.5386
G01 X17.5611 Y3.5322
G01 X17.6645 Y3.5171
G01 X17.6831 Y3.5151
G01 X17.7204 Y3.5123
G01 X17.8248 Y3.5074
G01 X17.8622 Y3.5074
G01 X17.9666 Y3.5123
G01 X18.0039 Y3.5151
G01 X18.0410 Y3.5196
G01 X18.1444 Y3.5352
G01 X18.1810 Y3.5425
G01 X18.2825 Y3.5677
G01 X18.3185 Y3.5776
G01 X18.3540 Y3.5894
G01 X18.4348 Y3.6183
G01 X18.4697 Y3.6317
G01 X18.5039 Y3.6469
G01 X18.5983 Y3.6918
G01 X18.6149 Y3.7004
G01 X18.6474 Y3.7188
G01 X18.7210 Y3.7630
G01 X18.7526 Y3.7829
G01 X18.7831 Y3.8045
G01 X18.8521 Y3.8556
G01 X18.8816 Y3.8786
G01 X18.9099 Y3.9030
G01 X18.9735 Y3.9607
G01 X19.0006 Y3.9864
G01 X19.0263 Y4.0135
G01 X19.0840 Y4.0771
G01 X19.1084 Y4.1054
G01 X19.1201 Y4.1200
G01 X19.1825 Y4.2039
G01 X19.2041 Y4.2344
G01 X19.2240 Y4.2660
G01 X19.2682 Y4.3396
G01 X19.2866 Y4.3721
G01 X19.3034 Y4.4055
G01 X19.3401 Y4.4831
G01 X19.3553 Y4.5173
G01 X19.3687 Y4.5522
G01 X19.4037 Y4.6507
G01 X19.4146 Y4.6864
G01 X19.4402 Y4.7878
G01 X19.4484 Y4.8243
G01 X19.4548 Y4.8611
G01 X19.4674 Y4.9460
G01 X19.4719 Y4.9831
G01 X19.4736 Y5.0017
G01 X19.4789 Y5.1061
G01 X19.4798 Y5.1435
G01 X19.4789 Y5.1809
G01 X19.4747 Y5.2666
G01 X19.4719 Y5.3039
G01 X19.4674 Y5.3410
G01 X19.4548 Y5.4259
G01 X19.4484 Y5.4627
G01 X19.4445 Y5.4810
G01 X19.4193 Y5.5825
G01 X19.4094 Y5.6185
G01 X19.3976 Y5.6540
G01 X19.3622 Y5.7523
G01 X19.3553 Y5.7697
G01 X19.3401 Y5.8039
G01 X19.3034 Y5.8815
G01 X19.2866 Y5.9149
G01 X19.2682 Y5.9474
G01 X19.2240 Y6.0210
G01 X19.2041 Y6.0526
G01 X19.1825 Y6.0831
G01 X19.1314 Y6.1521
G01 X19.1084 Y6.1816
G01 X19.0840 Y6.2099
G01 X19.0263 Y6.2735
G01 X19.0006 Y6.3006
G01 X18.9735 Y6.3263
G01 X18.9099 Y6.3840
G01 X18.8959 Y6.3964
G01 X18.8752 Y6.4135
G01 X18.8959 Y6.4306
G01 X18.9099 Y6.4430
G01 X18.9735 Y6.5007
G01 X19.0006 Y6.5264
G01 X19.0263 Y6.5535
G01 X19.0964 Y6.6311
G01 X19.1084 Y6.6454
G01 X19.1314 Y6.6749
G01 X19.1825 Y6.7439
G01 X19.2041 Y6.7744
G01 X19.2240 Y6.8060
G01 X19.2682 Y6.8796
G01 X19.2866 Y6.9121
G01 X19.2952 Y6.9287
G01 X19.3401 Y7.0231
G01 X19.3553 Y7.0573
G01 X19.3687 Y7.0922
G01 X19.4037 Y7.1907
G01 X19.4094 Y7.2085
G01 X19.4193 Y7.2445
G01 X19.4402 Y7.3278
G01 X19.4484 Y7.3643
G01 X19.4548 Y7.4011
G01 X19.4674 Y7.4860
G01 X19.4699 Y7.5045
G01 X19.4736 Y7.5417
G01 X19.4789 Y7.6461
G01 X19.4798 Y7.6835
G01 X19.4789 Y7.7209
G01 X19.4747 Y7.8066
G01 X19.4719 Y7.8439
G01 X19.4699 Y7.8625
G01 X19.4548 Y7.9659
G01 X19.4484 Y8.0027
G01 X19.4402 Y8.0392
G01 X19.4193 Y8.1225
G01 X19.4094 Y8.1585
G01 X19.3976 Y8.1940
G01 X19.3687 Y8.2748
G01 X19.3553 Y8.3097
G01 X19.3401 Y8.3439
G01 X19.3034 Y8.4215
G01 X19.2866 Y8.4549
G01 X19.2682 Y8.4874
G01 X19.2240 Y8.5610
G01 X19.2041 Y8.5926
G01 X19.1825 Y8.6231
G01 X19.1314 Y8.6921
G01 X19.1084 Y8.7216
G01 X19.0840 Y8.7499
G01 X19.0263 Y8.8135
G01 X19.0006 Y8.8406
G01 X18.9735 Y8.8663
G01 X18.9099 Y8.9240
G01 X18.8959 Y8.9364
G01 X18.8752 Y8.9535
G01 X18.8959 Y8.9706
G01 X18.9099 Y8.9830
G01 X18.9735 Y9.0407
G01 X19.0006 Y9.0664
G01 X19.0263 Y9.0935
G01 X19.0964 Y9.1711
G01 X19.1084 Y9.1854
G01 X19.1314 Y9.2149
G01 X19.1825 Y9.2839
G01 X19.2041 Y9.3144
G01 X19.2240 Y9.3460
G01 X19.2682 Y9.4196
G01 X19.2776 Y9.4358
G01 X19.2952 Y9.4687
G01 X19.3401 Y9.5631
G01 X19.3553 Y9.5973
G01 X19.3687 Y9.6322
G01 X19.3976 Y9.7130
G01 X19.4094 Y9.7485
G01 X19.4146 Y9.7664
G01 X19.4445 Y9.8860
G01 X19.4518 Y9.9226
G01 X19.4548 Y9.9411
G01 X19.4674 Y10.0260
G01 X19.4719 Y10.0631
G01 X19.4747 Y10.1004
G01 X19.4789 Y10.1861
G01 X19.4796 Y10.2048
G01 X19.4796 Y10.2422
G01 X19.4736 Y10.3653
G01 X19.4719 Y10.3839
G01 X19.4674 Y10.4210
G01 X19.4548 Y10.5059
G01 X19.4484 Y10.5427
G01 X19.4402 Y10.5792
G01 X19.4193 Y10.6625
G01 X19.4094 Y10.6985
G01 X19.3976 Y10.7340
G01 X19.3687 Y10.8148
G01 X19.3553 Y10.8497
G01 X19.3401 Y10.8839
G01 X19.3034 Y10.9615
G01 X19.2866 Y10.9949
G01 X19.2682 Y11.0274
G01 X19.2240 Y11.1010
G01 X19.2041 Y11.1326
G01 X19.1825 Y11.1631
G01 X19.1314 Y11.2321
G01 X19.1084 Y11.2616
G01 X19.0840 Y11.2899
G01 X19.0263 Y11.3535
G01 X19.0006 Y11.3806
G01 X18.9735 Y11.4063
G01 X18.9099 Y11.4640
G01 X18.8959 Y11.4764
G01 X18.8752 Y11.4935
G01 X18.8959 Y11.5106
G01 X18.9099 Y11.5230
G01 X18.9735 Y11.5807
G01 X19.0006 Y11.6064
G01 X19.0263 Y11.6335
G01 X19.0964 Y11.7111
G01 X19.1201 Y11.7400
G01 X19.1314 Y11.7549
G01 X19.1825 Y11.8239
G01 X19.2041 Y11.8544
G01 X19.2240 Y11.8860
G01 X19.2682 Y11.9596
G01 X19.2866 Y11.9921
G01 X19.2952 Y12.0087
G01 X19.3479 Y12.1201
G01 X19.3553 Y12.1373
G01 X19.3687 Y12.1722
G01 X19.3976 Y12.2530
G01 X19.4094 Y12.2885
G01 X19.4193 Y12.3245
G01 X19.4402 Y12.4078
G01 X19.4484 Y12.4443
G01 X19.4518 Y12.4626
G01 X19.4699 Y12.5845
G01 X19.4719 Y12.6031
G01 X19.4747 Y12.6404
G01 X19.4789 Y12.7261
G01 X19.4798 Y12.7635
G01 X19.4789 Y12.8009
G01 X19.4747 Y12.8866
G01 X19.4719 Y12.9239
G01 X19.4699 Y12.9425
G01 X19.4518 Y13.0644
G01 X19.4484 Y13.0827
G01 X19.4402 Y13.1192
G01 X19.4193 Y13.2025
G01 X19.4094 Y13.2385
G01 X19.3976 Y13.2740
G01 X19.3687 Y13.3548
G01 X19.3553 Y13.3897
G01 X19.3401 Y13.4239
G01 X19.3034 Y13.5015
G01 X19.2866 Y13.5349
G01 X19.2682 Y13.5674
G01 X19.2240 Y13.6410
G01 X19.2041 Y13.6726
G01 X19.1825 Y13.7031
G01 X19.1314 Y13.7721
G01 X19.1084 Y13.8016
G01 X19.0840 Y13.8299
G01 X19.0263 Y13.8935
G01 X19.0006 Y13.9206
G01 X18.9735 Y13.9463
G01 X18.9099 Y14.0040
G01 X18.8959 Y14.0164
G01 X18.8752 Y14.0335
G01 X18.8959 Y14.0506
G01 X18.9099 Y14.0630
G01 X18.9735 Y14.1207
G01 X19.0006 Y14.1464
G01 X19.0263 Y14.1735
G01 X19.0840 Y14.2371
G01 X19.0964 Y14.2511
G01 X19.1201 Y14.2800
G01 X19.1935 Y14.3790
G01 X19.2041 Y14.3944
G01 X19.2240 Y14.4260
G01 X19.2682 Y14.4996
G01 X19.2866 Y14.5321
G01 X19.3034 Y14.5655
G01 X19.3401 Y14.6431
G01 X19.3479 Y14.6601
G01 X19.3622 Y14.6947
G01 X19.4037 Y14.8107
G01 X19.4146 Y14.8464
G01 X19.4193 Y14.8645
G01 X19.4402 Y14.9478
G01 X19.4484 Y14.9843
G01 X19.4548 Y15.0211
G01 X19.4674 Y15.1060
G01 X19.4699 Y15.1245
G01 X19.4736 Y15.1617
G01 X19.4796 Y15.2848
G01 X19.4796 Y15.3222
G01 X19.4789 Y15.3409
G01 X19.4747 Y15.4266
G01 X19.4719 Y15.4639
G01 X19.4674 Y15.5010
G01 X19.4548 Y15.5859
G01 X19.4484 Y15.6227
G01 X19.4445 Y15.6410
G01 X19.4193 Y15.7425
G01 X19.4094 Y15.7785
G01 X19.4037 Y15.7963
G01 X19.3622 Y15.9123
G01 X19.3479 Y15.9469
G01 X19.3401 Y15.9639
G01 X19.2952 Y16.0583
G01 X19.2866 Y16.0749
G01 X19.2682 Y16.1074
G01 X19.2240 Y16.1810
G01 X19.2041 Y16.2126
G01 X19.1825 Y16.2431
G01 X19.1314 Y16.3121
G01 X19.1084 Y16.3416
G01 X19.0840 Y16.3699
G01 X19.0263 Y16.4335
G01 X19.0006 Y16.4606
G01 X18.9735 Y16.4863
G01 X18.9099 Y16.5440
G01 X18.8959 Y16.5564
G01 X18.8752 Y16.5735
G01 X18.8959 Y16.5906
G01 X18.9099 Y16.6030
G01 X18.9735 Y16.6607
G01 X19.0006 Y16.6864
G01 X19.0263 Y16.7135
G01 X19.0840 Y16.7771
G01 X19.0964 Y16.7911
G01 X19.1201 Y16.8200
G01 X19.1935 Y16.9190
G01 X19.2041 Y16.9344
G01 X19.2240 Y16.9660
G01 X19.2682 Y17.0396
G01 X19.2866 Y17.0721
G01 X19.3034 Y17.1055
G01 X19.3401 Y17.1831
G01 X19.3479 Y17.2001
G01 X19.3622 Y17.2347
G01 X19.4037 Y17.3507
G01 X19.4146 Y17.3864
G01 X19.4193 Y17.4045
G01 X19.4402 Y17.4878
G01 X19.4484 Y17.5243
G01 X19.4548 Y17.5611
G01 X19.4674 Y17.6460
G01 X19.4699 Y17.6645
G01 X19.4736 Y17.7017
G01 X19.4796 Y17.8248
G01 X19.4796 Y17.8622
G01 X19.4789 Y17.8809
G01 X19.4747 Y17.9666
G01 X19.4719 Y18.0039
G01 X19.4674 Y18.0410
G01 X19.4548 Y18.1259
G01 X19.4484 Y18.1627
G01 X19.4445 Y18.1810
G01 X19.4193 Y18.2825
G01 X19.4094 Y18.3185
G01 X19.4037 Y18.3363
G01 X19.3622 Y18.4523
G01 X19.3553 Y18.4697
G01 X19.3401 Y18.5039
G01 X19.2952 Y18.5983
G01 X19.2866 Y18.6149
G01 X19.2682 Y18.6474
G01 X19.2240 Y18.7210
G01 X19.2041 Y18.7526
G01 X19.1825 Y18.7831
G01 X19.1314 Y18.8521
G01 X19.1084 Y18.8816
G01 X19.0840 Y18.9099
G01 X19.0263 Y18.9735
G01 X19.0006 Y19.0006
G01 X18.9735 Y19.0263
G01 X18.9099 Y19.0840
G01 X18.8959 Y19.0964
G01 X18.8752 Y19.1135
G01 X18.8959 Y19.1306
G01 X18.9099 Y19.1430
G01 X18.9735 Y19.2007
G01 X19.0006 Y19.2264
G01 X19.0263 Y19.2535
G01 X19.0840 Y19.3171
G01 X19.0964 Y19.3311
G01 X19.1201 Y19.3600
G01 X19.1935 Y19.4590
G01 X19.2041 Y19.4744
G01 X19.2240 Y19.5060
G01 X19.2682 Y19.5796
G01 X19.2866 Y19.6121
G01 X19.3034 Y19.6455
G01 X19.3401 Y19.7231
G01 X19.3553 Y19.7573
G01 X19.3622 Y19.7747
G01 X19.4037 Y19.8907
G01 X19.4146 Y19.9264
G01 X19.4193 Y19.9445
G01 X19.4402 Y20.0278
G01 X19.4484 Y20.0643
G01 X19.4548 Y20.1011
G01 X19.4674 Y20.1860
G01 X19.4719 Y20.2231
G01 X19.4747 Y20.2604
G01 X19.4789 Y20.3461
G01 X19.4796 Y20.3648
G01 X19.4796 Y20.4022
G01 X19.4747 Y20.5066
G01 X19.4719 Y20.5439
G01 X19.4699 Y20.5625
G01 X19.4518 Y20.6844
G01 X19.4484 Y20.7027
G01 X19.4402 Y20.7392
G01 X19.4193 Y20.8225
G01 X19.4094 Y20.8585
G01 X19.3976 Y20.8940
G01 X19.3687 Y20.9748
G01 X19.3622 Y20.9923
G01 X19.3479 Y21.0269
G01 X19.3034 Y21.1215
G01 X19.2866 Y21.1549
G01 X19.2776 Y21.1712
G01 X19.2142 Y21.2769
G01 X19.2041 Y21.2926
G01 X19.1825 Y21.3231
G01 X19.1314 Y21.3921
G01 X19.1084 Y21.4216
G01 X19.0840 Y21.4499
G01 X19.0263 Y21.5135
G01 X19.0006 Y21.5406
G01 X18.9735 Y21.5663
G01 X18.9099 Y21.6240
G01 X18.8959 Y21.6364
G01 X18.8752 Y21.6535
G01 X18.8959 Y21.6706
G01 X18.9099 Y21.6830
G01 X18.9735 Y21.7407
G01 X19.0006 Y21.7664
G01 X19.0263 Y21.7935
G01 X19.0840 Y21.8571
G01 X19.1084 Y21.8854
G01 X19.1201 Y21.9000
G01 X19.1935 Y21.9990
G01 X19.2041 Y22.0144
G01 X19.2240 Y22.0460
G01 X19.2682 Y22.1196
G01 X19.2866 Y22.1521
G01 X19.3034 Y22.1855
G01 X19.3401 Y22.2631
G01 X19.3553 Y22.2973
G01 X19.3622 Y22.3147
G01 X19.4037 Y22.4307
G01 X19.4094 Y22.4485
G01 X19.4193 Y22.4845
G01 X19.4402 Y22.5678
G01 X19.4484 Y22.6043
G01 X19.4548 Y22.6411
G01 X19.4674 Y22.7260
G01 X19.4719 Y22.7631
G01 X19.4747 Y22.8004
G01 X19.4789 Y22.8861
G01 X19.4796 Y22.9048
G01 X19.4796 Y22.9422
G01 X19.4747 Y23.0466
G01 X19.4719 Y23.0839
G01 X19.4699 Y23.1025
G01 X19.4518 Y23.2244
G01 X19.4484 Y23.2427
G01 X19.4402 Y23.2792
G01 X19.4193 Y23.3625
G01 X19.4094 Y23.3985
G01 X19.3976 Y23.4340
G01 X19.3687 Y23.5148
G01 X19.3622 Y23.5323
G01 X19.3479 Y23.5669
G01 X19.3034 Y23.6615
G01 X19.2866 Y23.6949
G01 X19.2776 Y23.7112
G01 X19.2142 Y23.8169
G01 X19.1935 Y23.8480
G01 X19.1825 Y23.8631
G01 X19.1314 Y23.9321
G01 X19.1084 Y23.9616
G01 X19.0840 Y23.9899
G01 X19.0263 Y24.0535
G01 X19.0006 Y24.0806
G01 X18.9735 Y24.1063
G01 X18.9099 Y24.1640
G01 X18.8959 Y24.1764
G01 X18.8752 Y24.1935
G01 X18.8959 Y24.2106
G01 X18.9099 Y24.2230
G01 X18.9735 Y24.2807
G01 X19.0006 Y24.3064
G01 X19.0263 Y24.3335
G01 X19.0840 Y24.3971
G01 X19.1084 Y24.4254
G01 X19.1201 Y24.4400
G01 X19.1935 Y24.5390
G01 X19.2142 Y24.5701
G01 X19.2240 Y24.5860
G01 X19.2682 Y24.6596
G01 X19.2866 Y24.6921
G01 X19.3034 Y24.7255
G01 X19.3401 Y24.8031
G01 X19.3479 Y24.8201
G01 X19.3622 Y24.8547
G01 X19.4037 Y24.9707
G01 X19.4094 Y24.9885
G01 X19.4193 Y25.0245
G01 X19.4402 Y25.1078
G01 X19.4484 Y25.1443
G01 X19.4548 Y25.1811
G01 X19.4674 Y25.2660
G01 X19.4719 Y25.3031
G01 X19.4747 Y25.3404
G01 X19.4789 Y25.4261
G01 X19.4796 Y25.4448
G01 X19.4796 Y25.4822
G01 X19.4747 Y25.5866
G01 X19.4719 Y25.6239
G01 X19.4699 Y25.6425
G01 X19.4518 Y25.7644
G01 X19.4484 Y25.7827
G01 X19.4402 Y25.8192
G01 X19.4193 Y25.9025
G01 X19.4094 Y25.9385
G01 X19.3976 Y25.9740
G01 X19.3687 Y26.0548
G01 X19.3553 Y26.0897
G01 X19.3479 Y26.1069
G01 X19.3034 Y26.2015
G01 X19.2866 Y26.2349
G01 X19.2776 Y26.2512
G01 X19.2142 Y26.3569
G01 X19.1935 Y26.3880
G01 X19.1825 Y26.4031
G01 X19.1314 Y26.4721
G01 X19.1084 Y26.5016
G01 X19.0840 Y26.5299
G01 X19.0263 Y26.5935
G01 X19.0006 Y26.6206
G01 X18.9735 Y26.6463
G01 X18.9099 Y26.7040
G01 X18.8959 Y26.7164
G01 X18.8752 Y26.7335
G01 X18.8959 Y26.7506
G01 X18.9099 Y26.7630
G01 X18.9735 Y26.8207
G01 X19.0006 Y26.8464
G01 X19.0263 Y26.8735
G01 X19.0840 Y26.9371
G01 X19.0964 Y26.9511
G01 X19.1201 Y26.9800
G01 X19.1935 Y27.0790
G01 X19.2041 Y27.0944
G01 X19.2240 Y27.1260
G01 X19.2682 Y27.1996
G01 X19.2866 Y27.2321
G01 X19.3034 Y27.2655
G01 X19.3401 Y27.3431
G01 X19.3553 Y27.3773
G01 X19.3622 Y27.3947
G01 X19.4037 Y27.5107
G01 X19.4094 Y27.5285
G01 X19.4193 Y27.5645
G01 X19.4402 Y27.6478
G01 X19.4484 Y27.6843
G01 X19.4548 Y27.7211
G01 X19.4674 Y27.8060
G01 X19.4719 Y27.8431
G01 X19.4747 Y27.8804
G01 X19.4789 Y27.9661
G01 X19.4796 Y27.9848
G01 X19.4796 Y28.0222
G01 X19.4747 Y28.1266
G01 X19.4719 Y28.1639
G01 X19.4699 Y28.1825
G01 X19.4518 Y28.3044
G01 X19.4445 Y28.3410
G01 X19.4402 Y28.3592
G01 X19.4193 Y28.4425
G01 X19.4094 Y28.4785
G01 X19.3976 Y28.5140
G01 X19.3687 Y28.5948
G01 X19.3553 Y28.6297
G01 X19.3479 Y28.6469
G01 X19.3034 Y28.7415
G01 X19.2952 Y28.7583
G01 X19.2776 Y28.7912
G01 X19.2142 Y28.8969
G01 X19.1935 Y28.9280
G01 X19.1825 Y28.9431
G01 X19.1314 Y29.0121
G01 X19.1084 Y29.0416
G01 X19.0840 Y29.0699
G01 X19.0263 Y29.1335
G01 X19.0006 Y29.1606
G01 X18.9735 Y29.1863
G01 X18.9099 Y29.2440
G01 X18.8959 Y29.2564
G01 X18.8752 Y29.2735
G01 X18.8959 Y29.2906
G01 X18.9099 Y29.3030
G01 X18.9735 Y29.3607
G01 X19.0006 Y29.3864
G01 X19.0263 Y29.4135
G01 X19.0840 Y29.4771
G01 X19.0964 Y29.4911
G01 X19.1201 Y29.5200
G01 X19.1935 Y29.6190
G01 X19.2142 Y29.6501
G01 X19.2240 Y29.6660
G01 X19.2682 Y29.7396
G01 X19.2866 Y29.7721
G01 X19.3034 Y29.8055
G01 X19.3401 Y29.8831
G01 X19.3553 Y29.9173
G01 X19.3622 Y29.9347
G01 X19.4037 Y30.0507
G01 X19.4094 Y30.0685
G01 X19.4193 Y30.1045
G01 X19.4402 Y30.1878
G01 X19.4484 Y30.2243
G01 X19.4548 Y30.2611
G01 X19.4674 Y30.3460
G01 X19.4719 Y30.3831
G01 X19.4747 Y30.4204
G01 X19.4789 Y30.5061
G01 X19.4796 Y30.5248
G01 X19.4796 Y30.5622
G01 X19.4747 Y30.6666
G01 X19.4736 Y30.6853
G01 X19.4699 Y30.7225
G01 X19.4518 Y30.8444
G01 X19.4445 Y30.8810
G01 X19.4402 Y30.8992
G01 X19.4193 Y30.9825
G01 X19.4094 Y31.0185
G01 X19.3976 Y31.0540
G01 X19.3687 Y31.1348
G01 X19.3622 Y31.1523
G01 X19.3479 Y31.1869
G01 X19.3034 Y31.2815
G01 X19.2866 Y31.3149
G01 X19.2776 Y31.3312
G01 X19.2142 Y31.4369
G01 X19.2041 Y31.4526
G01 X19.1825 Y31.4831
G01 X19.1314 Y31.5521
G01 X19.1084 Y31.5816
G01 X19.0840 Y31.6099
G01 X19.0263 Y31.6735
G01 X19.0006 Y31.7006
G01 X18.9735 Y31.7263
G01 X18.9099 Y31.7840
G01 X18.8959 Y31.7964
G01 X18.8752 Y31.8135
G01 X18.8959 Y31.8306
G01 X18.9099 Y31.8430
G01 X18.9735 Y31.9007
G01 X19.0006 Y31.9264
G01 X19.0263 Y31.9535
G01 X19.0840 Y32.0171
G01 X19.0964 Y32.0311
G01 X19.1201 Y32.0600
G01 X19.1935 Y32.1590
G01 X19.2142 Y32.1901
G01 X19.2240 Y32.2060
G01 X19.2682 Y32.2796
G01 X19.2866 Y32.3121
G01 X19.3034 Y32.3455
G01 X19.3401 Y32.4231
G01 X19.3479 Y32.4401
G01 X19.3622 Y32.4747
G01 X19.4037 Y32.5907
G01 X19.4094 Y32.6085
G01 X19.4193 Y32.6445
G01 X19.4402 Y32.7278
G01 X19.4484 Y32.7643
G01 X19.4548 Y32.8011
G01 X19.4674 Y32.8860
G01 X19.4719 Y32.9231
G01 X19.4747 Y32.9604
G01 X19.4789 Y33.0461
G01 X19.4796 Y33.0648
G01 X19.4796 Y33.1022
G01 X19.4747 Y33.2066
G01 X19.4719 Y33.2439
G01 X19.4699 Y33.2625
G01 X19.4518 Y33.3844
G01 X19.4445 Y33.4210
G01 X19.4402 Y33.4392
G01 X19.4193 Y33.5225
G01 X19.4094 Y33.5585
G01 X19.3976 Y33.5940
G01 X19.3687 Y33.6748
G01 X19.3553 Y33.7097
G01 X19.3479 Y33.7269
G01 X19.3034 Y33.8215
G01 X19.2866 Y33.8549
G01 X19.2776 Y33.8712
G01 X19.2142 Y33.9769
G01 X19.1935 Y34.0080
G01 X19.1825 Y34.0231
G01 X19.1314 Y34.0921
G01 X19.1084 Y34.1216
G01 X19.0840 Y34.1499
G01 X19.0263 Y34.2135
G01 X19.0006 Y34.2406
G01 X18.9735 Y34.2663
G01 X18.9099 Y34.3240
G01 X18.8959 Y34.3364
G01 X18.8752 Y34.3535
G01 X18.8959 Y34.3706
G01 X18.9099 Y34.3830
G01 X18.9735 Y34.4407
G01 X19.0006 Y34.4664
G01 X19.0263 Y34.4935
G01 X19.0840 Y34.5571
G01 X19.0964 Y34.5711
G01 X19.1201 Y34.6000
G01 X19.1935 Y34.6990
G01 X19.2142 Y34.7301
G01 X19.2240 Y34.7460
G01 X19.2682 Y34.8196
G01 X19.2866 Y34.8521
G01 X19.3034 Y34.8855
G01 X19.3401 Y34.9631
G01 X19.3479 Y34.9801
G01 X19.3622 Y35.0147
G01 X19.4037 Y35.1307
G01 X19.4146 Y35.1664
G01 X19.4193 Y35.1845
G01 X19.4402 Y35.2678
G01 X19.4484 Y35.3043
G01 X19.4548 Y35.3411
G01 X19.4674 Y35.4260
G01 X19.4719 Y35.4631
G01 X19.4747 Y35.5004
G01 X19.4789 Y35.5861
G01 X19.4796 Y35.6048
G01 X19.4796 Y35.6422
G01 X19.4747 Y35.7466
G01 X19.4736 Y35.7653
G01 X19.4699 Y35.8025
G01 X19.4518 Y35.9244
G01 X19.4484 Y35.9427
G01 X19.4402 Y35.9792
G01 X19.4193 Y36.0625
G01 X19.4094 Y36.0985
G01 X19.3976 Y36.1340
G01 X19.3687 Y36.2148
G01 X19.3622 Y36.2323
G01 X19.3479 Y36.2669
G01 X19.3034 Y36.3615
G01 X19.2952 Y36.3783
G01 X19.2776 Y36.4112
G01 X19.2142 Y36.5169
G01 X19.2041 Y36.5326
G01 X19.1825 Y36.5631
G01 X19.1314 Y36.6321
G01 X19.1084 Y36.6616
G01 X19.0840 Y36.6899
G01 X19.0263 Y36.7535
G01 X19.0006 Y36.7806
G01 X18.9735 Y36.8063
G01 X18.9099 Y36.8640
G01 X18.8959 Y36.8764
G01 X18.8752 Y36.8935
G01 X18.8959 Y36.9106
G01 X18.9099 Y36.9230
G01 X18.9735 Y36.9807
G01 X19.0006 Y37.0064
G01 X19.0263 Y37.0335
G01 X19.0840 Y37.0971
G01 X19.0964 Y37.1111
G01 X19.1201 Y37.1400
G01 X19.1935 Y37.2390
G01 X19.2142 Y37.2701
G01 X19.2240 Y37.2860
G01 X19.2682 Y37.3596
G01 X19.2866 Y37.3921
G01 X19.3034 Y37.4255
G01 X19.3401 Y37.5031
G01 X19.3553 Y37.5373
G01 X19.3622 Y37.5547
G01 X19.4037 Y37.6707
G01 X19.4094 Y37.6885
G01 X19.4193 Y37.7245
G01 X19.4402 Y37.8078
G01 X19.4484 Y37.8443
G01 X19.4548 Y37.8811
G01 X19.4674 Y37.9660
G01 X19.4719 Y38.0031
G01 X19.4747 Y38.0404
G01 X19.4789 Y38.1261
G01 X19.4796 Y38.1448
G01 X19.4796 Y38.1822
G01 X19.4747 Y38.2866
G01 X19.4719 Y38.3239
G01 X19.4699 Y38.3425
G01 X19.4518 Y38.4644
G01 X19.4484 Y38.4827
G01 X19.4402 Y38.5192
G01 X19.4193 Y38.6025
G01 X19.4094 Y38.6385
G01 X19.3976 Y38.6740
G01 X19.3687 Y38.7548
G01 X19.3622 Y38.7723
G01 X19.3479 Y38.8069
G01 X19.3034 Y38.9015
G01 X19.2866 Y38.9349
G01 X19.2776 Y38.9512
G01 X19.2142 Y39.0569
G01 X19.2041 Y39.0726
G01 X19.1825 Y39.1031
G01 X19.1314 Y39.1721
G01 X19.1084 Y39.2016
G01 X19.0840 Y39.2299
G01 X19.0263 Y39.2935
G01 X19.0006 Y39.3206
G01 X18.9735 Y39.3463
G01 X18.9099 Y39.4040
G01 X18.8959 Y39.4164
G01 X18.8752 Y39.4335
G01 X18.8959 Y39.4506
G01 X18.9099 Y39.4630
G01 X18.9735 Y39.5207
G01 X19.0006 Y39.5464
G01 X19.0263 Y39.5735
G01 X19.0840 Y39.6371
G01 X19.0964 Y39.6511
G01 X19.1201 Y39.6800
G01 X19.1935 Y39.7790
G01 X19.2142 Y39.8101
G01 X19.2240 Y39.8260
G01 X19.2682 Y39.8996
G01 X19.2866 Y39.9321
G01 X19.3034 Y39.9655
G01 X19.3401 Y40.0431
G01 X19.3553 Y40.0773
G01 X19.3622 Y40.0947
G01 X19.4037 Y40.2107
G01 X19.4094 Y40.2285
G01 X19.4193 Y40.2645
G01 X19.4402 Y40.3478
G01 X19.4484 Y40.3843
G01 X19.4548 Y40.4211
G01 X19.4674 Y40.5060
G01 X19.4719 Y40.5431
G01 X19.4747 Y40.5804
G01 X19.4789 Y40.6661
G01 X19.4796 Y40.6848
G01 X19.4796 Y40.7222
G01 X19.4747 Y40.8266
G01 X19.4719 Y40.8639
G01 X19.4699 Y40.8825
G01 X19.4518 Y41.0044
G01 X19.4484 Y41.0227
G01 X19.4402 Y41.0592
G01 X19.4193 Y41.1425
G01 X19.4094 Y41.1785
G01 X19.3976 Y41.2140
G01 X19.3687 Y41.2948
G01 X19.3622 Y41.3123
G01 X19.3479 Y41.3469
G01 X19.3034 Y41.4415
G01 X19.2866 Y41.4749
G01 X19.2776 Y41.4912
G01 X19.2142 Y41.5969
G01 X19.1935 Y41.6280
G01 X19.1825 Y41.6431
G01 X19.1314 Y41.7121
G01 X19.1084 Y41.7416
G01 X19.0840 Y41.7699
G01 X19.0263 Y41.8335
G01 X19.0006 Y41.8606
G01 X18.9735 Y41.8863
G01 X18.9099 Y41.9440
G01 X18.8959 Y41.9564
G01 X18.8752 Y41.9735
G01 X18.8959 Y41.9906
G01 X18.9099 Y42.0030
G01 X18.9735 Y42.0607
G01 X19.0006 Y42.0864
G01 X19.0263 Y42.1135
G01 X19.0840 Y42.1771
G01 X19.0964 Y42.1911
G01 X19.1201 Y42.2200
G01 X19.1935 Y42.3190
G01 X19.2142 Y42.3501
G01 X19.2240 Y42.3660
G01 X19.2682 Y42.4396
G01 X19.2866 Y42.4721
G01 X19.3034 Y42.5055
G01 X19.3401 Y42.5831
G01 X19.3553 Y42.6173
G01 X19.3622 Y42.6347
G01 X19.4037 Y42.7507
G01 X19.4094 Y42.7685
G01 X19.4193 Y42.8045
G01 X19.4402 Y42.8878
G01 X19.4484 Y42.9243
G01 X19.4548 Y42.9611
G01 X19.4674 Y43.0460
G01 X19.4719 Y43.0831
G01 X19.4747 Y43.1204
G01 X19.4789 Y43.2061
G01 X19.4796 Y43.2248
G01 X19.4796 Y43.2622
G01 X19.4747 Y43.3666
G01 X19.4736 Y43.3853
G01 X19.4699 Y43.4225
G01 X19.4518 Y43.5444
G01 X19.4445 Y43.5810
G01 X19.4402 Y43.5992
G01 X19.4193 Y43.6825
G01 X19.4094 Y43.7185
G01 X19.3976 Y43.7540
G01 X19.3687 Y43.8348
G01 X19.3622 Y43.8523
G01 X19.3479 Y43.8869
G01 X19.3034 Y43.9815
G01 X19.2952 Y43.9983
G01 X19.2776 Y44.0312
G01 X19.2142 Y44.1369
G01 X19.2041 Y44.1526
G01 X19.1825 Y44.1831
G01 X19.1314 Y44.2521
G01 X19.1084 Y44.2816
G01 X19.0840 Y44.3099
G01 X19.0263 Y44.3735
G01 X19.0006 Y44.4006
G01 X18.9735 Y44.4263
G01 X18.9099 Y44.4840
G01 X18.8959 Y44.4964
G01 X18.8752 Y44.5135
G01 X18.8959 Y44.5306
G01 X18.9099 Y44.5430
G01 X18.9735 Y44.6007
G01 X19.0006 Y44.6264
G01 X19.0263 Y44.6535
G01 X19.0840 Y44.7171
G01 X19.1084 Y44.7454
G01 X19.1201 Y44.7600
G01 X19.1935 Y44.8590
G01 X19.2142 Y44.8901
G01 X19.2240 Y44.9060
G01 X19.2682 Y44.9796
G01 X19.2866 Y45.0121
G01 X19.3034 Y45.0455
G01 X19.3401 Y45.1231
G01 X19.3479 Y45.1401
G01 X19.3622 Y45.1747
G01 X19.4037 Y45.2907
G01 X19.4094 Y45.3085
G01 X19.4193 Y45.3445
G01 X19.4402 Y45.4278
G01 X19.4484 Y45.4643
G01 X19.4548 Y45.5011
G01 X19.4674 Y45.5860
G01 X19.4719 Y45.6231
G01 X19.4747 Y45.6604
G01 X19.4789 Y45.7461
G01 X19.4796 Y45.7648
G01 X19.4796 Y45.8022
G01 X19.4747 Y45.9066
G01 X19.4719 Y45.9439
G01 X19.4674 Y45.9810
G01 X19.4518 Y46.0844
G01 X19.4445 Y46.1210
G01 X19.4193 Y46.2225
G01 X19.4094 Y46.2585
G01 X19.3976 Y46.2940
G01 X19.3687 Y46.3748
G01 X19.3553 Y46.4097
G01 X19.3401 Y46.4439
G01 X19.3034 Y46.5215
G01 X19.2866 Y46.5549
G01 X19.2682 Y46.5874
G01 X19.2240 Y46.6610
G01 X19.2041 Y46.6926
G01 X19.1825 Y46.7231
G01 X19.1314 Y46.7921
G01 X19.1084 Y46.8216
G01 X19.0840 Y46.8499
G01 X19.0136 Y46.9272
G01 X18.9872 Y46.9536
G01 X18.9099 Y47.0240
G01 X18.8816 Y47.0484
G01 X18.8521 Y47.0714
G01 X18.7831 Y47.1225
G01 X18.7526 Y47.1441
G01 X18.7210 Y47.1640
G01 X18.6474 Y47.2082
G01 X18.6149 Y47.2266
G01 X18.5815 Y47.2434
G01 X18.5039 Y47.2801
G01 X18.4697 Y47.2953
G01 X18.4348 Y47.3087
G01 X18.3363 Y47.3437
G01 X18.3006 Y47.3546
G01 X18.1810 Y47.3845
G01 X18.1627 Y47.3884
G01 X18.1259 Y47.3948
G01 X18.0410 Y47.4074
G01 X18.0039 Y47.4119
G01 X17.9666 Y47.4147
G01 X17.8809 Y47.4189
G01 X17.8622 Y47.4196
G01 X17.8248 Y47.4196
G01 X17.7017 Y47.4136
G01 X17.6831 Y47.4119
G01 X17.6460 Y47.4074
G01 X17.5611 Y47.3948
G01 X17.5243 Y47.3884
G01 X17.4878 Y47.3802
G01 X17.3864 Y47.3546
G01 X17.3507 Y47.3437
G01 X17.3330 Y47.3376
G01 X17.2522 Y47.3087
G01 X17.2173 Y47.2953
G01 X17.1831 Y47.2801
G01 X17.1055 Y47.2434
G01 X17.0721 Y47.2266
G01 X17.0558 Y47.2176
G01 X16.9660 Y47.1640
G01 X16.9344 Y47.1441
G01 X16.9039 Y47.1225
G01 X16.8349 Y47.0714
G01 X16.8200 Y47.0601
G01 X16.8014 Y47.0450
G01 X6.1856 Y47.0450
G01 X6.1670 Y47.0601
G01 X6.1521 Y47.0714
G01 X6.0831 Y47.1225
G01 X6.0526 Y47.1441
G01 X6.0210 Y47.1640
G01 X5.9474 Y47.2082
G01 X5.9149 Y47.2266
G01 X5.8815 Y47.2434
G01 X5.8039 Y47.2801
G01 X5.7697 Y47.2953
G01 X5.7348 Y47.3087
G01 X5.6540 Y47.3376
G01 X5.6185 Y47.3494
G01 X5.5825 Y47.3593
G01 X5.4992 Y47.3802
G01 X5.4627 Y47.3884
G01 X5.4259 Y47.3948
G01 X5.3410 Y47.4074
G01 X5.3039 Y47.4119
G01 X5.2666 Y47.4147
G01 X5.1809 Y47.4189
G01 X5.1435 Y47.4198
G01 X5.1061 Y47.4189
G01 X5.0017 Y47.4136
G01 X4.9645 Y47.4099
G01 X4.8611 Y47.3948
G01 X4.8243 Y47.3884
G01 X4.7878 Y47.3802
G01 X4.7045 Y47.3593
G01 X4.6685 Y47.3494
G01 X4.6330 Y47.3376
G01 X4.5522 Y47.3087
G01 X4.5173 Y47.2953
G01 X4.4831 Y47.2801
G01 X4.3887 Y47.2352
G01 X4.3558 Y47.2176
G01 X4.3396 Y47.2082
G01 X4.2660 Y47.1640
G01 X4.2344 Y47.1441
G01 X4.2039 Y47.1225
G01 X4.1349 Y47.0714
G01 X4.1054 Y47.0484
G01 X4.0771 Y47.0240
G01 X4.0135 Y46.9663
G01 X3.9864 Y46.9406
G01 X3.9607 Y46.9135
G01 X3.9030 Y46.8499
G01 X3.8906 Y46.8359
G01 X3.8669 Y46.8070
G01 X3.8045 Y46.7231
G01 X3.7829 Y46.6926
G01 X3.7630 Y46.6610
G01 X3.7188 Y46.5874
G01 X3.7004 Y46.5549
G01 X3.6836 Y46.5215
G01 X3.6469 Y46.4439
G01 X3.6317 Y46.4097
G01 X3.6183 Y46.3748
G01 X3.5833 Y46.2763
G01 X3.5724 Y46.2406
G01 X3.5468 Y46.1392
G01 X3.5386 Y46.1027
G01 X3.5322 Y46.0659
G01 X3.5196 Y45.9810
G01 X3.5151 Y45.9439
G01 X3.5134 Y45.9253
G01 X3.5081 Y45.8209
G01 X3.5072 Y45.7835
G01 X3.5081 Y45.7461
G01 X3.5123 Y45.6604
G01 X3.5151 Y45.6231
G01 X3.5196 Y45.5860
G01 X3.5322 Y45.5011
G01 X3.5386 Y45.4643
G01 X3.5425 Y45.4460
G01 X3.5677 Y45.3445
G01 X3.5776 Y45.3085
G01 X3.5894 Y45.2730
G01 X3.6248 Y45.1747
G01 X3.6391 Y45.1401
G01 X3.6469 Y45.1231
G01 X3.6836 Y45.0455
G01 X3.7004 Y45.0121
G01 X3.7188 Y44.9796
G01 X3.7630 Y44.9060
G01 X3.7829 Y44.8744
G01 X3.8045 Y44.8439
G01 X3.8556 Y44.7749
G01 X3.8786 Y44.7454
G01 X3.9030 Y44.7171
G01 X3.9607 Y44.6535
G01 X3.9864 Y44.6264
G01 X4.0135 Y44.6007
G01 X4.0771 Y44.5430
G01 X4.0911 Y44.5306
G01 X4.1118 Y44.5135
G01 X4.0911 Y44.4964
G01 X4.0771 Y44.4840
G01 X4.0135 Y44.4263
G01 X3.9864 Y44.4006
G01 X3.9607 Y44.3735
G01 X3.8906 Y44.2959
G01 X3.8669 Y44.2670
G01 X3.8556 Y44.2521
G01 X3.8045 Y44.1831
G01 X3.7829 Y44.1526
G01 X3.7630 Y44.1210
G01 X3.7188 Y44.0474
G01 X3.7094 Y44.0312
G01 X3.6918 Y43.9983
G01 X3.6469 Y43.9039
G01 X3.6317 Y43.8697
G01 X3.6183 Y43.8348
G01 X3.5833 Y43.7363
G01 X3.5724 Y43.7006
G01 X3.5677 Y43.6825
G01 X3.5468 Y43.5992
G01 X3.5386 Y43.5627
G01 X3.5322 Y43.5259
G01 X3.5196 Y43.4410
G01 X3.5151 Y43.4039
G01 X3.5134 Y43.3853
G01 X3.5081 Y43.2809
G01 X3.5072 Y43.2435
G01 X3.5081 Y43.2061
G01 X3.5123 Y43.1204
G01 X3.5134 Y43.1017
G01 X3.5171 Y43.0645
G01 X3.5322 Y42.9611
G01 X3.5386 Y42.9243
G01 X3.5468 Y42.8878
G01 X3.5677 Y42.8045
G01 X3.5776 Y42.7685
G01 X3.5894 Y42.7330
G01 X3.6183 Y42.6522
G01 X3.6317 Y42.6173
G01 X3.6469 Y42.5831
G01 X3.6836 Y42.5055
G01 X3.7004 Y42.4721
G01 X3.7188 Y42.4396
G01 X3.7630 Y42.3660
G01 X3.7829 Y42.3344
G01 X3.8045 Y42.3039
G01 X3.8556 Y42.2349
G01 X3.8786 Y42.2054
G01 X3.9030 Y42.1771
G01 X3.9607 Y42.1135
G01 X3.9864 Y42.0864
G01 X4.0135 Y42.0607
G01 X4.0771 Y42.0030
G01 X4.0911 Y41.9906
G01 X4.1118 Y41.9735
G01 X4.0911 Y41.9564
G01 X4.0771 Y41.9440
G01 X4.0135 Y41.8863
G01 X3.9864 Y41.8606
G01 X3.9607 Y41.8335
G01 X3.8906 Y41.7559
G01 X3.8669 Y41.7270
G01 X3.8556 Y41.7121
G01 X3.8045 Y41.6431
G01 X3.7829 Y41.6126
G01 X3.7630 Y41.5810
G01 X3.7188 Y41.5074
G01 X3.7004 Y41.4749
G01 X3.6918 Y41.4583
G01 X3.6469 Y41.3639
G01 X3.6317 Y41.3297
G01 X3.6183 Y41.2948
G01 X3.5894 Y41.2140
G01 X3.5776 Y41.1785
G01 X3.5724 Y41.1606
G01 X3.5425 Y41.0410
G01 X3.5352 Y41.0044
G01 X3.5322 Y40.9859
G01 X3.5196 Y40.9010
G01 X3.5151 Y40.8639
G01 X3.5123 Y40.8266
G01 X3.5081 Y40.7409
G01 X3.5072 Y40.7035
G01 X3.5074 Y40.6848
G01 X3.5134 Y40.5617
G01 X3.5151 Y40.5431
G01 X3.5196 Y40.5060
G01 X3.5322 Y40.4211
G01 X3.5386 Y40.3843
G01 X3.5468 Y40.3478
G01 X3.5677 Y40.2645
G01 X3.5776 Y40.2285
G01 X3.5894 Y40.1930
G01 X3.6183 Y40.1122
G01 X3.6317 Y40.0773
G01 X3.6469 Y40.0431
G01 X3.6836 Y39.9655
G01 X3.7004 Y39.9321
G01 X3.7188 Y39.8996
G01 X3.7630 Y39.8260
G01 X3.7829 Y39.7944
G01 X3.8045 Y39.7639
G01 X3.8556 Y39.6949
G01 X3.8786 Y39.6654
G01 X3.9030 Y39.6371
G01 X3.9607 Y39.5735
G01 X3.9864 Y39.5464
G01 X4.0135 Y39.5207
G01 X4.0771 Y39.4630
G01 X4.0911 Y39.4506
G01 X4.1118 Y39.4335
G01 X4.0911 Y39.4164
G01 X4.0771 Y39.4040
G01 X4.0135 Y39.3463
G01 X3.9864 Y39.3206
G01 X3.9607 Y39.2935
G01 X3.8906 Y39.2159
G01 X3.8669 Y39.1870
G01 X3.8556 Y39.1721
G01 X3.8045 Y39.1031
G01 X3.7829 Y39.0726
G01 X3.7630 Y39.0410
G01 X3.7188 Y38.9674
G01 X3.7094 Y38.9512
G01 X3.6918 Y38.9183
G01 X3.6391 Y38.8069
G01 X3.6248 Y38.7723
G01 X3.6183 Y38.7548
G01 X3.5894 Y38.6740
G01 X3.5776 Y38.6385
G01 X3.5677 Y38.6025
G01 X3.5468 Y38.5192
G01 X3.5425 Y38.5010
G01 X3.5352 Y38.4644
G01 X3.5171 Y38.3425
G01 X3.5151 Y38.3239
G01 X3.5123 Y38.2866
G01 X3.5081 Y38.2009
G01 X3.5072 Y38.1635
G01 X3.5081 Y38.1261
G01 X3.5123 Y38.0404
G01 X3.5134 Y38.0217
G01 X3.5171 Y37.9845
G01 X3.5352 Y37.8626
G01 X3.5386 Y37.8443
G01 X3.5468 Y37.8078
G01 X3.5677 Y37.7245
G01 X3.5776 Y37.6885
G01 X3.5894 Y37.6530
G01 X3.6183 Y37.5722
G01 X3.6317 Y37.5373
G01 X3.6469 Y37.5031
G01 X3.6836 Y37.4255
G01 X3.7004 Y37.3921
G01 X3.7188 Y37.3596
G01 X3.7630 Y37.2860
G01 X3.7829 Y37.2544
G01 X3.8045 Y37.2239
G01 X3.8556 Y37.1549
G01 X3.8786 Y37.1254
G01 X3.9030 Y37.0971
G01 X3.9607 Y37.0335
G01 X3.9864 Y37.0064
G01 X4.0135 Y36.9807
G01 X4.0771 Y36.9230
G01 X4.0911 Y36.9106
G01 X4.1118 Y36.8935
G01 X4.0911 Y36.8764
G01 X4.0771 Y36.8640
G01 X4.0135 Y36.8063
G01 X3.9864 Y36.7806
G01 X3.9607 Y36.7535
G01 X3.9030 Y36.6899
G01 X3.8786 Y36.6616
G01 X3.8669 Y36.6470
G01 X3.7935 Y36.5480
G01 X3.7829 Y36.5326
G01 X3.7630 Y36.5010
G01 X3.7188 Y36.4274
G01 X3.7004 Y36.3949
G01 X3.6836 Y36.3615
G01 X3.6469 Y36.2839
G01 X3.6391 Y36.2669
G01 X3.6248 Y36.2323
G01 X3.5833 Y36.1163
G01 X3.5776 Y36.0985
G01 X3.5677 Y36.0625
G01 X3.5468 Y35.9792
G01 X3.5386 Y35.9427
G01 X3.5322 Y35.9059
G01 X3.5196 Y35.8210
G01 X3.5151 Y35.7839
G01 X3.5134 Y35.7653
G01 X3.5074 Y35.6422
G01 X3.5072 Y35.6235
G01 X3.5081 Y35.5861
G01 X3.5123 Y35.5004
G01 X3.5151 Y35.4631
G01 X3.5196 Y35.4260
G01 X3.5322 Y35.3411
G01 X3.5352 Y35.3226
G01 X3.5425 Y35.2860
G01 X3.5677 Y35.1845
G01 X3.5724 Y35.1664
G01 X3.5833 Y35.1307
G01 X3.6248 Y35.0147
G01 X3.6391 Y34.9801
G01 X3.6469 Y34.9631
G01 X3.6918 Y34.8687
G01 X3.7004 Y34.8521
G01 X3.7188 Y34.8196
G01 X3.7630 Y34.7460
G01 X3.7829 Y34.7144
G01 X3.8045 Y34.6839
G01 X3.8556 Y34.6149
G01 X3.8786 Y34.5854
G01 X3.9030 Y34.5571
G01 X3.9607 Y34.4935
G01 X3.9864 Y34.4664
G01 X4.0135 Y34.4407
G01 X4.0771 Y34.3830
G01 X4.0911 Y34.3706
G01 X4.1118 Y34.3535
G01 X4.0911 Y34.3364
G01 X4.0771 Y34.3240
G01 X4.0135 Y34.2663
G01 X3.9864 Y34.2406
G01 X3.9607 Y34.2135
G01 X3.9030 Y34.1499
G01 X3.8906 Y34.1359
G01 X3.8669 Y34.1070
G01 X3.7935 Y34.0080
G01 X3.7728 Y33.9769
G01 X3.7630 Y33.9610
G01 X3.7188 Y33.8874
G01 X3.7004 Y33.8549
G01 X3.6836 Y33.8215
G01 X3.6469 Y33.7439
G01 X3.6391 Y33.7269
G01 X3.6248 Y33.6923
G01 X3.5833 Y33.5763
G01 X3.5776 Y33.5585
G01 X3.5677 Y33.5225
G01 X3.5468 Y33.4392
G01 X3.5386 Y33.4027
G01 X3.5322 Y33.3659
G01 X3.5196 Y33.2810
G01 X3.5171 Y33.2625
G01 X3.5134 Y33.2253
G01 X3.5074 Y33.1022
G01 X3.5072 Y33.0835
G01 X3.5081 Y33.0461
G01 X3.5123 Y32.9604
G01 X3.5151 Y32.9231
G01 X3.5196 Y32.8860
G01 X3.5322 Y32.8011
G01 X3.5386 Y32.7643
G01 X3.5425 Y32.7460
G01 X3.5677 Y32.6445
G01 X3.5776 Y32.6085
G01 X3.5833 Y32.5907
G01 X3.6248 Y32.4747
G01 X3.6391 Y32.4401
G01 X3.6469 Y32.4231
G01 X3.6918 Y32.3287
G01 X3.7004 Y32.3121
G01 X3.7188 Y32.2796
G01 X3.7630 Y32.2060
G01 X3.7829 Y32.1744
G01 X3.8045 Y32.1439
G01 X3.8556 Y32.0749
G01 X3.8786 Y32.0454
G01 X3.9030 Y32.0171
G01 X3.9607 Y31.9535
G01 X3.9864 Y31.9264
G01 X4.0135 Y31.9007
G01 X4.0771 Y31.8430
G01 X4.0911 Y31.8306
G01 X4.1118 Y31.8135
G01 X4.0911 Y31.7964
G01 X4.0771 Y31.7840
G01 X4.0135 Y31.7263
G01 X3.9864 Y31.7006
G01 X3.9607 Y31.6735
G01 X3.9030 Y31.6099
G01 X3.8906 Y31.5959
G01 X3.8669 Y31.5670
G01 X3.7935 Y31.4680
G01 X3.7728 Y31.4369
G01 X3.7630 Y31.4210
G01 X3.7188 Y31.3474
G01 X3.7004 Y31.3149
G01 X3.6836 Y31.2815
G01 X3.6469 Y31.2039
G01 X3.6391 Y31.1869
G01 X3.6248 Y31.1523
G01 X3.5833 Y31.0363
G01 X3.5724 Y31.0006
G01 X3.5677 Y30.9825
G01 X3.5468 Y30.8992
G01 X3.5386 Y30.8627
G01 X3.5322 Y30.8259
G01 X3.5196 Y30.7410
G01 X3.5151 Y30.7039
G01 X3.5123 Y30.6666
G01 X3.5081 Y30.5809
G01 X3.5072 Y30.5435
G01 X3.5074 Y30.5248
G01 X3.5123 Y30.4204
G01 X3.5151 Y30.3831
G01 X3.5171 Y30.3645
G01 X3.5352 Y30.2426
G01 X3.5425 Y30.2060
G01 X3.5468 Y30.1878
G01 X3.5677 Y30.1045
G01 X3.5776 Y30.0685
G01 X3.5894 Y30.0330
G01 X3.6183 Y29.9522
G01 X3.6317 Y29.9173
G01 X3.6391 Y29.9001
G01 X3.6836 Y29.8055
G01 X3.6918 Y29.7887
G01 X3.7094 Y29.7558
G01 X3.7728 Y29.6501
G01 X3.7935 Y29.6190
G01 X3.8045 Y29.6039
G01 X3.8556 Y29.5349
G01 X3.8786 Y29.5054
G01 X3.9030 Y29.4771
G01 X3.9607 Y29.4135
G01 X3.9864 Y29.3864
G01 X4.0135 Y29.3607
G01 X4.0771 Y29.3030
G01 X4.0911 Y29.2906
G01 X4.1118 Y29.2735
G01 X4.0911 Y29.2564
G01 X4.0771 Y29.2440
G01 X4.0135 Y29.1863
G01 X3.9864 Y29.1606
G01 X3.9607 Y29.1335
G01 X3.9030 Y29.0699
G01 X3.8906 Y29.0559
G01 X3.8669 Y29.0270
G01 X3.7935 Y28.9280
G01 X3.7728 Y28.8969
G01 X3.7630 Y28.8810
G01 X3.7188 Y28.8074
G01 X3.7004 Y28.7749
G01 X3.6836 Y28.7415
G01 X3.6469 Y28.6639
G01 X3.6317 Y28.6297
G01 X3.6248 Y28.6123
G01 X3.5833 Y28.4963
G01 X3.5724 Y28.4606
G01 X3.5677 Y28.4425
G01 X3.5468 Y28.3592
G01 X3.5386 Y28.3227
G01 X3.5322 Y28.2859
G01 X3.5196 Y28.2010
G01 X3.5151 Y28.1639
G01 X3.5123 Y28.1266
G01 X3.5081 Y28.0409
G01 X3.5072 Y28.0035
G01 X3.5074 Y27.9848
G01 X3.5123 Y27.8804
G01 X3.5151 Y27.8431
G01 X3.5171 Y27.8245
G01 X3.5352 Y27.7026
G01 X3.5386 Y27.6843
G01 X3.5468 Y27.6478
G01 X3.5677 Y27.5645
G01 X3.5776 Y27.5285
G01 X3.5894 Y27.4930
G01 X3.6183 Y27.4122
G01 X3.6317 Y27.3773
G01 X3.6391 Y27.3601
G01 X3.6836 Y27.2655
G01 X3.6918 Y27.2487
G01 X3.7094 Y27.2158
G01 X3.7728 Y27.1101
G01 X3.7935 Y27.0790
G01 X3.8045 Y27.0639
G01 X3.8556 Y26.9949
G01 X3.8786 Y26.9654
G01 X3.9030 Y26.9371
G01 X3.9607 Y26.8735
G01 X3.9864 Y26.8464
G01 X4.0135 Y26.8207
G01 X4.0771 Y26.7630
G01 X4.0911 Y26.7506
G01 X4.1118 Y26.7335
G01 X4.0911 Y26.7164
G01 X4.0771 Y26.7040
G01 X4.0135 Y26.6463
G01 X3.9864 Y26.6206
G01 X3.9607 Y26.5935
G01 X3.9030 Y26.5299
G01 X3.8786 Y26.5016
G01 X3.8669 Y26.4870
G01 X3.7935 Y26.3880
G01 X3.7829 Y26.3726
G01 X3.7630 Y26.3410
G01 X3.7188 Y26.2674
G01 X3.7004 Y26.2349
G01 X3.6836 Y26.2015
G01 X3.6469 Y26.1239
G01 X3.6317 Y26.0897
G01 X3.6248 Y26.0723
G01 X3.5833 Y25.9563
G01 X3.5776 Y25.9385
G01 X3.5677 Y25.9025
G01 X3.5468 Y25.8192
G01 X3.5386 Y25.7827
G01 X3.5322 Y25.7459
G01 X3.5196 Y25.6610
G01 X3.5151 Y25.6239
G01 X3.5123 Y25.5866
G01 X3.5081 Y25.5009
G01 X3.5072 Y25.4635
G01 X3.5074 Y25.4448
G01 X3.5123 Y25.3404
G01 X3.5151 Y25.3031
G01 X3.5171 Y25.2845
G01 X3.5352 Y25.1626
G01 X3.5425 Y25.1260
G01 X3.5468 Y25.1078
G01 X3.5677 Y25.0245
G01 X3.5776 Y24.9885
G01 X3.5894 Y24.9530
G01 X3.6183 Y24.8722
G01 X3.6317 Y24.8373
G01 X3.6391 Y24.8201
G01 X3.6836 Y24.7255
G01 X3.7004 Y24.6921
G01 X3.7094 Y24.6758
G01 X3.7728 Y24.5701
G01 X3.7829 Y24.5544
G01 X3.8045 Y24.5239
G01 X3.8556 Y24.4549
G01 X3.8786 Y24.4254
G01 X3.9030 Y24.3971
G01 X3.9607 Y24.3335
G01 X3.9864 Y24.3064
G01 X4.0135 Y24.2807
G01 X4.0771 Y24.2230
G01 X4.0911 Y24.2106
G01 X4.1118 Y24.1935
G01 X4.0911 Y24.1764
G01 X4.0771 Y24.1640
G01 X4.0135 Y24.1063
G01 X3.9864 Y24.0806
G01 X3.9607 Y24.0535
G01 X3.9030 Y23.9899
G01 X3.8906 Y23.9759
G01 X3.8669 Y23.9470
G01 X3.7935 Y23.8480
G01 X3.7829 Y23.8326
G01 X3.7630 Y23.8010
G01 X3.7188 Y23.7274
G01 X3.7004 Y23.6949
G01 X3.6836 Y23.6615
G01 X3.6469 Y23.5839
G01 X3.6391 Y23.5669
G01 X3.6248 Y23.5323
G01 X3.5833 Y23.4163
G01 X3.5724 Y23.3806
G01 X3.5677 Y23.3625
G01 X3.5468 Y23.2792
G01 X3.5386 Y23.2427
G01 X3.5322 Y23.2059
G01 X3.5196 Y23.1210
G01 X3.5151 Y23.0839
G01 X3.5123 Y23.0466
G01 X3.5081 Y22.9609
G01 X3.5072 Y22.9235
G01 X3.5074 Y22.9048
G01 X3.5123 Y22.8004
G01 X3.5151 Y22.7631
G01 X3.5171 Y22.7445
G01 X3.5352 Y22.6226
G01 X3.5386 Y22.6043
G01 X3.5468 Y22.5678
G01 X3.5677 Y22.4845
G01 X3.5776 Y22.4485
G01 X3.5894 Y22.4130
G01 X3.6183 Y22.3322
G01 X3.6248 Y22.3147
G01 X3.6391 Y22.2801
G01 X3.6836 Y22.1855
G01 X3.6918 Y22.1687
G01 X3.7094 Y22.1358
G01 X3.7728 Y22.0301
G01 X3.7829 Y22.0144
G01 X3.8045 Y21.9839
G01 X3.8556 Y21.9149
G01 X3.8786 Y21.8854
G01 X3.9030 Y21.8571
G01 X3.9607 Y21.7935
G01 X3.9864 Y21.7664
G01 X4.0135 Y21.7407
G01 X4.0771 Y21.6830
G01 X4.0911 Y21.6706
G01 X4.1118 Y21.6535
G01 X4.0911 Y21.6364
G01 X4.0771 Y21.6240
G01 X4.0135 Y21.5663
G01 X3.9864 Y21.5406
G01 X3.9607 Y21.5135
G01 X3.9030 Y21.4499
G01 X3.8786 Y21.4216
G01 X3.8669 Y21.4070
G01 X3.7935 Y21.3080
G01 X3.7728 Y21.2769
G01 X3.7630 Y21.2610
G01 X3.7188 Y21.1874
G01 X3.7004 Y21.1549
G01 X3.6836 Y21.1215
G01 X3.6469 Y21.0439
G01 X3.6391 Y21.0269
G01 X3.6248 Y20.9923
G01 X3.5833 Y20.8763
G01 X3.5724 Y20.8406
G01 X3.5677 Y20.8225
G01 X3.5468 Y20.7392
G01 X3.5386 Y20.7027
G01 X3.5322 Y20.6659
G01 X3.5196 Y20.5810
G01 X3.5151 Y20.5439
G01 X3.5123 Y20.5066
G01 X3.5081 Y20.4209
G01 X3.5072 Y20.3835
G01 X3.5074 Y20.3648
G01 X3.5123 Y20.2604
G01 X3.5151 Y20.2231
G01 X3.5171 Y20.2045
G01 X3.5352 Y20.0826
G01 X3.5386 Y20.0643
G01 X3.5468 Y20.0278
G01 X3.5677 Y19.9445
G01 X3.5776 Y19.9085
G01 X3.5894 Y19.8730
G01 X3.6183 Y19.7922
G01 X3.6248 Y19.7747
G01 X3.6391 Y19.7401
G01 X3.6836 Y19.6455
G01 X3.6918 Y19.6287
G01 X3.7094 Y19.5958
G01 X3.7728 Y19.4901
G01 X3.7935 Y19.4590
G01 X3.8045 Y19.4439
G01 X3.8556 Y19.3749
G01 X3.8786 Y19.3454
G01 X3.9030 Y19.3171
G01 X3.9607 Y19.2535
G01 X3.9864 Y19.2264
G01 X4.0135 Y19.2007
G01 X4.0771 Y19.1430
G01 X4.0911 Y19.1306
G01 X4.1118 Y19.1135
G01 X4.0911 Y19.0964
G01 X4.0771 Y19.0840
G01 X4.0135 Y19.0263
G01 X3.9864 Y19.0006
G01 X3.9607 Y18.9735
G01 X3.9030 Y18.9099
G01 X3.8786 Y18.8816
G01 X3.8669 Y18.8670
G01 X3.7935 Y18.7680
G01 X3.7728 Y18.7369
G01 X3.7630 Y18.7210
G01 X3.7188 Y18.6474
G01 X3.7004 Y18.6149
G01 X3.6836 Y18.5815
G01 X3.6469 Y18.5039
G01 X3.6317 Y18.4697
G01 X3.6248 Y18.4523
G01 X3.5833 Y18.3363
G01 X3.5724 Y18.3006
G01 X3.5677 Y18.2825
G01 X3.5468 Y18.1992
G01 X3.5386 Y18.1627
G01 X3.5322 Y18.1259
G01 X3.5196 Y18.0410
G01 X3.5151 Y18.0039
G01 X3.5123 Y17.9666
G01 X3.5081 Y17.8809
G01 X3.5072 Y17.8435
G01 X3.5074 Y17.8248
G01 X3.5123 Y17.7204
G01 X3.5134 Y17.7017
G01 X3.5171 Y17.6645
G01 X3.5352 Y17.5426
G01 X3.5386 Y17.5243
G01 X3.5468 Y17.4878
G01 X3.5677 Y17.4045
G01 X3.5776 Y17.3685
G01 X3.5894 Y17.3330
G01 X3.6183 Y17.2522
G01 X3.6317 Y17.2173
G01 X3.6391 Y17.2001
G01 X3.6836 Y17.1055
G01 X3.7004 Y17.0721
G01 X3.7094 Y17.0558
G01 X3.7728 Y16.9501
G01 X3.7829 Y16.9344
G01 X3.8045 Y16.9039
G01 X3.8556 Y16.8349
G01 X3.8786 Y16.8054
G01 X3.9030 Y16.7771
G01 X3.9607 Y16.7135
G01 X3.9864 Y16.6864
G01 X4.0135 Y16.6607
G01 X4.0771 Y16.6030
G01 X4.0911 Y16.5906
G01 X4.1118 Y16.5735
G01 X4.0911 Y16.5564
G01 X4.0771 Y16.5440
G01 X4.0135 Y16.4863
G01 X3.9864 Y16.4606
G01 X3.9607 Y16.4335
G01 X3.9030 Y16.3699
G01 X3.8786 Y16.3416
G01 X3.8669 Y16.3270
G01 X3.7935 Y16.2280
G01 X3.7829 Y16.2126
G01 X3.7630 Y16.1810
G01 X3.7188 Y16.1074
G01 X3.7004 Y16.0749
G01 X3.6836 Y16.0415
G01 X3.6469 Y15.9639
G01 X3.6391 Y15.9469
G01 X3.6248 Y15.9123
G01 X3.5833 Y15.7963
G01 X3.5776 Y15.7785
G01 X3.5677 Y15.7425
G01 X3.5468 Y15.6592
G01 X3.5386 Y15.6227
G01 X3.5322 Y15.5859
G01 X3.5196 Y15.5010
G01 X3.5151 Y15.4639
G01 X3.5123 Y15.4266
G01 X3.5081 Y15.3409
G01 X3.5072 Y15.3035
G01 X3.5074 Y15.2848
G01 X3.5123 Y15.1804
G01 X3.5151 Y15.1431
G01 X3.5171 Y15.1245
G01 X3.5352 Y15.0026
G01 X3.5425 Y14.9660
G01 X3.5468 Y14.9478
G01 X3.5677 Y14.8645
G01 X3.5776 Y14.8285
G01 X3.5894 Y14.7930
G01 X3.6183 Y14.7122
G01 X3.6248 Y14.6947
G01 X3.6391 Y14.6601
G01 X3.6836 Y14.5655
G01 X3.7004 Y14.5321
G01 X3.7094 Y14.5158
G01 X3.7728 Y14.4101
G01 X3.7935 Y14.3790
G01 X3.8045 Y14.3639
G01 X3.8556 Y14.2949
G01 X3.8786 Y14.2654
G01 X3.9030 Y14.2371
G01 X3.9607 Y14.1735
G01 X3.9864 Y14.1464
G01 X4.0135 Y14.1207
G01 X4.0771 Y14.0630
G01 X4.0911 Y14.0506
G01 X4.1118 Y14.0335
G01 X4.0911 Y14.0164
G01 X4.0771 Y14.0040
G01 X4.0135 Y13.9463
G01 X3.9864 Y13.9206
G01 X3.9607 Y13.8935
G01 X3.9030 Y13.8299
G01 X3.8786 Y13.8016
G01 X3.8669 Y13.7870
G01 X3.7935 Y13.6880
G01 X3.7829 Y13.6726
G01 X3.7630 Y13.6410
G01 X3.7188 Y13.5674
G01 X3.7004 Y13.5349
G01 X3.6836 Y13.5015
G01 X3.6469 Y13.4239
G01 X3.6391 Y13.4069
G01 X3.6248 Y13.3723
G01 X3.5833 Y13.2563
G01 X3.5776 Y13.2385
G01 X3.5677 Y13.2025
G01 X3.5468 Y13.1192
G01 X3.5386 Y13.0827
G01 X3.5322 Y13.0459
G01 X3.5196 Y12.9610
G01 X3.5151 Y12.9239
G01 X3.5123 Y12.8866
G01 X3.5081 Y12.8009
G01 X3.5072 Y12.7635
G01 X3.5074 Y12.7448
G01 X3.5123 Y12.6404
G01 X3.5134 Y12.6217
G01 X3.5171 Y12.5845
G01 X3.5352 Y12.4626
G01 X3.5386 Y12.4443
G01 X3.5468 Y12.4078
G01 X3.5677 Y12.3245
G01 X3.5776 Y12.2885
G01 X3.5894 Y12.2530
G01 X3.6183 Y12.1722
G01 X3.6317 Y12.1373
G01 X3.6391 Y12.1201
G01 X3.6836 Y12.0255
G01 X3.6918 Y12.0087
G01 X3.7094 Y11.9758
G01 X3.7728 Y11.8701
G01 X3.7829 Y11.8544
G01 X3.8045 Y11.8239
G01 X3.8556 Y11.7549
G01 X3.8786 Y11.7254
G01 X3.9030 Y11.6971
G01 X3.9607 Y11.6335
G01 X3.9864 Y11.6064
G01 X4.0135 Y11.5807
G01 X4.0771 Y11.5230
G01 X4.0911 Y11.5106
G01 X4.1118 Y11.4935
G01 X4.0911 Y11.4764
G01 X4.0771 Y11.4640
G01 X4.0135 Y11.4063
G01 X3.9864 Y11.3806
G01 X3.9607 Y11.3535
G01 X3.9030 Y11.2899
G01 X3.8906 Y11.2759
G01 X3.8669 Y11.2470
G01 X3.7935 Y11.1480
G01 X3.7728 Y11.1169
G01 X3.7630 Y11.1010
G01 X3.7188 Y11.0274
G01 X3.7004 Y10.9949
G01 X3.6836 Y10.9615
G01 X3.6469 Y10.8839
G01 X3.6391 Y10.8669
G01 X3.6248 Y10.8323
G01 X3.5833 Y10.7163
G01 X3.5776 Y10.6985
G01 X3.5677 Y10.6625
G01 X3.5468 Y10.5792
G01 X3.5386 Y10.5427
G01 X3.5322 Y10.5059
G01 X3.5196 Y10.4210
G01 X3.5151 Y10.3839
G01 X3.5123 Y10.3466
G01 X3.5081 Y10.2609
G01 X3.5072 Y10.2235
G01 X3.5074 Y10.2048
G01 X3.5123 Y10.1004
G01 X3.5134 Y10.0817
G01 X3.5171 Y10.0445
G01 X3.5352 Y9.9226
G01 X3.5386 Y9.9043
G01 X3.5468 Y9.8678
G01 X3.5677 Y9.7845
G01 X3.5776 Y9.7485
G01 X3.5894 Y9.7130
G01 X3.6183 Y9.6322
G01 X3.6248 Y9.6147
G01 X3.6391 Y9.5801
G01 X3.6836 Y9.4855
G01 X3.6918 Y9.4687
G01 X3.7094 Y9.4358
G01 X3.7728 Y9.3301
G01 X3.7935 Y9.2990
G01 X3.8045 Y9.2839
G01 X3.8556 Y9.2149
G01 X3.8786 Y9.1854
G01 X3.9030 Y9.1571
G01 X3.9607 Y9.0935
G01 X3.9864 Y9.0664
G01 X4.0135 Y9.0407
G01 X4.0771 Y8.9830
G01 X4.0911 Y8.9706
G01 X4.1118 Y8.9535
G01 X4.0911 Y8.9364
G01 X4.0771 Y8.9240
G01 X4.0135 Y8.8663
G01 X3.9864 Y8.8406
G01 X3.9607 Y8.8135
G01 X3.9030 Y8.7499
G01 X3.8786 Y8.7216
G01 X3.8669 Y8.7070
G01 X3.7935 Y8.6080
G01 X3.7728 Y8.5769
G01 X3.7630 Y8.5610
G01 X3.7188 Y8.4874
G01 X3.7004 Y8.4549
G01 X3.6836 Y8.4215
G01 X3.6469 Y8.3439
G01 X3.6391 Y8.3269
G01 X3.6248 Y8.2923
G01 X3.5833 Y8.1763
G01 X3.5724 Y8.1406
G01 X3.5677 Y8.1225
G01 X3.5468 Y8.0392
G01 X3.5386 Y8.0027
G01 X3.5322 Y7.9659
G01 X3.5196 Y7.8810
G01 X3.5151 Y7.8439
G01 X3.5123 Y7.8066
G01 X3.5081 Y7.7209
G01 X3.5072 Y7.6835
G01 X3.5074 Y7.6648
G01 X3.5123 Y7.5604
G01 X3.5134 Y7.5417
G01 X3.5171 Y7.5045
G01 X3.5352 Y7.3826
G01 X3.5386 Y7.3643
G01 X3.5468 Y7.3278
G01 X3.5677 Y7.2445
G01 X3.5776 Y7.2085
G01 X3.5894 Y7.1730
G01 X3.6183 Y7.0922
G01 X3.6248 Y7.0747
G01 X3.6391 Y7.0401
G01 X3.6836 Y6.9455
G01 X3.6918 Y6.9287
G01 X3.7094 Y6.8958
G01 X3.7728 Y6.7901
G01 X3.7935 Y6.7590
G01 X3.8045 Y6.7439
G01 X3.8556 Y6.6749
G01 X3.8786 Y6.6454
G01 X3.9030 Y6.6171
G01 X3.9607 Y6.5535
G01 X3.9864 Y6.5264
G01 X4.0135 Y6.5007
G01 X4.0771 Y6.4430
G01 X4.0911 Y6.4306
G01 X4.1118 Y6.4135
G01 X4.0911 Y6.3964
G01 X4.0771 Y6.3840
G01 X4.0135 Y6.3263
G01 X3.9864 Y6.3006
G01 X3.9607 Y6.2735
G01 X3.8906 Y6.1959
G01 X3.8786 Y6.1816
G01 X3.8556 Y6.1521
G01 X3.8045 Y6.0831
G01 X3.7829 Y6.0526
G01 X3.7630 Y6.0210
G01 X3.7188 Y5.9474
G01 X3.7004 Y5.9149
G01 X3.6918 Y5.8983
G01 X3.6469 Y5.8039
G01 X3.6317 Y5.7697
G01 X3.6183 Y5.7348
G01 X3.5894 Y5.6540
G01 X3.5776 Y5.6185
G01 X3.5724 Y5.6006
G01 X3.5425 Y5.4810
G01 X3.5352 Y5.4444
G01 X3.5322 Y5.4259
G01 X3.5196 Y5.3410
G01 X3.5151 Y5.3039
G01 X3.5123 Y5.2666
G01 X3.5081 Y5.1809
G01 X3.5072 Y5.1435
G01 X3.5074 Y5.1248
G01 X3.5134 Y5.0017
G01 X3.5171 Y4.9645
G01 X3.5322 Y4.8611
G01 X3.5386 Y4.8243
G01 X3.5425 Y4.8060
G01 X3.5677 Y4.7045
G01 X3.5776 Y4.6685
G01 X3.5894 Y4.6330
G01 X3.6183 Y4.5522
G01 X3.6317 Y4.5173
G01 X3.6391 Y4.5001
G01 X3.6836 Y4.4055
G01 X3.7004 Y4.3721
G01 X3.7188 Y4.3396
G01 X3.7728 Y4.2501
G01 X3.7935 Y4.2190
G01 X3.8045 Y4.2039
G01 X3.8556 Y4.1349
G01 X3.8786 Y4.1054
G01 X3.9030 Y4.0771
G01 X3.9607 Y4.0135
G01 X3.9734 Y3.9998
G01 X3.9998 Y3.9734
G01 X4.0771 Y3.9030
G01 X4.1054 Y3.8786
G01 X4.1349 Y3.8556
G01 X4.2039 Y3.8045
G01 X4.2344 Y3.7829
G01 X4.2660 Y3.7630
G01 X4.3396 Y3.7188
G01 X4.3721 Y3.7004
G01 X4.3887 Y3.6918
G01 X4.4831 Y3.6469
G01 X4.5173 Y3.6317
G01 X4.5522 Y3.6183
G01 X4.6507 Y3.5833
G01 X4.6864 Y3.5724
G01 X4.7045 Y3.5677
G01 X4.7878 Y3.5468
G01 X4.8243 Y3.5386
G01 X4.8611 Y3.5322
G01 X4.9460 Y3.5196
G01 X4.9831 Y3.5151
G01 X5.0204 Y3.5123
G01 X5.1248 Y3.5074
G01 X5.1435 Y3.5072
G01 X5.1809 Y3.5081
G01 X5.2666 Y3.5123
G01 X5.3039 Y3.5151
G01 X5.3410 Y3.5196
G01 X5.4259 Y3.5322
G01 X5.4444 Y3.5352
G01 X5.4810 Y3.5425
G01 X5.5825 Y3.5677
G01 X5.6185 Y3.5776
G01 X5.6540 Y3.5894
G01 X5.7523 Y3.6248
G01 X5.7697 Y3.6317
G01 X5.8039 Y3.6469
G01 X5.8815 Y3.6836
G01 X5.9149 Y3.7004
G01 X5.9474 Y3.7188
G01 X6.0210 Y3.7630
G01 X6.0526 Y3.7829
G01 X6.0831 Y3.8045
G01 X6.1521 Y3.8556
G01 X6.1670 Y3.8669
G01 X6.1856 Y3.8820
G00 Z2.0000
G00 X6.0717 Y4.1799
G01 F60.00
G01 Z-0.2001
G01 F320.00
G01 X16.9153 Y4.1799
G01 X16.9772 Y4.1237
G01 X16.9944 Y4.1089
G01 X17.0123 Y4.0949
G01 X17.0813 Y4.0437
G01 X17.0999 Y4.0306
G01 X17.1094 Y4.0244
G01 X17.1928 Y3.9743
G01 X17.2126 Y3.9631
G01 X17.2329 Y3.9529
G01 X17.3105 Y3.9162
G01 X17.3313 Y3.9070
G01 X17.3419 Y3.9027
G01 X17.4334 Y3.8698
G01 X17.4550 Y3.8627
G01 X17.4769 Y3.8566
G01 X17.5602 Y3.8358
G01 X17.5713 Y3.8331
G01 X17.5936 Y3.8287
G01 X17.6897 Y3.8143
G01 X17.7123 Y3.8115
G01 X17.7236 Y3.8105
G01 X17.8321 Y3.8052
G01 X17.8549 Y3.8052
G01 X17.8662 Y3.8056
G01 X17.9520 Y3.8098
G01 X17.9747 Y3.8115
G01 X17.9973 Y3.8143
G01 X18.0822 Y3.8269
G01 X18.1046 Y3.8308
G01 X18.1268 Y3.8358
G01 X18.2101 Y3.8566
G01 X18.2320 Y3.8627
G01 X18.2536 Y3.8698
G01 X18.3345 Y3.8988
G01 X18.3557 Y3.9070
G01 X18.3765 Y3.9162
G01 X18.4541 Y3.9529
G01 X18.4643 Y3.9579
G01 X18.4844 Y3.9686
G01 X18.5679 Y4.0185
G01 X18.5871 Y4.0306
G01 X18.6057 Y4.0437
G01 X18.6837 Y4.1018
G01 X18.6926 Y4.1089
G01 X18.7098 Y4.1237
G01 X18.7734 Y4.1814
G01 X18.7899 Y4.1971
G01 X18.8056 Y4.2136
G01 X18.8633 Y4.2772
G01 X18.8781 Y4.2944
G01 X18.8921 Y4.3123
G01 X18.9433 Y4.3813
G01 X18.9564 Y4.3999
G01 X18.9685 Y4.4191
G01 X19.0127 Y4.4928
G01 X19.0239 Y4.5126
G01 X19.0341 Y4.5329
G01 X19.0708 Y4.6105
G01 X19.0800 Y4.6313
G01 X19.0882 Y4.6525
G01 X19.1172 Y4.7334
G01 X19.1209 Y4.7441
G01 X19.1275 Y4.7659
G01 X19.1512 Y4.8602
G01 X19.1562 Y4.8824
G01 X19.1601 Y4.9048
G01 X19.1727 Y4.9897
G01 X19.1755 Y5.0123
G01 X19.1772 Y5.0350
G01 X19.1814 Y5.1208
G01 X19.1819 Y5.1435
G01 X19.1814 Y5.1662
G01 X19.1772 Y5.2520
G01 X19.1755 Y5.2747
G01 X19.1727 Y5.2973
G01 X19.1601 Y5.3822
G01 X19.1562 Y5.4046
G01 X19.1512 Y5.4268
G01 X19.1304 Y5.5101
G01 X19.1243 Y5.5320
G01 X19.1172 Y5.5536
G01 X19.0882 Y5.6345
G01 X19.0800 Y5.6557
G01 X19.0708 Y5.6765
G01 X19.0341 Y5.7541
G01 X19.0239 Y5.7744
G01 X19.0127 Y5.7942
G01 X18.9685 Y5.8679
G01 X18.9564 Y5.8871
G01 X18.9433 Y5.9057
G01 X18.8921 Y5.9747
G01 X18.8781 Y5.9926
G01 X18.8633 Y6.0098
G01 X18.8056 Y6.0734
G01 X18.7899 Y6.0899
G01 X18.7734 Y6.1056
G01 X18.7098 Y6.1633
G01 X18.6926 Y6.1781
G01 X18.6747 Y6.1921
G01 X18.6057 Y6.2433
G01 X18.5871 Y6.2564
G01 X18.5679 Y6.2685
G01 X18.4942 Y6.3127
G01 X18.4744 Y6.3239
G01 X18.4541 Y6.3341
G01 X18.3765 Y6.3708
G01 X18.3557 Y6.3800
G01 X18.3345 Y6.3882
G01 X18.2639 Y6.4135
G01 X18.3345 Y6.4388
G01 X18.3557 Y6.4470
G01 X18.3765 Y6.4562
G01 X18.4541 Y6.4929
G01 X18.4744 Y6.5031
G01 X18.4942 Y6.5143
G01 X18.5679 Y6.5585
G01 X18.5871 Y6.5706
G01 X18.6057 Y6.5837
G01 X18.6747 Y6.6349
G01 X18.6926 Y6.6489
G01 X18.7098 Y6.6637
G01 X18.7734 Y6.7214
G01 X18.7899 Y6.7371
G01 X18.8056 Y6.7536
G01 X18.8633 Y6.8172
G01 X18.8781 Y6.8344
G01 X18.8921 Y6.8523
G01 X18.9433 Y6.9213
G01 X18.9564 Y6.9399
G01 X18.9685 Y6.9591
G01 X19.0184 Y7.0426
G01 X19.0239 Y7.0526
G01 X19.0341 Y7.0729
G01 X19.0708 Y7.1505
G01 X19.0800 Y7.1713
G01 X19.0882 Y7.1925
G01 X19.1172 Y7.2734
G01 X19.1243 Y7.2950
G01 X19.1304 Y7.3169
G01 X19.1539 Y7.4113
G01 X19.1562 Y7.4224
G01 X19.1601 Y7.4448
G01 X19.1727 Y7.5297
G01 X19.1755 Y7.5523
G01 X19.1772 Y7.5750
G01 X19.1814 Y7.6608
G01 X19.1819 Y7.6835
G01 X19.1814 Y7.7062
G01 X19.1772 Y7.7920
G01 X19.1755 Y7.8147
G01 X19.1727 Y7.8373
G01 X19.1601 Y7.9222
G01 X19.1562 Y7.9446
G01 X19.1512 Y7.9668
G01 X19.1304 Y8.0501
G01 X19.1243 Y8.0720
G01 X19.1172 Y8.0936
G01 X19.0882 Y8.1745
G01 X19.0800 Y8.1957
G01 X19.0708 Y8.2165
G01 X19.0341 Y8.2941
G01 X19.0239 Y8.3144
G01 X19.0127 Y8.3342
G01 X18.9685 Y8.4079
G01 X18.9564 Y8.4271
G01 X18.9433 Y8.4457
G01 X18.8921 Y8.5147
G01 X18.8781 Y8.5326
G01 X18.8633 Y8.5498
G01 X18.8056 Y8.6134
G01 X18.7899 Y8.6299
G01 X18.7734 Y8.6456
G01 X18.7098 Y8.7033
G01 X18.6926 Y8.7181
G01 X18.6747 Y8.7321
G01 X18.6057 Y8.7833
G01 X18.5871 Y8.7964
G01 X18.5679 Y8.8085
G01 X18.4942 Y8.8527
G01 X18.4744 Y8.8639
G01 X18.4541 Y8.8741
G01 X18.3765 Y8.9108
G01 X18.3557 Y8.9200
G01 X18.3345 Y8.9282
G01 X18.2639 Y8.9535
G01 X18.3345 Y8.9788
G01 X18.3557 Y8.9870
G01 X18.3765 Y8.9962
G01 X18.4541 Y9.0329
G01 X18.4744 Y9.0431
G01 X18.4942 Y9.0543
G01 X18.5679 Y9.0985
G01 X18.5871 Y9.1106
G01 X18.6057 Y9.1237
G01 X18.6837 Y9.1818
G01 X18.7013 Y9.1962
G01 X18.7098 Y9.2037
G01 X18.7734 Y9.2614
G01 X18.7899 Y9.2771
G01 X18.8056 Y9.2936
G01 X18.8633 Y9.3572
G01 X18.8781 Y9.3744
G01 X18.8921 Y9.3923
G01 X18.9433 Y9.4613
G01 X18.9499 Y9.4705
G01 X18.9626 Y9.4894
G01 X19.0127 Y9.5728
G01 X19.0239 Y9.5926
G01 X19.0341 Y9.6129
G01 X19.0708 Y9.6905
G01 X19.0800 Y9.7113
G01 X19.0882 Y9.7325
G01 X19.1172 Y9.8134
G01 X19.1243 Y9.8350
G01 X19.1304 Y9.8569
G01 X19.1512 Y9.9402
G01 X19.1562 Y9.9624
G01 X19.1601 Y9.9848
G01 X19.1742 Y10.0810
G01 X19.1755 Y10.0923
G01 X19.1772 Y10.1150
G01 X19.1814 Y10.2008
G01 X19.1819 Y10.2235
G01 X19.1814 Y10.2462
G01 X19.1772 Y10.3320
G01 X19.1755 Y10.3547
G01 X19.1742 Y10.3660
G01 X19.1601 Y10.4622
G01 X19.1562 Y10.4846
G01 X19.1512 Y10.5068
G01 X19.1304 Y10.5901
G01 X19.1243 Y10.6120
G01 X19.1172 Y10.6336
G01 X19.0882 Y10.7145
G01 X19.0800 Y10.7357
G01 X19.0708 Y10.7565
G01 X19.0341 Y10.8341
G01 X19.0239 Y10.8544
G01 X19.0127 Y10.8742
G01 X18.9685 Y10.9479
G01 X18.9564 Y10.9671
G01 X18.9433 Y10.9857
G01 X18.8921 Y11.0547
G01 X18.8781 Y11.0726
G01 X18.8633 Y11.0898
G01 X18.8056 Y11.1534
G01 X18.7899 Y11.1699
G01 X18.7734 Y11.1856
G01 X18.7098 Y11.2433
G01 X18.6926 Y11.2581
G01 X18.6747 Y11.2721
G01 X18.6057 Y11.3233
G01 X18.5871 Y11.3364
G01 X18.5679 Y11.3485
G01 X18.4942 Y11.3927
G01 X18.4744 Y11.4039
G01 X18.4541 Y11.4141
G01 X18.3765 Y11.4508
G01 X18.3557 Y11.4600
G01 X18.3345 Y11.4682
G01 X18.2639 Y11.4935
G01 X18.3345 Y11.5188
G01 X18.3557 Y11.5270
G01 X18.3765 Y11.5362
G01 X18.4541 Y11.5729
G01 X18.4744 Y11.5831
G01 X18.4942 Y11.5943
G01 X18.5679 Y11.6385
G01 X18.5871 Y11.6506
G01 X18.6057 Y11.6637
G01 X18.6747 Y11.7149
G01 X18.6926 Y11.7289
G01 X18.7098 Y11.7437
G01 X18.7818 Y11.8091
G01 X18.7979 Y11.8252
G01 X18.8056 Y11.8336
G01 X18.8633 Y11.8972
G01 X18.8781 Y11.9144
G01 X18.8921 Y11.9323
G01 X18.9433 Y12.0013
G01 X18.9564 Y12.0199
G01 X18.9685 Y12.0391
G01 X19.0127 Y12.1128
G01 X19.0239 Y12.1326
G01 X19.0341 Y12.1529
G01 X19.0708 Y12.2305
G01 X19.0800 Y12.2513
G01 X19.0843 Y12.2619
G01 X19.1172 Y12.3534
G01 X19.1243 Y12.3750
G01 X19.1304 Y12.3969
G01 X19.1512 Y12.4802
G01 X19.1562 Y12.5024
G01 X19.1601 Y12.5248
G01 X19.1727 Y12.6097
G01 X19.1755 Y12.6323
G01 X19.1772 Y12.6550
G01 X19.1814 Y12.7408
G01 X19.1819 Y12.7635
G01 X19.1814 Y12.7862
G01 X19.1772 Y12.8720
G01 X19.1755 Y12.8947
G01 X19.1727 Y12.9173
G01 X19.1601 Y13.0022
G01 X19.1562 Y13.0246
G01 X19.1512 Y13.0468
G01 X19.1304 Y13.1301
G01 X19.1243 Y13.1520
G01 X19.1172 Y13.1736
G01 X19.0882 Y13.2545
G01 X19.0800 Y13.2757
G01 X19.0708 Y13.2965
G01 X19.0341 Y13.3741
G01 X19.0239 Y13.3944
G01 X19.0127 Y13.4142
G01 X18.9685 Y13.4879
G01 X18.9564 Y13.5071
G01 X18.9433 Y13.5257
G01 X18.8921 Y13.5947
G01 X18.8781 Y13.6126
G01 X18.8633 Y13.6298
G01 X18.8056 Y13.6934
G01 X18.7899 Y13.7099
G01 X18.7734 Y13.7256
G01 X18.7098 Y13.7833
G01 X18.6926 Y13.7981
G01 X18.6747 Y13.8121
G01 X18.6057 Y13.8633
G01 X18.5871 Y13.8764
G01 X18.5679 Y13.8885
G01 X18.4942 Y13.9327
G01 X18.4744 Y13.9439
G01 X18.4541 Y13.9541
G01 X18.3765 Y13.9908
G01 X18.3557 Y14.0000
G01 X18.3345 Y14.0082
G01 X18.2639 Y14.0335
G01 X18.3345 Y14.0588
G01 X18.3557 Y14.0670
G01 X18.3765 Y14.0762
G01 X18.4541 Y14.1129
G01 X18.4744 Y14.1231
G01 X18.4942 Y14.1343
G01 X18.5679 Y14.1785
G01 X18.5871 Y14.1906
G01 X18.6057 Y14.2037
G01 X18.6747 Y14.2549
G01 X18.6926 Y14.2689
G01 X18.7098 Y14.2837
G01 X18.7818 Y14.3491
G01 X18.7979 Y14.3652
G01 X18.8056 Y14.3736
G01 X18.8633 Y14.4372
G01 X18.8781 Y14.4544
G01 X18.8921 Y14.4723
G01 X18.9433 Y14.5413
G01 X18.9564 Y14.5599
G01 X18.9685 Y14.5791
G01 X19.0127 Y14.6528
G01 X19.0239 Y14.6726
G01 X19.0341 Y14.6929
G01 X19.0708 Y14.7705
G01 X19.0800 Y14.7913
G01 X19.0843 Y14.8019
G01 X19.1172 Y14.8934
G01 X19.1243 Y14.9150
G01 X19.1304 Y14.9369
G01 X19.1512 Y15.0202
G01 X19.1562 Y15.0424
G01 X19.1601 Y15.0648
G01 X19.1727 Y15.1497
G01 X19.1755 Y15.1723
G01 X19.1772 Y15.1950
G01 X19.1814 Y15.2808
G01 X19.1819 Y15.3035
G01 X19.1814 Y15.3262
G01 X19.1765 Y15.4234
G01 X19.1742 Y15.4460
G01 X19.1727 Y15.4573
G01 X19.1601 Y15.5422
G01 X19.1562 Y15.5646
G01 X19.1512 Y15.5868
G01 X19.1304 Y15.6701
G01 X19.1243 Y15.6920
G01 X19.1172 Y15.7136
G01 X19.0882 Y15.7945
G01 X19.0800 Y15.8157
G01 X19.0708 Y15.8365
G01 X19.0341 Y15.9141
G01 X19.0239 Y15.9344
G01 X19.0127 Y15.9542
G01 X18.9685 Y16.0279
G01 X18.9564 Y16.0471
G01 X18.9433 Y16.0657
G01 X18.8852 Y16.1437
G01 X18.8781 Y16.1526
G01 X18.8633 Y16.1698
G01 X18.8056 Y16.2334
G01 X18.7899 Y16.2499
G01 X18.7734 Y16.2656
G01 X18.7098 Y16.3233
G01 X18.6926 Y16.3381
G01 X18.6747 Y16.3521
G01 X18.5965 Y16.4099
G01 X18.5871 Y16.4164
G01 X18.5679 Y16.4285
G01 X18.4942 Y16.4727
G01 X18.4744 Y16.4839
G01 X18.4643 Y16.4891
G01 X18.3765 Y16.5308
G01 X18.3557 Y16.5400
G01 X18.3345 Y16.5482
G01 X18.2639 Y16.5735
G01 X18.3345 Y16.5988
G01 X18.3557 Y16.6070
G01 X18.3765 Y16.6162
G01 X18.4541 Y16.6529
G01 X18.4744 Y16.6631
G01 X18.4942 Y16.6743
G01 X18.5679 Y16.7185
G01 X18.5871 Y16.7306
G01 X18.6057 Y16.7437
G01 X18.6747 Y16.7949
G01 X18.6926 Y16.8089
G01 X18.7098 Y16.8237
G01 X18.7818 Y16.8891
G01 X18.7979 Y16.9052
G01 X18.8056 Y16.9136
G01 X18.8633 Y16.9772
G01 X18.8781 Y16.9944
G01 X18.8921 Y17.0123
G01 X18.9433 Y17.0813
G01 X18.9564 Y17.0999
G01 X18.9685 Y17.1191
G01 X19.0127 Y17.1928
G01 X19.0239 Y17.2126
G01 X19.0341 Y17.2329
G01 X19.0708 Y17.3105
G01 X19.0756 Y17.3209
G01 X19.0843 Y17.3419
G01 X19.1172 Y17.4334
G01 X19.1243 Y17.4550
G01 X19.1304 Y17.4769
G01 X19.1512 Y17.5602
G01 X19.1562 Y17.5824
G01 X19.1601 Y17.6048
G01 X19.1727 Y17.6897
G01 X19.1755 Y17.7123
G01 X19.1772 Y17.7350
G01 X19.1814 Y17.8208
G01 X19.1819 Y17.8435
G01 X19.1814 Y17.8662
G01 X19.1772 Y17.9520
G01 X19.1755 Y17.9747
G01 X19.1727 Y17.9973
G01 X19.1601 Y18.0822
G01 X19.1562 Y18.1046
G01 X19.1539 Y18.1157
G01 X19.1304 Y18.2101
G01 X19.1243 Y18.2320
G01 X19.1172 Y18.2536
G01 X19.0843 Y18.3451
G01 X19.0800 Y18.3557
G01 X19.0708 Y18.3765
G01 X19.0341 Y18.4541
G01 X19.0239 Y18.4744
G01 X19.0127 Y18.4942
G01 X18.9685 Y18.5679
G01 X18.9564 Y18.5871
G01 X18.9433 Y18.6057
G01 X18.8852 Y18.6837
G01 X18.8781 Y18.6926
G01 X18.8633 Y18.7098
G01 X18.8056 Y18.7734
G01 X18.7899 Y18.7899
G01 X18.7734 Y18.8056
G01 X18.7098 Y18.8633
G01 X18.6926 Y18.8781
G01 X18.6747 Y18.8921
G01 X18.5965 Y18.9499
G01 X18.5871 Y18.9564
G01 X18.5679 Y18.9685
G01 X18.4942 Y19.0127
G01 X18.4844 Y19.0184
G01 X18.4643 Y19.0291
G01 X18.3765 Y19.0708
G01 X18.3557 Y19.0800
G01 X18.3345 Y19.0882
G01 X18.2639 Y19.1135
G01 X18.3345 Y19.1388
G01 X18.3557 Y19.1470
G01 X18.3765 Y19.1562
G01 X18.4541 Y19.1929
G01 X18.4744 Y19.2031
G01 X18.4942 Y19.2143
G01 X18.5679 Y19.2585
G01 X18.5871 Y19.2706
G01 X18.6057 Y19.2837
G01 X18.6747 Y19.3349
G01 X18.6926 Y19.3489
G01 X18.7098 Y19.3637
G01 X18.7818 Y19.4291
G01 X18.7899 Y19.4371
G01 X18.8056 Y19.4536
G01 X18.8633 Y19.5172
G01 X18.8781 Y19.5344
G01 X18.8921 Y19.5523
G01 X18.9433 Y19.6213
G01 X18.9564 Y19.6399
G01 X18.9685 Y19.6591
G01 X19.0127 Y19.7328
G01 X19.0239 Y19.7526
G01 X19.0341 Y19.7729
G01 X19.0708 Y19.8505
G01 X19.0800 Y19.8713
G01 X19.0843 Y19.8819
G01 X19.1172 Y19.9734
G01 X19.1243 Y19.9950
G01 X19.1304 Y20.0169
G01 X19.1512 Y20.1002
G01 X19.1562 Y20.1224
G01 X19.1601 Y20.1448
G01 X19.1727 Y20.2297
G01 X19.1755 Y20.2523
G01 X19.1772 Y20.2750
G01 X19.1814 Y20.3608
G01 X19.1819 Y20.3835
G01 X19.1814 Y20.4062
G01 X19.1772 Y20.4920
G01 X19.1755 Y20.5147
G01 X19.1727 Y20.5373
G01 X19.1601 Y20.6222
G01 X19.1562 Y20.6446
G01 X19.1539 Y20.6557
G01 X19.1304 Y20.7501
G01 X19.1243 Y20.7720
G01 X19.1172 Y20.7936
G01 X19.0843 Y20.8851
G01 X19.0756 Y20.9061
G01 X19.0708 Y20.9165
G01 X19.0341 Y20.9941
G01 X19.0239 Y21.0144
G01 X19.0127 Y21.0342
G01 X18.9685 Y21.1079
G01 X18.9564 Y21.1271
G01 X18.9433 Y21.1457
G01 X18.8852 Y21.2237
G01 X18.8781 Y21.2326
G01 X18.8633 Y21.2498
G01 X18.8056 Y21.3134
G01 X18.7899 Y21.3299
G01 X18.7734 Y21.3456
G01 X18.7098 Y21.4033
G01 X18.6926 Y21.4181
G01 X18.6747 Y21.4321
G01 X18.5965 Y21.4899
G01 X18.5871 Y21.4964
G01 X18.5679 Y21.5085
G01 X18.4942 Y21.5527
G01 X18.4744 Y21.5639
G01 X18.4643 Y21.5691
G01 X18.3765 Y21.6108
G01 X18.3557 Y21.6200
G01 X18.3345 Y21.6282
G01 X18.2639 Y21.6535
G01 X18.3345 Y21.6788
G01 X18.3557 Y21.6870
G01 X18.3765 Y21.6962
G01 X18.4541 Y21.7329
G01 X18.4744 Y21.7431
G01 X18.4942 Y21.7543
G01 X18.5679 Y21.7985
G01 X18.5871 Y21.8106
G01 X18.6057 Y21.8237
G01 X18.6747 Y21.8749
G01 X18.6926 Y21.8889
G01 X18.7098 Y21.9037
G01 X18.7734 Y21.9614
G01 X18.7899 Y21.9771
G01 X18.7979 Y21.9852
G01 X18.8633 Y22.0572
G01 X18.8781 Y22.0744
G01 X18.8921 Y22.0923
G01 X18.9499 Y22.1705
G01 X18.9564 Y22.1799
G01 X18.9685 Y22.1991
G01 X19.0127 Y22.2728
G01 X19.0239 Y22.2926
G01 X19.0341 Y22.3129
G01 X19.0708 Y22.3905
G01 X19.0800 Y22.4113
G01 X19.0882 Y22.4325
G01 X19.1172 Y22.5134
G01 X19.1243 Y22.5350
G01 X19.1304 Y22.5569
G01 X19.1512 Y22.6402
G01 X19.1562 Y22.6624
G01 X19.1601 Y22.6848
G01 X19.1727 Y22.7697
G01 X19.1755 Y22.7923
G01 X19.1765 Y22.8036
G01 X19.1814 Y22.9008
G01 X19.1819 Y22.9235
G01 X19.1814 Y22.9462
G01 X19.1772 Y23.0320
G01 X19.1755 Y23.0547
G01 X19.1727 Y23.0773
G01 X19.1601 Y23.1622
G01 X19.1562 Y23.1846
G01 X19.1512 Y23.2068
G01 X19.1304 Y23.2901
G01 X19.1275 Y23.3011
G01 X19.1209 Y23.3229
G01 X19.0882 Y23.4145
G01 X19.0800 Y23.4357
G01 X19.0708 Y23.4565
G01 X19.0291 Y23.5443
G01 X19.0239 Y23.5544
G01 X19.0127 Y23.5742
G01 X18.9685 Y23.6479
G01 X18.9564 Y23.6671
G01 X18.9433 Y23.6857
G01 X18.8921 Y23.7547
G01 X18.8781 Y23.7726
G01 X18.8633 Y23.7898
G01 X18.7979 Y23.8618
G01 X18.7899 Y23.8699
G01 X18.7734 Y23.8856
G01 X18.7098 Y23.9433
G01 X18.6926 Y23.9581
G01 X18.6747 Y23.9721
G01 X18.6057 Y24.0233
G01 X18.5871 Y24.0364
G01 X18.5679 Y24.0485
G01 X18.4942 Y24.0927
G01 X18.4744 Y24.1039
G01 X18.4541 Y24.1141
G01 X18.3765 Y24.1508
G01 X18.3557 Y24.1600
G01 X18.3345 Y24.1682
G01 X18.2639 Y24.1935
G01 X18.3345 Y24.2188
G01 X18.3557 Y24.2270
G01 X18.3765 Y24.2362
G01 X18.4541 Y24.2729
G01 X18.4744 Y24.2831
G01 X18.4942 Y24.2943
G01 X18.5679 Y24.3385
G01 X18.5871 Y24.3506
G01 X18.6057 Y24.3637
G01 X18.6747 Y24.4149
G01 X18.6926 Y24.4289
G01 X18.7098 Y24.4437
G01 X18.7734 Y24.5014
G01 X18.7899 Y24.5171
G01 X18.7979 Y24.5252
G01 X18.8633 Y24.5972
G01 X18.8781 Y24.6144
G01 X18.8921 Y24.6323
G01 X18.9499 Y24.7105
G01 X18.9564 Y24.7199
G01 X18.9685 Y24.7391
G01 X19.0127 Y24.8128
G01 X19.0239 Y24.8326
G01 X19.0341 Y24.8529
G01 X19.0708 Y24.9305
G01 X19.0800 Y24.9513
G01 X19.0882 Y24.9725
G01 X19.1172 Y25.0534
G01 X19.1243 Y25.0750
G01 X19.1304 Y25.0969
G01 X19.1512 Y25.1802
G01 X19.1562 Y25.2024
G01 X19.1601 Y25.2248
G01 X19.1727 Y25.3097
G01 X19.1755 Y25.3323
G01 X19.1765 Y25.3436
G01 X19.1814 Y25.4408
G01 X19.1819 Y25.4635
G01 X19.1814 Y25.4862
G01 X19.1772 Y25.5720
G01 X19.1755 Y25.5947
G01 X19.1727 Y25.6173
G01 X19.1601 Y25.7022
G01 X19.1562 Y25.7246
G01 X19.1512 Y25.7468
G01 X19.1304 Y25.8301
G01 X19.1275 Y25.8411
G01 X19.1209 Y25.8629
G01 X19.0882 Y25.9545
G01 X19.0800 Y25.9757
G01 X19.0708 Y25.9965
G01 X19.0291 Y26.0843
G01 X19.0239 Y26.0944
G01 X19.0127 Y26.1142
G01 X18.9685 Y26.1879
G01 X18.9564 Y26.2071
G01 X18.9433 Y26.2257
G01 X18.8921 Y26.2947
G01 X18.8781 Y26.3126
G01 X18.8633 Y26.3298
G01 X18.7979 Y26.4018
G01 X18.7818 Y26.4179
G01 X18.7734 Y26.4256
G01 X18.7098 Y26.4833
G01 X18.6926 Y26.4981
G01 X18.6747 Y26.5121
G01 X18.6057 Y26.5633
G01 X18.5871 Y26.5764
G01 X18.5679 Y26.5885
G01 X18.4942 Y26.6327
G01 X18.4744 Y26.6439
G01 X18.4541 Y26.6541
G01 X18.3765 Y26.6908
G01 X18.3557 Y26.7000
G01 X18.3345 Y26.7082
G01 X18.2639 Y26.7335
G01 X18.3345 Y26.7588
G01 X18.3557 Y26.7670
G01 X18.3765 Y26.7762
G01 X18.4541 Y26.8129
G01 X18.4744 Y26.8231
G01 X18.4942 Y26.8343
G01 X18.5679 Y26.8785
G01 X18.5871 Y26.8906
G01 X18.6057 Y26.9037
G01 X18.6747 Y26.9549
G01 X18.6926 Y26.9689
G01 X18.7098 Y26.9837
G01 X18.7734 Y27.0414
G01 X18.7818 Y27.0491
G01 X18.7979 Y27.0652
G01 X18.8633 Y27.1372
G01 X18.8781 Y27.1544
G01 X18.8921 Y27.1723
G01 X18.9499 Y27.2505
G01 X18.9564 Y27.2599
G01 X18.9685 Y27.2791
G01 X19.0127 Y27.3528
G01 X19.0239 Y27.3726
G01 X19.0341 Y27.3929
G01 X19.0708 Y27.4705
G01 X19.0800 Y27.4913
G01 X19.0882 Y27.5125
G01 X19.1172 Y27.5934
G01 X19.1243 Y27.6150
G01 X19.1304 Y27.6369
G01 X19.1512 Y27.7202
G01 X19.1562 Y27.7424
G01 X19.1601 Y27.7648
G01 X19.1727 Y27.8497
G01 X19.1755 Y27.8723
G01 X19.1772 Y27.8950
G01 X19.1814 Y27.9808
G01 X19.1818 Y27.9921
G01 X19.1818 Y28.0149
G01 X19.1772 Y28.1120
G01 X19.1755 Y28.1347
G01 X19.1727 Y28.1573
G01 X19.1601 Y28.2422
G01 X19.1562 Y28.2646
G01 X19.1512 Y28.2868
G01 X19.1304 Y28.3701
G01 X19.1275 Y28.3811
G01 X19.1209 Y28.4029
G01 X19.0882 Y28.4945
G01 X19.0800 Y28.5157
G01 X19.0708 Y28.5365
G01 X19.0291 Y28.6243
G01 X19.0184 Y28.6444
G01 X19.0127 Y28.6542
G01 X18.9685 Y28.7279
G01 X18.9564 Y28.7471
G01 X18.9433 Y28.7657
G01 X18.8921 Y28.8347
G01 X18.8781 Y28.8526
G01 X18.8633 Y28.8698
G01 X18.7979 Y28.9418
G01 X18.7899 Y28.9499
G01 X18.7734 Y28.9656
G01 X18.7098 Y29.0233
G01 X18.6926 Y29.0381
G01 X18.6747 Y29.0521
G01 X18.6057 Y29.1033
G01 X18.5871 Y29.1164
G01 X18.5679 Y29.1285
G01 X18.4942 Y29.1727
G01 X18.4744 Y29.1839
G01 X18.4541 Y29.1941
G01 X18.3765 Y29.2308
G01 X18.3557 Y29.2400
G01 X18.3345 Y29.2482
G01 X18.2639 Y29.2735
G01 X18.3345 Y29.2988
G01 X18.3557 Y29.3070
G01 X18.3765 Y29.3162
G01 X18.4541 Y29.3529
G01 X18.4744 Y29.3631
G01 X18.4942 Y29.3743
G01 X18.5679 Y29.4185
G01 X18.5871 Y29.4306
G01 X18.6057 Y29.4437
G01 X18.6747 Y29.4949
G01 X18.6926 Y29.5089
G01 X18.7098 Y29.5237
G01 X18.7734 Y29.5814
G01 X18.7899 Y29.5971
G01 X18.7979 Y29.6052
G01 X18.8633 Y29.6772
G01 X18.8781 Y29.6944
G01 X18.8921 Y29.7123
G01 X18.9499 Y29.7905
G01 X18.9564 Y29.7999
G01 X18.9685 Y29.8191
G01 X19.0127 Y29.8928
G01 X19.0239 Y29.9126
G01 X19.0341 Y29.9329
G01 X19.0708 Y30.0105
G01 X19.0800 Y30.0313
G01 X19.0882 Y30.0525
G01 X19.1172 Y30.1334
G01 X19.1243 Y30.1550
G01 X19.1304 Y30.1769
G01 X19.1512 Y30.2602
G01 X19.1562 Y30.2824
G01 X19.1601 Y30.3048
G01 X19.1727 Y30.3897
G01 X19.1755 Y30.4123
G01 X19.1772 Y30.4350
G01 X19.1814 Y30.5208
G01 X19.1818 Y30.5321
G01 X19.1818 Y30.5549
G01 X19.1772 Y30.6520
G01 X19.1755 Y30.6747
G01 X19.1727 Y30.6973
G01 X19.1601 Y30.7822
G01 X19.1562 Y30.8046
G01 X19.1512 Y30.8268
G01 X19.1304 Y30.9101
G01 X19.1275 Y30.9211
G01 X19.1209 Y30.9429
G01 X19.0882 Y31.0345
G01 X19.0800 Y31.0557
G01 X19.0708 Y31.0765
G01 X19.0291 Y31.1643
G01 X19.0239 Y31.1744
G01 X19.0127 Y31.1942
G01 X18.9685 Y31.2679
G01 X18.9564 Y31.2871
G01 X18.9433 Y31.3057
G01 X18.8921 Y31.3747
G01 X18.8781 Y31.3926
G01 X18.8633 Y31.4098
G01 X18.7979 Y31.4818
G01 X18.7818 Y31.4979
G01 X18.7734 Y31.5056
G01 X18.7098 Y31.5633
G01 X18.6926 Y31.5781
G01 X18.6747 Y31.5921
G01 X18.6057 Y31.6433
G01 X18.5871 Y31.6564
G01 X18.5679 Y31.6685
G01 X18.4942 Y31.7127
G01 X18.4744 Y31.7239
G01 X18.4541 Y31.7341
G01 X18.3765 Y31.7708
G01 X18.3557 Y31.7800
G01 X18.3345 Y31.7882
G01 X18.2639 Y31.8135
G01 X18.3345 Y31.8388
G01 X18.3557 Y31.8470
G01 X18.3765 Y31.8562
G01 X18.4541 Y31.8929
G01 X18.4744 Y31.9031
G01 X18.4942 Y31.9143
G01 X18.5679 Y31.9585
G01 X18.5871 Y31.9706
G01 X18.6057 Y31.9837
G01 X18.6747 Y32.0349
G01 X18.6926 Y32.0489
G01 X18.7098 Y32.0637
G01 X18.7734 Y32.1214
G01 X18.7818 Y32.1291
G01 X18.7979 Y32.1452
G01 X18.8633 Y32.2172
G01 X18.8781 Y32.2344
G01 X18.8921 Y32.2523
G01 X18.9499 Y32.3305
G01 X18.9626 Y32.3494
G01 X18.9685 Y32.3591
G01 X19.0127 Y32.4328
G01 X19.0239 Y32.4526
G01 X19.0341 Y32.4729
G01 X19.0708 Y32.5505
G01 X19.0800 Y32.5713
G01 X19.0882 Y32.5925
G01 X19.1172 Y32.6734
G01 X19.1243 Y32.6950
G01 X19.1304 Y32.7169
G01 X19.1512 Y32.8002
G01 X19.1562 Y32.8224
G01 X19.1601 Y32.8448
G01 X19.1727 Y32.9297
G01 X19.1755 Y32.9523
G01 X19.1772 Y32.9750
G01 X19.1814 Y33.0608
G01 X19.1818 Y33.0721
G01 X19.1818 Y33.0949
G01 X19.1772 Y33.1920
G01 X19.1755 Y33.2147
G01 X19.1727 Y33.2373
G01 X19.1601 Y33.3222
G01 X19.1562 Y33.3446
G01 X19.1512 Y33.3668
G01 X19.1304 Y33.4501
G01 X19.1275 Y33.4611
G01 X19.1209 Y33.4829
G01 X19.0882 Y33.5745
G01 X19.0800 Y33.5957
G01 X19.0708 Y33.6165
G01 X19.0291 Y33.7043
G01 X19.0184 Y33.7244
G01 X19.0127 Y33.7342
G01 X18.9685 Y33.8079
G01 X18.9564 Y33.8271
G01 X18.9433 Y33.8457
G01 X18.8921 Y33.9147
G01 X18.8781 Y33.9326
G01 X18.8633 Y33.9498
G01 X18.7979 Y34.0218
G01 X18.7899 Y34.0299
G01 X18.7734 Y34.0456
G01 X18.7098 Y34.1033
G01 X18.6926 Y34.1181
G01 X18.6747 Y34.1321
G01 X18.6057 Y34.1833
G01 X18.5871 Y34.1964
G01 X18.5679 Y34.2085
G01 X18.4942 Y34.2527
G01 X18.4744 Y34.2639
G01 X18.4541 Y34.2741
G01 X18.3765 Y34.3108
G01 X18.3557 Y34.3200
G01 X18.3345 Y34.3282
G01 X18.2639 Y34.3535
G01 X18.3345 Y34.3788
G01 X18.3557 Y34.3870
G01 X18.3765 Y34.3962
G01 X18.4541 Y34.4329
G01 X18.4744 Y34.4431
G01 X18.4942 Y34.4543
G01 X18.5679 Y34.4985
G01 X18.5871 Y34.5106
G01 X18.6057 Y34.5237
G01 X18.6747 Y34.5749
G01 X18.6926 Y34.5889
G01 X18.7098 Y34.6037
G01 X18.7734 Y34.6614
G01 X18.7899 Y34.6771
G01 X18.7979 Y34.6852
G01 X18.8633 Y34.7572
G01 X18.8781 Y34.7744
G01 X18.8921 Y34.7923
G01 X18.9499 Y34.8705
G01 X18.9626 Y34.8894
G01 X18.9685 Y34.8991
G01 X19.0127 Y34.9728
G01 X19.0239 Y34.9926
G01 X19.0341 Y35.0129
G01 X19.0708 Y35.0905
G01 X19.0800 Y35.1113
G01 X19.0882 Y35.1325
G01 X19.1172 Y35.2134
G01 X19.1243 Y35.2350
G01 X19.1304 Y35.2569
G01 X19.1512 Y35.3402
G01 X19.1562 Y35.3624
G01 X19.1601 Y35.3848
G01 X19.1727 Y35.4697
G01 X19.1755 Y35.4923
G01 X19.1772 Y35.5150
G01 X19.1814 Y35.6008
G01 X19.1818 Y35.6121
G01 X19.1818 Y35.6349
G01 X19.1772 Y35.7320
G01 X19.1755 Y35.7547
G01 X19.1727 Y35.7773
G01 X19.1601 Y35.8622
G01 X19.1562 Y35.8846
G01 X19.1512 Y35.9068
G01 X19.1304 Y35.9901
G01 X19.1243 Y36.0120
G01 X19.1209 Y36.0229
G01 X19.0882 Y36.1145
G01 X19.0800 Y36.1357
G01 X19.0708 Y36.1565
G01 X19.0291 Y36.2443
G01 X19.0184 Y36.2644
G01 X19.0127 Y36.2742
G01 X18.9685 Y36.3479
G01 X18.9564 Y36.3671
G01 X18.9433 Y36.3857
G01 X18.8921 Y36.4547
G01 X18.8781 Y36.4726
G01 X18.8633 Y36.4898
G01 X18.7979 Y36.5618
G01 X18.7899 Y36.5699
G01 X18.7734 Y36.5856
G01 X18.7098 Y36.6433
G01 X18.6926 Y36.6581
G01 X18.6747 Y36.6721
G01 X18.6057 Y36.7233
G01 X18.5871 Y36.7364
G01 X18.5679 Y36.7485
G01 X18.4942 Y36.7927
G01 X18.4744 Y36.8039
G01 X18.4541 Y36.8141
G01 X18.3765 Y36.8508
G01 X18.3557 Y36.8600
G01 X18.3345 Y36.8682
G01 X18.2639 Y36.8935
G01 X18.3345 Y36.9188
G01 X18.3557 Y36.9270
G01 X18.3765 Y36.9362
G01 X18.4541 Y36.9729
G01 X18.4744 Y36.9831
G01 X18.4942 Y36.9943
G01 X18.5679 Y37.0385
G01 X18.5871 Y37.0506
G01 X18.6057 Y37.0637
G01 X18.6747 Y37.1149
G01 X18.6926 Y37.1289
G01 X18.7098 Y37.1437
G01 X18.7734 Y37.2014
G01 X18.7818 Y37.2091
G01 X18.7979 Y37.2252
G01 X18.8633 Y37.2972
G01 X18.8781 Y37.3144
G01 X18.8921 Y37.3323
G01 X18.9499 Y37.4105
G01 X18.9626 Y37.4294
G01 X18.9685 Y37.4391
G01 X19.0127 Y37.5128
G01 X19.0239 Y37.5326
G01 X19.0341 Y37.5529
G01 X19.0708 Y37.6305
G01 X19.0800 Y37.6513
G01 X19.0882 Y37.6725
G01 X19.1172 Y37.7534
G01 X19.1243 Y37.7750
G01 X19.1304 Y37.7969
G01 X19.1512 Y37.8802
G01 X19.1562 Y37.9024
G01 X19.1601 Y37.9248
G01 X19.1727 Y38.0097
G01 X19.1755 Y38.0323
G01 X19.1772 Y38.0550
G01 X19.1814 Y38.1408
G01 X19.1818 Y38.1521
G01 X19.1818 Y38.1749
G01 X19.1772 Y38.2720
G01 X19.1755 Y38.2947
G01 X19.1727 Y38.3173
G01 X19.1601 Y38.4022
G01 X19.1562 Y38.4246
G01 X19.1512 Y38.4468
G01 X19.1304 Y38.5301
G01 X19.1275 Y38.5411
G01 X19.1209 Y38.5629
G01 X19.0882 Y38.6545
G01 X19.0800 Y38.6757
G01 X19.0708 Y38.6965
G01 X19.0291 Y38.7843
G01 X19.0184 Y38.8044
G01 X19.0127 Y38.8142
G01 X18.9685 Y38.8879
G01 X18.9564 Y38.9071
G01 X18.9433 Y38.9257
G01 X18.8921 Y38.9947
G01 X18.8781 Y39.0126
G01 X18.8633 Y39.0298
G01 X18.7979 Y39.1018
G01 X18.7818 Y39.1179
G01 X18.7734 Y39.1256
G01 X18.7098 Y39.1833
G01 X18.6926 Y39.1981
G01 X18.6747 Y39.2121
G01 X18.6057 Y39.2633
G01 X18.5871 Y39.2764
G01 X18.5679 Y39.2885
G01 X18.4942 Y39.3327
G01 X18.4744 Y39.3439
G01 X18.4541 Y39.3541
G01 X18.3765 Y39.3908
G01 X18.3557 Y39.4000
G01 X18.3345 Y39.4082
G01 X18.2639 Y39.4335
G01 X18.3345 Y39.4588
G01 X18.3557 Y39.4670
G01 X18.3765 Y39.4762
G01 X18.4541 Y39.5129
G01 X18.4744 Y39.5231
G01 X18.4942 Y39.5343
G01 X18.5679 Y39.5785
G01 X18.5871 Y39.5906
G01 X18.6057 Y39.6037
G01 X18.6747 Y39.6549
G01 X18.6926 Y39.6689
G01 X18.7098 Y39.6837
G01 X18.7734 Y39.7414
G01 X18.7818 Y39.7491
G01 X18.7979 Y39.7652
G01 X18.8633 Y39.8372
G01 X18.8781 Y39.8544
G01 X18.8921 Y39.8723
G01 X18.9499 Y39.9505
G01 X18.9626 Y39.9694
G01 X18.9685 Y39.9791
G01 X19.0127 Y40.0528
G01 X19.0239 Y40.0726
G01 X19.0341 Y40.0929
G01 X19.0708 Y40.1705
G01 X19.0800 Y40.1913
G01 X19.0882 Y40.2125
G01 X19.1172 Y40.2934
G01 X19.1243 Y40.3150
G01 X19.1304 Y40.3369
G01 X19.1512 Y40.4202
G01 X19.1562 Y40.4424
G01 X19.1601 Y40.4648
G01 X19.1727 Y40.5497
G01 X19.1755 Y40.5723
G01 X19.1772 Y40.5950
G01 X19.1814 Y40.6808
G01 X19.1818 Y40.6921
G01 X19.1818 Y40.7149
G01 X19.1772 Y40.8120
G01 X19.1755 Y40.8347
G01 X19.1727 Y40.8573
G01 X19.1601 Y40.9422
G01 X19.1562 Y40.9646
G01 X19.1512 Y40.9868
G01 X19.1304 Y41.0701
G01 X19.1243 Y41.0920
G01 X19.1209 Y41.1029
G01 X19.0882 Y41.1945
G01 X19.0800 Y41.2157
G01 X19.0708 Y41.2365
G01 X19.0291 Y41.3243
G01 X19.0184 Y41.3444
G01 X19.0127 Y41.3542
G01 X18.9685 Y41.4279
G01 X18.9564 Y41.4471
G01 X18.9433 Y41.4657
G01 X18.8921 Y41.5347
G01 X18.8781 Y41.5526
G01 X18.8633 Y41.5698
G01 X18.7979 Y41.6418
G01 X18.7899 Y41.6499
G01 X18.7734 Y41.6656
G01 X18.7098 Y41.7233
G01 X18.6926 Y41.7381
G01 X18.6747 Y41.7521
G01 X18.6057 Y41.8033
G01 X18.5871 Y41.8164
G01 X18.5679 Y41.8285
G01 X18.4942 Y41.8727
G01 X18.4744 Y41.8839
G01 X18.4541 Y41.8941
G01 X18.3765 Y41.9308
G01 X18.3557 Y41.9400
G01 X18.3345 Y41.9482
G01 X18.2639 Y41.9735
G01 X18.3345 Y41.9988
G01 X18.3557 Y42.0070
G01 X18.3765 Y42.0162
G01 X18.4541 Y42.0529
G01 X18.4744 Y42.0631
G01 X18.4942 Y42.0743
G01 X18.5679 Y42.1185
G01 X18.5871 Y42.1306
G01 X18.6057 Y42.1437
G01 X18.6747 Y42.1949
G01 X18.6926 Y42.2089
G01 X18.7098 Y42.2237
G01 X18.7734 Y42.2814
G01 X18.7818 Y42.2891
G01 X18.7979 Y42.3052
G01 X18.8633 Y42.3772
G01 X18.8781 Y42.3944
G01 X18.8921 Y42.4123
G01 X18.9499 Y42.4905
G01 X18.9564 Y42.4999
G01 X18.9685 Y42.5191
G01 X19.0127 Y42.5928
G01 X19.0239 Y42.6126
G01 X19.0341 Y42.6329
G01 X19.0708 Y42.7105
G01 X19.0800 Y42.7313
G01 X19.0882 Y42.7525
G01 X19.1172 Y42.8334
G01 X19.1243 Y42.8550
G01 X19.1304 Y42.8769
G01 X19.1512 Y42.9602
G01 X19.1562 Y42.9824
G01 X19.1601 Y43.0048
G01 X19.1727 Y43.0897
G01 X19.1755 Y43.1123
G01 X19.1772 Y43.1350
G01 X19.1814 Y43.2208
G01 X19.1818 Y43.2321
G01 X19.1818 Y43.2549
G01 X19.1772 Y43.3520
G01 X19.1755 Y43.3747
G01 X19.1727 Y43.3973
G01 X19.1601 Y43.4822
G01 X19.1562 Y43.5046
G01 X19.1512 Y43.5268
G01 X19.1304 Y43.6101
G01 X19.1243 Y43.6320
G01 X19.1209 Y43.6429
G01 X19.0882 Y43.7345
G01 X19.0800 Y43.7557
G01 X19.0708 Y43.7765
G01 X19.0291 Y43.8643
G01 X19.0239 Y43.8744
G01 X19.0127 Y43.8942
G01 X18.9685 Y43.9679
G01 X18.9564 Y43.9871
G01 X18.9433 Y44.0057
G01 X18.8921 Y44.0747
G01 X18.8781 Y44.0926
G01 X18.8633 Y44.1098
G01 X18.7979 Y44.1818
G01 X18.7899 Y44.1899
G01 X18.7734 Y44.2056
G01 X18.7098 Y44.2633
G01 X18.6926 Y44.2781
G01 X18.6747 Y44.2921
G01 X18.6057 Y44.3433
G01 X18.5871 Y44.3564
G01 X18.5679 Y44.3685
G01 X18.4942 Y44.4127
G01 X18.4744 Y44.4239
G01 X18.4541 Y44.4341
G01 X18.3765 Y44.4708
G01 X18.3557 Y44.4800
G01 X18.3345 Y44.4882
G01 X18.2639 Y44.5135
G01 X18.3345 Y44.5388
G01 X18.3557 Y44.5470
G01 X18.3765 Y44.5562
G01 X18.4541 Y44.5929
G01 X18.4744 Y44.6031
G01 X18.4942 Y44.6143
G01 X18.5679 Y44.6585
G01 X18.5871 Y44.6706
G01 X18.6057 Y44.6837
G01 X18.6747 Y44.7349
G01 X18.6926 Y44.7489
G01 X18.7098 Y44.7637
G01 X18.7734 Y44.8214
G01 X18.7899 Y44.8371
G01 X18.7979 Y44.8452
G01 X18.8633 Y44.9172
G01 X18.8781 Y44.9344
G01 X18.8921 Y44.9523
G01 X18.9499 Y45.0305
G01 X18.9626 Y45.0494
G01 X18.9685 Y45.0591
G01 X19.0127 Y45.1328
G01 X19.0239 Y45.1526
G01 X19.0341 Y45.1729
G01 X19.0708 Y45.2505
G01 X19.0800 Y45.2713
G01 X19.0882 Y45.2925
G01 X19.1172 Y45.3734
G01 X19.1243 Y45.3950
G01 X19.1304 Y45.4169
G01 X19.1512 Y45.5002
G01 X19.1562 Y45.5224
G01 X19.1601 Y45.5448
G01 X19.1727 Y45.6297
G01 X19.1755 Y45.6523
G01 X19.1772 Y45.6750
G01 X19.1814 Y45.7608
G01 X19.1818 Y45.7721
G01 X19.1818 Y45.7949
G01 X19.1772 Y45.8920
G01 X19.1755 Y45.9147
G01 X19.1727 Y45.9373
G01 X19.1583 Y46.0334
G01 X19.1539 Y46.0557
G01 X19.1512 Y46.0668
G01 X19.1304 Y46.1501
G01 X19.1243 Y46.1720
G01 X19.1172 Y46.1936
G01 X19.0882 Y46.2745
G01 X19.0800 Y46.2957
G01 X19.0708 Y46.3165
G01 X19.0341 Y46.3941
G01 X19.0239 Y46.4144
G01 X19.0127 Y46.4342
G01 X18.9685 Y46.5079
G01 X18.9564 Y46.5271
G01 X18.9433 Y46.5457
G01 X18.8921 Y46.6147
G01 X18.8781 Y46.6326
G01 X18.8633 Y46.6498
G01 X18.7979 Y46.7218
G01 X18.7899 Y46.7299
G01 X18.7734 Y46.7456
G01 X18.7098 Y46.8033
G01 X18.6926 Y46.8181
G01 X18.6747 Y46.8321
G01 X18.6057 Y46.8833
G01 X18.5871 Y46.8964
G01 X18.5679 Y46.9085
G01 X18.4942 Y46.9527
G01 X18.4744 Y46.9639
G01 X18.4541 Y46.9741
G01 X18.3765 Y47.0108
G01 X18.3557 Y47.0200
G01 X18.3345 Y47.0282
G01 X18.2536 Y47.0572
G01 X18.2320 Y47.0643
G01 X18.2211 Y47.0675
G01 X18.1157 Y47.0939
G01 X18.1046 Y47.0962
G01 X18.0822 Y47.1001
G01 X17.9973 Y47.1127
G01 X17.9747 Y47.1155
G01 X17.9520 Y47.1172
G01 X17.8549 Y47.1218
G01 X17.8435 Y47.1219
G01 X17.8208 Y47.1214
G01 X17.7350 Y47.1172
G01 X17.7123 Y47.1155
G01 X17.6897 Y47.1127
G01 X17.6048 Y47.1001
G01 X17.5824 Y47.0962
G01 X17.5602 Y47.0912
G01 X17.4769 Y47.0704
G01 X17.4550 Y47.0643
G01 X17.4334 Y47.0572
G01 X17.3525 Y47.0282
G01 X17.3313 Y47.0200
G01 X17.3105 Y47.0108
G01 X17.2329 Y46.9741
G01 X17.2126 Y46.9639
G01 X17.1928 Y46.9527
G01 X17.1191 Y46.9085
G01 X17.0999 Y46.8964
G01 X17.0813 Y46.8833
G01 X17.0123 Y46.8321
G01 X16.9944 Y46.8181
G01 X16.9772 Y46.8033
G01 X16.9153 Y46.7471
G01 X6.0717 Y46.7471
G01 X6.0098 Y46.8033
G01 X5.9926 Y46.8181
G01 X5.9747 Y46.8321
G01 X5.9057 Y46.8833
G01 X5.8965 Y46.8899
G01 X5.8776 Y46.9026
G01 X5.7942 Y46.9527
G01 X5.7744 Y46.9639
G01 X5.7643 Y46.9691
G01 X5.6661 Y47.0156
G01 X5.6557 Y47.0200
G01 X5.6345 Y47.0282
G01 X5.5536 Y47.0572
G01 X5.5429 Y47.0609
G01 X5.5211 Y47.0675
G01 X5.4157 Y47.0939
G01 X5.3934 Y47.0983
G01 X5.3822 Y47.1001
G01 X5.2860 Y47.1142
G01 X5.2634 Y47.1165
G01 X5.2520 Y47.1172
G01 X5.1662 Y47.1214
G01 X5.1435 Y47.1219
G01 X5.1208 Y47.1214
G01 X5.0236 Y47.1165
G01 X5.0010 Y47.1142
G01 X4.9897 Y47.1127
G01 X4.9048 Y47.1001
G01 X4.8824 Y47.0962
G01 X4.8602 Y47.0912
G01 X4.7769 Y47.0704
G01 X4.7550 Y47.0643
G01 X4.7334 Y47.0572
G01 X4.6525 Y47.0282
G01 X4.6313 Y47.0200
G01 X4.6105 Y47.0108
G01 X4.5329 Y46.9741
G01 X4.5126 Y46.9639
G01 X4.4928 Y46.9527
G01 X4.4191 Y46.9085
G01 X4.3999 Y46.8964
G01 X4.3813 Y46.8833
G01 X4.3123 Y46.8321
G01 X4.2944 Y46.8181
G01 X4.2772 Y46.8033
G01 X4.2136 Y46.7456
G01 X4.1971 Y46.7299
G01 X4.1814 Y46.7134
G01 X4.1237 Y46.6498
G01 X4.1089 Y46.6326
G01 X4.0949 Y46.6147
G01 X4.0437 Y46.5457
G01 X4.0306 Y46.5271
G01 X4.0185 Y46.5079
G01 X3.9743 Y46.4342
G01 X3.9631 Y46.4144
G01 X3.9529 Y46.3941
G01 X3.9162 Y46.3165
G01 X3.9070 Y46.2957
G01 X3.8988 Y46.2745
G01 X3.8698 Y46.1936
G01 X3.8627 Y46.1720
G01 X3.8595 Y46.1611
G01 X3.8358 Y46.0668
G01 X3.8308 Y46.0446
G01 X3.8269 Y46.0222
G01 X3.8143 Y45.9373
G01 X3.8115 Y45.9147
G01 X3.8098 Y45.8920
G01 X3.8056 Y45.8062
G01 X3.8051 Y45.7835
G01 X3.8056 Y45.7608
G01 X3.8098 Y45.6750
G01 X3.8115 Y45.6523
G01 X3.8143 Y45.6297
G01 X3.8269 Y45.5448
G01 X3.8308 Y45.5224
G01 X3.8358 Y45.5002
G01 X3.8566 Y45.4169
G01 X3.8627 Y45.3950
G01 X3.8698 Y45.3734
G01 X3.8988 Y45.2925
G01 X3.9070 Y45.2713
G01 X3.9162 Y45.2505
G01 X3.9529 Y45.1729
G01 X3.9631 Y45.1526
G01 X3.9743 Y45.1328
G01 X4.0185 Y45.0591
G01 X4.0306 Y45.0399
G01 X4.0437 Y45.0213
G01 X4.0949 Y44.9523
G01 X4.1089 Y44.9344
G01 X4.1237 Y44.9172
G01 X4.1814 Y44.8536
G01 X4.1971 Y44.8371
G01 X4.2136 Y44.8214
G01 X4.2772 Y44.7637
G01 X4.2944 Y44.7489
G01 X4.3123 Y44.7349
G01 X4.3813 Y44.6837
G01 X4.3999 Y44.6706
G01 X4.4191 Y44.6585
G01 X4.4928 Y44.6143
G01 X4.5126 Y44.6031
G01 X4.5329 Y44.5929
G01 X4.6105 Y44.5562
G01 X4.6313 Y44.5470
G01 X4.6525 Y44.5388
G01 X4.7231 Y44.5135
G01 X4.6525 Y44.4882
G01 X4.6313 Y44.4800
G01 X4.6105 Y44.4708
G01 X4.5329 Y44.4341
G01 X4.5126 Y44.4239
G01 X4.4928 Y44.4127
G01 X4.4191 Y44.3685
G01 X4.3999 Y44.3564
G01 X4.3813 Y44.3433
G01 X4.3123 Y44.2921
G01 X4.2944 Y44.2781
G01 X4.2772 Y44.2633
G01 X4.2136 Y44.2056
G01 X4.1971 Y44.1899
G01 X4.1814 Y44.1734
G01 X4.1237 Y44.1098
G01 X4.1089 Y44.0926
G01 X4.0949 Y44.0747
G01 X4.0437 Y44.0057
G01 X4.0306 Y43.9871
G01 X4.0185 Y43.9679
G01 X3.9686 Y43.8844
G01 X3.9579 Y43.8643
G01 X3.9529 Y43.8541
G01 X3.9162 Y43.7765
G01 X3.9070 Y43.7557
G01 X3.8988 Y43.7345
G01 X3.8698 Y43.6536
G01 X3.8627 Y43.6320
G01 X3.8566 Y43.6101
G01 X3.8331 Y43.5157
G01 X3.8308 Y43.5046
G01 X3.8269 Y43.4822
G01 X3.8143 Y43.3973
G01 X3.8115 Y43.3747
G01 X3.8098 Y43.3520
G01 X3.8056 Y43.2662
G01 X3.8051 Y43.2435
G01 X3.8056 Y43.2208
G01 X3.8098 Y43.1350
G01 X3.8115 Y43.1123
G01 X3.8143 Y43.0897
G01 X3.8269 Y43.0048
G01 X3.8308 Y42.9824
G01 X3.8358 Y42.9602
G01 X3.8566 Y42.8769
G01 X3.8627 Y42.8550
G01 X3.8698 Y42.8334
G01 X3.8988 Y42.7525
G01 X3.9070 Y42.7313
G01 X3.9162 Y42.7105
G01 X3.9529 Y42.6329
G01 X3.9631 Y42.6126
G01 X3.9743 Y42.5928
G01 X4.0185 Y42.5191
G01 X4.0306 Y42.4999
G01 X4.0437 Y42.4813
G01 X4.0949 Y42.4123
G01 X4.1089 Y42.3944
G01 X4.1237 Y42.3772
G01 X4.1814 Y42.3136
G01 X4.1971 Y42.2971
G01 X4.2136 Y42.2814
G01 X4.2772 Y42.2237
G01 X4.2944 Y42.2089
G01 X4.3123 Y42.1949
G01 X4.3813 Y42.1437
G01 X4.3999 Y42.1306
G01 X4.4191 Y42.1185
G01 X4.4928 Y42.0743
G01 X4.5126 Y42.0631
G01 X4.5329 Y42.0529
G01 X4.6105 Y42.0162
G01 X4.6313 Y42.0070
G01 X4.6525 Y41.9988
G01 X4.7231 Y41.9735
G01 X4.6525 Y41.9482
G01 X4.6313 Y41.9400
G01 X4.6105 Y41.9308
G01 X4.5329 Y41.8941
G01 X4.5126 Y41.8839
G01 X4.4928 Y41.8727
G01 X4.4191 Y41.8285
G01 X4.3999 Y41.8164
G01 X4.3813 Y41.8033
G01 X4.3033 Y41.7452
G01 X4.2944 Y41.7381
G01 X4.2772 Y41.7233
G01 X4.2136 Y41.6656
G01 X4.1971 Y41.6499
G01 X4.1814 Y41.6334
G01 X4.1237 Y41.5698
G01 X4.1089 Y41.5526
G01 X4.0949 Y41.5347
G01 X4.0437 Y41.4657
G01 X4.0306 Y41.4471
G01 X4.0244 Y41.4376
G01 X3.9743 Y41.3542
G01 X3.9631 Y41.3344
G01 X3.9529 Y41.3141
G01 X3.9162 Y41.2365
G01 X3.9070 Y41.2157
G01 X3.8988 Y41.1945
G01 X3.8698 Y41.1136
G01 X3.8627 Y41.0920
G01 X3.8566 Y41.0701
G01 X3.8358 Y40.9868
G01 X3.8308 Y40.9646
G01 X3.8269 Y40.9422
G01 X3.8128 Y40.8460
G01 X3.8115 Y40.8347
G01 X3.8098 Y40.8120
G01 X3.8056 Y40.7262
G01 X3.8051 Y40.7035
G01 X3.8056 Y40.6808
G01 X3.8098 Y40.5950
G01 X3.8105 Y40.5836
G01 X3.8128 Y40.5610
G01 X3.8269 Y40.4648
G01 X3.8308 Y40.4424
G01 X3.8358 Y40.4202
G01 X3.8566 Y40.3369
G01 X3.8627 Y40.3150
G01 X3.8698 Y40.2934
G01 X3.8988 Y40.2125
G01 X3.9070 Y40.1913
G01 X3.9162 Y40.1705
G01 X3.9529 Y40.0929
G01 X3.9631 Y40.0726
G01 X3.9743 Y40.0528
G01 X4.0185 Y39.9791
G01 X4.0306 Y39.9599
G01 X4.0437 Y39.9413
G01 X4.0949 Y39.8723
G01 X4.1089 Y39.8544
G01 X4.1237 Y39.8372
G01 X4.1814 Y39.7736
G01 X4.1971 Y39.7571
G01 X4.2136 Y39.7414
G01 X4.2772 Y39.6837
G01 X4.2944 Y39.6689
G01 X4.3123 Y39.6549
G01 X4.3813 Y39.6037
G01 X4.3999 Y39.5906
G01 X4.4191 Y39.5785
G01 X4.4928 Y39.5343
G01 X4.5126 Y39.5231
G01 X4.5329 Y39.5129
G01 X4.6105 Y39.4762
G01 X4.6313 Y39.4670
G01 X4.6525 Y39.4588
G01 X4.7231 Y39.4335
G01 X4.6525 Y39.4082
G01 X4.6313 Y39.4000
G01 X4.6105 Y39.3908
G01 X4.5329 Y39.3541
G01 X4.5126 Y39.3439
G01 X4.4928 Y39.3327
G01 X4.4191 Y39.2885
G01 X4.3999 Y39.2764
G01 X4.3813 Y39.2633
G01 X4.3123 Y39.2121
G01 X4.2944 Y39.1981
G01 X4.2772 Y39.1833
G01 X4.2052 Y39.1179
G01 X4.1971 Y39.1099
G01 X4.1814 Y39.0934
G01 X4.1237 Y39.0298
G01 X4.1089 Y39.0126
G01 X4.0949 Y38.9947
G01 X4.0437 Y38.9257
G01 X4.0306 Y38.9071
G01 X4.0185 Y38.8879
G01 X3.9743 Y38.8142
G01 X3.9631 Y38.7944
G01 X3.9529 Y38.7741
G01 X3.9162 Y38.6965
G01 X3.9114 Y38.6861
G01 X3.9027 Y38.6651
G01 X3.8698 Y38.5736
G01 X3.8627 Y38.5520
G01 X3.8566 Y38.5301
G01 X3.8358 Y38.4468
G01 X3.8308 Y38.4246
G01 X3.8269 Y38.4022
G01 X3.8143 Y38.3173
G01 X3.8115 Y38.2947
G01 X3.8098 Y38.2720
G01 X3.8056 Y38.1862
G01 X3.8051 Y38.1635
G01 X3.8056 Y38.1408
G01 X3.8098 Y38.0550
G01 X3.8115 Y38.0323
G01 X3.8143 Y38.0097
G01 X3.8269 Y37.9248
G01 X3.8308 Y37.9024
G01 X3.8358 Y37.8802
G01 X3.8566 Y37.7969
G01 X3.8627 Y37.7750
G01 X3.8698 Y37.7534
G01 X3.8988 Y37.6725
G01 X3.9070 Y37.6513
G01 X3.9162 Y37.6305
G01 X3.9529 Y37.5529
G01 X3.9631 Y37.5326
G01 X3.9743 Y37.5128
G01 X4.0185 Y37.4391
G01 X4.0306 Y37.4199
G01 X4.0437 Y37.4013
G01 X4.0949 Y37.3323
G01 X4.1089 Y37.3144
G01 X4.1237 Y37.2972
G01 X4.1814 Y37.2336
G01 X4.1971 Y37.2171
G01 X4.2136 Y37.2014
G01 X4.2772 Y37.1437
G01 X4.2944 Y37.1289
G01 X4.3123 Y37.1149
G01 X4.3813 Y37.0637
G01 X4.3999 Y37.0506
G01 X4.4191 Y37.0385
G01 X4.4928 Y36.9943
G01 X4.5126 Y36.9831
G01 X4.5329 Y36.9729
G01 X4.6105 Y36.9362
G01 X4.6313 Y36.9270
G01 X4.6525 Y36.9188
G01 X4.7231 Y36.8935
G01 X4.6525 Y36.8682
G01 X4.6313 Y36.8600
G01 X4.6105 Y36.8508
G01 X4.5329 Y36.8141
G01 X4.5126 Y36.8039
G01 X4.4928 Y36.7927
G01 X4.4191 Y36.7485
G01 X4.3999 Y36.7364
G01 X4.3813 Y36.7233
G01 X4.3123 Y36.6721
G01 X4.2944 Y36.6581
G01 X4.2772 Y36.6433
G01 X4.2052 Y36.5779
G01 X4.1971 Y36.5699
G01 X4.1814 Y36.5534
G01 X4.1237 Y36.4898
G01 X4.1089 Y36.4726
G01 X4.0949 Y36.4547
G01 X4.0437 Y36.3857
G01 X4.0306 Y36.3671
G01 X4.0185 Y36.3479
G01 X3.9743 Y36.2742
G01 X3.9631 Y36.2544
G01 X3.9529 Y36.2341
G01 X3.9162 Y36.1565
G01 X3.9114 Y36.1461
G01 X3.9027 Y36.1251
G01 X3.8698 Y36.0336
G01 X3.8627 Y36.0120
G01 X3.8566 Y35.9901
G01 X3.8358 Y35.9068
G01 X3.8308 Y35.8846
G01 X3.8269 Y35.8622
G01 X3.8143 Y35.7773
G01 X3.8115 Y35.7547
G01 X3.8098 Y35.7320
G01 X3.8056 Y35.6462
G01 X3.8051 Y35.6235
G01 X3.8056 Y35.6008
G01 X3.8105 Y35.5036
G01 X3.8128 Y35.4810
G01 X3.8143 Y35.4697
G01 X3.8269 Y35.3848
G01 X3.8308 Y35.3624
G01 X3.8358 Y35.3402
G01 X3.8566 Y35.2569
G01 X3.8627 Y35.2350
G01 X3.8698 Y35.2134
G01 X3.8988 Y35.1325
G01 X3.9070 Y35.1113
G01 X3.9162 Y35.0905
G01 X3.9529 Y35.0129
G01 X3.9631 Y34.9926
G01 X3.9743 Y34.9728
G01 X4.0185 Y34.8991
G01 X4.0306 Y34.8799
G01 X4.0437 Y34.8613
G01 X4.1018 Y34.7833
G01 X4.1162 Y34.7657
G01 X4.1237 Y34.7572
G01 X4.1814 Y34.6936
G01 X4.1971 Y34.6771
G01 X4.2136 Y34.6614
G01 X4.2772 Y34.6037
G01 X4.2944 Y34.5889
G01 X4.3123 Y34.5749
G01 X4.3905 Y34.5171
G01 X4.4094 Y34.5044
G01 X4.4191 Y34.4985
G01 X4.4928 Y34.4543
G01 X4.5126 Y34.4431
G01 X4.5227 Y34.4379
G01 X4.6105 Y34.3962
G01 X4.6313 Y34.3870
G01 X4.6525 Y34.3788
G01 X4.7231 Y34.3535
G01 X4.6525 Y34.3282
G01 X4.6313 Y34.3200
G01 X4.6105 Y34.3108
G01 X4.5329 Y34.2741
G01 X4.5126 Y34.2639
G01 X4.4928 Y34.2527
G01 X4.4191 Y34.2085
G01 X4.3999 Y34.1964
G01 X4.3813 Y34.1833
G01 X4.3123 Y34.1321
G01 X4.2944 Y34.1181
G01 X4.2772 Y34.1033
G01 X4.2052 Y34.0379
G01 X4.1891 Y34.0218
G01 X4.1814 Y34.0134
G01 X4.1237 Y33.9498
G01 X4.1089 Y33.9326
G01 X4.0949 Y33.9147
G01 X4.0437 Y33.8457
G01 X4.0306 Y33.8271
G01 X4.0185 Y33.8079
G01 X3.9743 Y33.7342
G01 X3.9631 Y33.7144
G01 X3.9529 Y33.6941
G01 X3.9162 Y33.6165
G01 X3.9114 Y33.6061
G01 X3.9027 Y33.5851
G01 X3.8698 Y33.4936
G01 X3.8627 Y33.4720
G01 X3.8566 Y33.4501
G01 X3.8358 Y33.3668
G01 X3.8308 Y33.3446
G01 X3.8269 Y33.3222
G01 X3.8143 Y33.2373
G01 X3.8115 Y33.2147
G01 X3.8098 Y33.1920
G01 X3.8056 Y33.1062
G01 X3.8051 Y33.0835
G01 X3.8056 Y33.0608
G01 X3.8098 Y32.9750
G01 X3.8115 Y32.9523
G01 X3.8143 Y32.9297
G01 X3.8269 Y32.8448
G01 X3.8287 Y32.8336
G01 X3.8331 Y32.8113
G01 X3.8566 Y32.7169
G01 X3.8627 Y32.6950
G01 X3.8698 Y32.6734
G01 X3.9027 Y32.5819
G01 X3.9114 Y32.5609
G01 X3.9162 Y32.5505
G01 X3.9529 Y32.4729
G01 X3.9631 Y32.4526
G01 X3.9743 Y32.4328
G01 X4.0185 Y32.3591
G01 X4.0306 Y32.3399
G01 X4.0437 Y32.3213
G01 X4.1018 Y32.2433
G01 X4.1089 Y32.2344
G01 X4.1237 Y32.2172
G01 X4.1814 Y32.1536
G01 X4.1971 Y32.1371
G01 X4.2136 Y32.1214
G01 X4.2772 Y32.0637
G01 X4.2944 Y32.0489
G01 X4.3123 Y32.0349
G01 X4.3905 Y31.9771
G01 X4.3999 Y31.9706
G01 X4.4191 Y31.9585
G01 X4.4928 Y31.9143
G01 X4.5126 Y31.9031
G01 X4.5227 Y31.8979
G01 X4.6105 Y31.8562
G01 X4.6313 Y31.8470
G01 X4.6525 Y31.8388
G01 X4.7231 Y31.8135
G01 X4.6525 Y31.7882
G01 X4.6313 Y31.7800
G01 X4.6105 Y31.7708
G01 X4.5329 Y31.7341
G01 X4.5126 Y31.7239
G01 X4.4928 Y31.7127
G01 X4.4191 Y31.6685
G01 X4.3999 Y31.6564
G01 X4.3813 Y31.6433
G01 X4.3123 Y31.5921
G01 X4.2944 Y31.5781
G01 X4.2772 Y31.5633
G01 X4.2052 Y31.4979
G01 X4.1891 Y31.4818
G01 X4.1814 Y31.4734
G01 X4.1237 Y31.4098
G01 X4.1089 Y31.3926
G01 X4.0949 Y31.3747
G01 X4.0437 Y31.3057
G01 X4.0306 Y31.2871
G01 X4.0185 Y31.2679
G01 X3.9743 Y31.1942
G01 X3.9631 Y31.1744
G01 X3.9529 Y31.1541
G01 X3.9162 Y31.0765
G01 X3.9114 Y31.0661
G01 X3.9027 Y31.0451
G01 X3.8698 Y30.9536
G01 X3.8627 Y30.9320
G01 X3.8566 Y30.9101
G01 X3.8358 Y30.8268
G01 X3.8308 Y30.8046
G01 X3.8269 Y30.7822
G01 X3.8143 Y30.6973
G01 X3.8115 Y30.6747
G01 X3.8098 Y30.6520
G01 X3.8056 Y30.5662
G01 X3.8051 Y30.5435
G01 X3.8056 Y30.5208
G01 X3.8098 Y30.4350
G01 X3.8115 Y30.4123
G01 X3.8143 Y30.3897
G01 X3.8269 Y30.3048
G01 X3.8308 Y30.2824
G01 X3.8331 Y30.2713
G01 X3.8566 Y30.1769
G01 X3.8627 Y30.1550
G01 X3.8698 Y30.1334
G01 X3.9027 Y30.0419
G01 X3.9114 Y30.0209
G01 X3.9162 Y30.0105
G01 X3.9529 Y29.9329
G01 X3.9631 Y29.9126
G01 X3.9743 Y29.8928
G01 X4.0185 Y29.8191
G01 X4.0306 Y29.7999
G01 X4.0437 Y29.7813
G01 X4.1018 Y29.7033
G01 X4.1089 Y29.6944
G01 X4.1237 Y29.6772
G01 X4.1814 Y29.6136
G01 X4.1971 Y29.5971
G01 X4.2136 Y29.5814
G01 X4.2772 Y29.5237
G01 X4.2944 Y29.5089
G01 X4.3123 Y29.4949
G01 X4.3905 Y29.4371
G01 X4.4094 Y29.4244
G01 X4.4191 Y29.4185
G01 X4.4928 Y29.3743
G01 X4.5126 Y29.3631
G01 X4.5227 Y29.3579
G01 X4.6105 Y29.3162
G01 X4.6313 Y29.3070
G01 X4.6525 Y29.2988
G01 X4.7231 Y29.2735
G01 X4.6525 Y29.2482
G01 X4.6313 Y29.2400
G01 X4.6105 Y29.2308
G01 X4.5329 Y29.1941
G01 X4.5126 Y29.1839
G01 X4.4928 Y29.1727
G01 X4.4191 Y29.1285
G01 X4.3999 Y29.1164
G01 X4.3813 Y29.1033
G01 X4.3123 Y29.0521
G01 X4.2944 Y29.0381
G01 X4.2772 Y29.0233
G01 X4.2136 Y28.9656
G01 X4.1971 Y28.9499
G01 X4.1891 Y28.9418
G01 X4.1237 Y28.8698
G01 X4.1089 Y28.8526
G01 X4.0949 Y28.8347
G01 X4.0371 Y28.7565
G01 X4.0244 Y28.7376
G01 X4.0185 Y28.7279
G01 X3.9743 Y28.6542
G01 X3.9631 Y28.6344
G01 X3.9529 Y28.6141
G01 X3.9162 Y28.5365
G01 X3.9070 Y28.5157
G01 X3.8988 Y28.4945
G01 X3.8698 Y28.4136
G01 X3.8627 Y28.3920
G01 X3.8566 Y28.3701
G01 X3.8358 Y28.2868
G01 X3.8308 Y28.2646
G01 X3.8269 Y28.2422
G01 X3.8143 Y28.1573
G01 X3.8128 Y28.1460
G01 X3.8105 Y28.1234
G01 X3.8056 Y28.0262
G01 X3.8051 Y28.0035
G01 X3.8056 Y27.9808
G01 X3.8098 Y27.8950
G01 X3.8115 Y27.8723
G01 X3.8143 Y27.8497
G01 X3.8269 Y27.7648
G01 X3.8308 Y27.7424
G01 X3.8358 Y27.7202
G01 X3.8566 Y27.6369
G01 X3.8627 Y27.6150
G01 X3.8661 Y27.6041
G01 X3.8988 Y27.5125
G01 X3.9070 Y27.4913
G01 X3.9162 Y27.4705
G01 X3.9579 Y27.3827
G01 X3.9686 Y27.3626
G01 X3.9743 Y27.3528
G01 X4.0185 Y27.2791
G01 X4.0306 Y27.2599
G01 X4.0437 Y27.2413
G01 X4.0949 Y27.1723
G01 X4.1089 Y27.1544
G01 X4.1237 Y27.1372
G01 X4.1891 Y27.0652
G01 X4.2052 Y27.0491
G01 X4.2136 Y27.0414
G01 X4.2772 Y26.9837
G01 X4.2944 Y26.9689
G01 X4.3123 Y26.9549
G01 X4.3813 Y26.9037
G01 X4.3999 Y26.8906
G01 X4.4191 Y26.8785
G01 X4.4928 Y26.8343
G01 X4.5126 Y26.8231
G01 X4.5329 Y26.8129
G01 X4.6105 Y26.7762
G01 X4.6313 Y26.7670
G01 X4.6525 Y26.7588
G01 X4.7231 Y26.7335
G01 X4.6525 Y26.7082
G01 X4.6313 Y26.7000
G01 X4.6105 Y26.6908
G01 X4.5329 Y26.6541
G01 X4.5126 Y26.6439
G01 X4.4928 Y26.6327
G01 X4.4191 Y26.5885
G01 X4.3999 Y26.5764
G01 X4.3813 Y26.5633
G01 X4.3123 Y26.5121
G01 X4.2944 Y26.4981
G01 X4.2772 Y26.4833
G01 X4.2136 Y26.4256
G01 X4.1971 Y26.4099
G01 X4.1891 Y26.4018
G01 X4.1237 Y26.3298
G01 X4.1089 Y26.3126
G01 X4.0949 Y26.2947
G01 X4.0371 Y26.2165
G01 X4.0306 Y26.2071
G01 X4.0185 Y26.1879
G01 X3.9743 Y26.1142
G01 X3.9631 Y26.0944
G01 X3.9529 Y26.0741
G01 X3.9162 Y25.9965
G01 X3.9070 Y25.9757
G01 X3.8988 Y25.9545
G01 X3.8698 Y25.8736
G01 X3.8627 Y25.8520
G01 X3.8566 Y25.8301
G01 X3.8358 Y25.7468
G01 X3.8308 Y25.7246
G01 X3.8269 Y25.7022
G01 X3.8143 Y25.6173
G01 X3.8115 Y25.5947
G01 X3.8105 Y25.5834
G01 X3.8056 Y25.4862
G01 X3.8051 Y25.4635
G01 X3.8056 Y25.4408
G01 X3.8098 Y25.3550
G01 X3.8115 Y25.3323
G01 X3.8143 Y25.3097
G01 X3.8269 Y25.2248
G01 X3.8308 Y25.2024
G01 X3.8358 Y25.1802
G01 X3.8566 Y25.0969
G01 X3.8595 Y25.0859
G01 X3.8661 Y25.0641
G01 X3.8988 Y24.9725
G01 X3.9070 Y24.9513
G01 X3.9162 Y24.9305
G01 X3.9579 Y24.8427
G01 X3.9631 Y24.8326
G01 X3.9743 Y24.8128
G01 X4.0185 Y24.7391
G01 X4.0306 Y24.7199
G01 X4.0437 Y24.7013
G01 X4.0949 Y24.6323
G01 X4.1089 Y24.6144
G01 X4.1237 Y24.5972
G01 X4.1891 Y24.5252
G01 X4.1971 Y24.5171
G01 X4.2136 Y24.5014
G01 X4.2772 Y24.4437
G01 X4.2944 Y24.4289
G01 X4.3123 Y24.4149
G01 X4.3813 Y24.3637
G01 X4.3999 Y24.3506
G01 X4.4191 Y24.3385
G01 X4.4928 Y24.2943
G01 X4.5126 Y24.2831
G01 X4.5329 Y24.2729
G01 X4.6105 Y24.2362
G01 X4.6313 Y24.2270
G01 X4.6525 Y24.2188
G01 X4.7231 Y24.1935
G01 X4.6525 Y24.1682
G01 X4.6313 Y24.1600
G01 X4.6105 Y24.1508
G01 X4.5329 Y24.1141
G01 X4.5126 Y24.1039
G01 X4.4928 Y24.0927
G01 X4.4191 Y24.0485
G01 X4.3999 Y24.0364
G01 X4.3813 Y24.0233
G01 X4.3123 Y23.9721
G01 X4.2944 Y23.9581
G01 X4.2772 Y23.9433
G01 X4.2136 Y23.8856
G01 X4.1971 Y23.8699
G01 X4.1891 Y23.8618
G01 X4.1237 Y23.7898
G01 X4.1089 Y23.7726
G01 X4.0949 Y23.7547
G01 X4.0371 Y23.6765
G01 X4.0244 Y23.6576
G01 X4.0185 Y23.6479
G01 X3.9743 Y23.5742
G01 X3.9631 Y23.5544
G01 X3.9529 Y23.5341
G01 X3.9162 Y23.4565
G01 X3.9070 Y23.4357
G01 X3.8988 Y23.4145
G01 X3.8698 Y23.3336
G01 X3.8627 Y23.3120
G01 X3.8566 Y23.2901
G01 X3.8358 Y23.2068
G01 X3.8308 Y23.1846
G01 X3.8269 Y23.1622
G01 X3.8143 Y23.0773
G01 X3.8115 Y23.0547
G01 X3.8098 Y23.0320
G01 X3.8056 Y22.9462
G01 X3.8052 Y22.9349
G01 X3.8052 Y22.9121
G01 X3.8098 Y22.8150
G01 X3.8115 Y22.7923
G01 X3.8143 Y22.7697
G01 X3.8269 Y22.6848
G01 X3.8308 Y22.6624
G01 X3.8358 Y22.6402
G01 X3.8566 Y22.5569
G01 X3.8627 Y22.5350
G01 X3.8661 Y22.5241
G01 X3.8988 Y22.4325
G01 X3.9070 Y22.4113
G01 X3.9162 Y22.3905
G01 X3.9579 Y22.3027
G01 X3.9686 Y22.2826
G01 X3.9743 Y22.2728
G01 X4.0185 Y22.1991
G01 X4.0306 Y22.1799
G01 X4.0437 Y22.1613
G01 X4.0949 Y22.0923
G01 X4.1089 Y22.0744
G01 X4.1237 Y22.0572
G01 X4.1891 Y21.9852
G01 X4.1971 Y21.9771
G01 X4.2136 Y21.9614
G01 X4.2772 Y21.9037
G01 X4.2944 Y21.8889
G01 X4.3123 Y21.8749
G01 X4.3813 Y21.8237
G01 X4.3999 Y21.8106
G01 X4.4191 Y21.7985
G01 X4.4928 Y21.7543
G01 X4.5126 Y21.7431
G01 X4.5329 Y21.7329
G01 X4.6105 Y21.6962
G01 X4.6313 Y21.6870
G01 X4.6525 Y21.6788
G01 X4.7231 Y21.6535
G01 X4.6525 Y21.6282
G01 X4.6313 Y21.6200
G01 X4.6105 Y21.6108
G01 X4.5329 Y21.5741
G01 X4.5126 Y21.5639
G01 X4.4928 Y21.5527
G01 X4.4191 Y21.5085
G01 X4.3999 Y21.4964
G01 X4.3813 Y21.4833
G01 X4.3123 Y21.4321
G01 X4.2944 Y21.4181
G01 X4.2772 Y21.4033
G01 X4.2136 Y21.3456
G01 X4.2052 Y21.3379
G01 X4.1891 Y21.3218
G01 X4.1237 Y21.2498
G01 X4.1089 Y21.2326
G01 X4.0949 Y21.2147
G01 X4.0371 Y21.1365
G01 X4.0306 Y21.1271
G01 X4.0185 Y21.1079
G01 X3.9743 Y21.0342
G01 X3.9631 Y21.0144
G01 X3.9529 Y20.9941
G01 X3.9162 Y20.9165
G01 X3.9070 Y20.8957
G01 X3.8988 Y20.8745
G01 X3.8698 Y20.7936
G01 X3.8627 Y20.7720
G01 X3.8566 Y20.7501
G01 X3.8358 Y20.6668
G01 X3.8308 Y20.6446
G01 X3.8269 Y20.6222
G01 X3.8143 Y20.5373
G01 X3.8115 Y20.5147
G01 X3.8098 Y20.4920
G01 X3.8056 Y20.4062
G01 X3.8052 Y20.3949
G01 X3.8052 Y20.3721
G01 X3.8098 Y20.2750
G01 X3.8115 Y20.2523
G01 X3.8143 Y20.2297
G01 X3.8269 Y20.1448
G01 X3.8308 Y20.1224
G01 X3.8358 Y20.1002
G01 X3.8566 Y20.0169
G01 X3.8627 Y19.9950
G01 X3.8661 Y19.9841
G01 X3.8988 Y19.8925
G01 X3.9070 Y19.8713
G01 X3.9162 Y19.8505
G01 X3.9579 Y19.7627
G01 X3.9686 Y19.7426
G01 X3.9743 Y19.7328
G01 X4.0185 Y19.6591
G01 X4.0306 Y19.6399
G01 X4.0437 Y19.6213
G01 X4.0949 Y19.5523
G01 X4.1089 Y19.5344
G01 X4.1237 Y19.5172
G01 X4.1891 Y19.4452
G01 X4.1971 Y19.4371
G01 X4.2136 Y19.4214
G01 X4.2772 Y19.3637
G01 X4.2944 Y19.3489
G01 X4.3123 Y19.3349
G01 X4.3813 Y19.2837
G01 X4.3999 Y19.2706
G01 X4.4191 Y19.2585
G01 X4.4928 Y19.2143
G01 X4.5126 Y19.2031
G01 X4.5329 Y19.1929
G01 X4.6105 Y19.1562
G01 X4.6313 Y19.1470
G01 X4.6525 Y19.1388
G01 X4.7231 Y19.1135
G01 X4.6525 Y19.0882
G01 X4.6313 Y19.0800
G01 X4.6105 Y19.0708
G01 X4.5329 Y19.0341
G01 X4.5126 Y19.0239
G01 X4.4928 Y19.0127
G01 X4.4191 Y18.9685
G01 X4.3999 Y18.9564
G01 X4.3813 Y18.9433
G01 X4.3123 Y18.8921
G01 X4.2944 Y18.8781
G01 X4.2772 Y18.8633
G01 X4.2136 Y18.8056
G01 X4.1971 Y18.7899
G01 X4.1891 Y18.7818
G01 X4.1237 Y18.7098
G01 X4.1089 Y18.6926
G01 X4.0949 Y18.6747
G01 X4.0371 Y18.5965
G01 X4.0306 Y18.5871
G01 X4.0185 Y18.5679
G01 X3.9743 Y18.4942
G01 X3.9631 Y18.4744
G01 X3.9529 Y18.4541
G01 X3.9162 Y18.3765
G01 X3.9070 Y18.3557
G01 X3.8988 Y18.3345
G01 X3.8698 Y18.2536
G01 X3.8627 Y18.2320
G01 X3.8566 Y18.2101
G01 X3.8358 Y18.1268
G01 X3.8308 Y18.1046
G01 X3.8269 Y18.0822
G01 X3.8143 Y17.9973
G01 X3.8115 Y17.9747
G01 X3.8098 Y17.9520
G01 X3.8056 Y17.8662
G01 X3.8052 Y17.8549
G01 X3.8052 Y17.8321
G01 X3.8098 Y17.7350
G01 X3.8115 Y17.7123
G01 X3.8143 Y17.6897
G01 X3.8269 Y17.6048
G01 X3.8308 Y17.5824
G01 X3.8358 Y17.5602
G01 X3.8566 Y17.4769
G01 X3.8627 Y17.4550
G01 X3.8661 Y17.4441
G01 X3.8988 Y17.3525
G01 X3.9070 Y17.3313
G01 X3.9162 Y17.3105
G01 X3.9579 Y17.2227
G01 X3.9631 Y17.2126
G01 X3.9743 Y17.1928
G01 X4.0185 Y17.1191
G01 X4.0306 Y17.0999
G01 X4.0437 Y17.0813
G01 X4.0949 Y17.0123
G01 X4.1089 Y16.9944
G01 X4.1237 Y16.9772
G01 X4.1891 Y16.9052
G01 X4.2052 Y16.8891
G01 X4.2136 Y16.8814
G01 X4.2772 Y16.8237
G01 X4.2944 Y16.8089
G01 X4.3123 Y16.7949
G01 X4.3813 Y16.7437
G01 X4.3999 Y16.7306
G01 X4.4191 Y16.7185
G01 X4.4928 Y16.6743
G01 X4.5126 Y16.6631
G01 X4.5329 Y16.6529
G01 X4.6105 Y16.6162
G01 X4.6313 Y16.6070
G01 X4.6525 Y16.5988
G01 X4.7231 Y16.5735
G01 X4.6525 Y16.5482
G01 X4.6313 Y16.5400
G01 X4.6105 Y16.5308
G01 X4.5329 Y16.4941
G01 X4.5126 Y16.4839
G01 X4.4928 Y16.4727
G01 X4.4191 Y16.4285
G01 X4.3999 Y16.4164
G01 X4.3813 Y16.4033
G01 X4.3123 Y16.3521
G01 X4.2944 Y16.3381
G01 X4.2772 Y16.3233
G01 X4.2136 Y16.2656
G01 X4.1971 Y16.2499
G01 X4.1891 Y16.2418
G01 X4.1237 Y16.1698
G01 X4.1089 Y16.1526
G01 X4.0949 Y16.1347
G01 X4.0371 Y16.0565
G01 X4.0306 Y16.0471
G01 X4.0185 Y16.0279
G01 X3.9743 Y15.9542
G01 X3.9631 Y15.9344
G01 X3.9529 Y15.9141
G01 X3.9162 Y15.8365
G01 X3.9070 Y15.8157
G01 X3.8988 Y15.7945
G01 X3.8698 Y15.7136
G01 X3.8627 Y15.6920
G01 X3.8566 Y15.6701
G01 X3.8358 Y15.5868
G01 X3.8308 Y15.5646
G01 X3.8269 Y15.5422
G01 X3.8143 Y15.4573
G01 X3.8115 Y15.4347
G01 X3.8098 Y15.4120
G01 X3.8056 Y15.3262
G01 X3.8052 Y15.3149
G01 X3.8052 Y15.2921
G01 X3.8098 Y15.1950
G01 X3.8115 Y15.1723
G01 X3.8143 Y15.1497
G01 X3.8269 Y15.0648
G01 X3.8308 Y15.0424
G01 X3.8358 Y15.0202
G01 X3.8566 Y14.9369
G01 X3.8595 Y14.9259
G01 X3.8661 Y14.9041
G01 X3.8988 Y14.8125
G01 X3.9070 Y14.7913
G01 X3.9162 Y14.7705
G01 X3.9579 Y14.6827
G01 X3.9686 Y14.6626
G01 X3.9743 Y14.6528
G01 X4.0185 Y14.5791
G01 X4.0306 Y14.5599
G01 X4.0437 Y14.5413
G01 X4.0949 Y14.4723
G01 X4.1089 Y14.4544
G01 X4.1237 Y14.4372
G01 X4.1891 Y14.3652
G01 X4.1971 Y14.3571
G01 X4.2136 Y14.3414
G01 X4.2772 Y14.2837
G01 X4.2944 Y14.2689
G01 X4.3123 Y14.2549
G01 X4.3813 Y14.2037
G01 X4.3999 Y14.1906
G01 X4.4191 Y14.1785
G01 X4.4928 Y14.1343
G01 X4.5126 Y14.1231
G01 X4.5329 Y14.1129
G01 X4.6105 Y14.0762
G01 X4.6313 Y14.0670
G01 X4.6525 Y14.0588
G01 X4.7231 Y14.0335
G01 X4.6525 Y14.0082
G01 X4.6313 Y14.0000
G01 X4.6105 Y13.9908
G01 X4.5329 Y13.9541
G01 X4.5126 Y13.9439
G01 X4.4928 Y13.9327
G01 X4.4191 Y13.8885
G01 X4.3999 Y13.8764
G01 X4.3813 Y13.8633
G01 X4.3123 Y13.8121
G01 X4.2944 Y13.7981
G01 X4.2772 Y13.7833
G01 X4.2136 Y13.7256
G01 X4.1971 Y13.7099
G01 X4.1891 Y13.7018
G01 X4.1237 Y13.6298
G01 X4.1089 Y13.6126
G01 X4.0949 Y13.5947
G01 X4.0371 Y13.5165
G01 X4.0244 Y13.4976
G01 X4.0185 Y13.4879
G01 X3.9743 Y13.4142
G01 X3.9631 Y13.3944
G01 X3.9529 Y13.3741
G01 X3.9162 Y13.2965
G01 X3.9070 Y13.2757
G01 X3.8988 Y13.2545
G01 X3.8698 Y13.1736
G01 X3.8627 Y13.1520
G01 X3.8566 Y13.1301
G01 X3.8358 Y13.0468
G01 X3.8308 Y13.0246
G01 X3.8269 Y13.0022
G01 X3.8143 Y12.9173
G01 X3.8115 Y12.8947
G01 X3.8098 Y12.8720
G01 X3.8056 Y12.7862
G01 X3.8052 Y12.7749
G01 X3.8052 Y12.7521
G01 X3.8098 Y12.6550
G01 X3.8115 Y12.6323
G01 X3.8143 Y12.6097
G01 X3.8269 Y12.5248
G01 X3.8308 Y12.5024
G01 X3.8358 Y12.4802
G01 X3.8566 Y12.3969
G01 X3.8627 Y12.3750
G01 X3.8661 Y12.3641
G01 X3.8988 Y12.2725
G01 X3.9070 Y12.2513
G01 X3.9162 Y12.2305
G01 X3.9579 Y12.1427
G01 X3.9686 Y12.1226
G01 X3.9743 Y12.1128
G01 X4.0185 Y12.0391
G01 X4.0306 Y12.0199
G01 X4.0437 Y12.0013
G01 X4.0949 Y11.9323
G01 X4.1089 Y11.9144
G01 X4.1237 Y11.8972
G01 X4.1891 Y11.8252
G01 X4.1971 Y11.8171
G01 X4.2136 Y11.8014
G01 X4.2772 Y11.7437
G01 X4.2944 Y11.7289
G01 X4.3123 Y11.7149
G01 X4.3813 Y11.6637
G01 X4.3999 Y11.6506
G01 X4.4191 Y11.6385
G01 X4.4928 Y11.5943
G01 X4.5126 Y11.5831
G01 X4.5329 Y11.5729
G01 X4.6105 Y11.5362
G01 X4.6313 Y11.5270
G01 X4.6525 Y11.5188
G01 X4.7231 Y11.4935
G01 X4.6525 Y11.4682
G01 X4.6313 Y11.4600
G01 X4.6105 Y11.4508
G01 X4.5329 Y11.4141
G01 X4.5126 Y11.4039
G01 X4.4928 Y11.3927
G01 X4.4191 Y11.3485
G01 X4.3999 Y11.3364
G01 X4.3813 Y11.3233
G01 X4.3123 Y11.2721
G01 X4.2944 Y11.2581
G01 X4.2772 Y11.2433
G01 X4.2136 Y11.1856
G01 X4.1971 Y11.1699
G01 X4.1891 Y11.1618
G01 X4.1237 Y11.0898
G01 X4.1089 Y11.0726
G01 X4.0949 Y11.0547
G01 X4.0371 Y10.9765
G01 X4.0306 Y10.9671
G01 X4.0185 Y10.9479
G01 X3.9743 Y10.8742
G01 X3.9631 Y10.8544
G01 X3.9529 Y10.8341
G01 X3.9162 Y10.7565
G01 X3.9070 Y10.7357
G01 X3.8988 Y10.7145
G01 X3.8698 Y10.6336
G01 X3.8627 Y10.6120
G01 X3.8566 Y10.5901
G01 X3.8358 Y10.5068
G01 X3.8308 Y10.4846
G01 X3.8269 Y10.4622
G01 X3.8143 Y10.3773
G01 X3.8115 Y10.3547
G01 X3.8098 Y10.3320
G01 X3.8056 Y10.2462
G01 X3.8052 Y10.2349
G01 X3.8052 Y10.2121
G01 X3.8098 Y10.1150
G01 X3.8115 Y10.0923
G01 X3.8143 Y10.0697
G01 X3.8269 Y9.9848
G01 X3.8308 Y9.9624
G01 X3.8358 Y9.9402
G01 X3.8566 Y9.8569
G01 X3.8627 Y9.8350
G01 X3.8661 Y9.8241
G01 X3.8988 Y9.7325
G01 X3.9070 Y9.7113
G01 X3.9162 Y9.6905
G01 X3.9579 Y9.6027
G01 X3.9686 Y9.5826
G01 X3.9743 Y9.5728
G01 X4.0185 Y9.4991
G01 X4.0306 Y9.4799
G01 X4.0437 Y9.4613
G01 X4.0949 Y9.3923
G01 X4.1089 Y9.3744
G01 X4.1237 Y9.3572
G01 X4.1891 Y9.2852
G01 X4.1971 Y9.2771
G01 X4.2136 Y9.2614
G01 X4.2772 Y9.2037
G01 X4.2944 Y9.1889
G01 X4.3123 Y9.1749
G01 X4.3813 Y9.1237
G01 X4.3999 Y9.1106
G01 X4.4191 Y9.0985
G01 X4.4928 Y9.0543
G01 X4.5126 Y9.0431
G01 X4.5329 Y9.0329
G01 X4.6105 Y8.9962
G01 X4.6313 Y8.9870
G01 X4.6525 Y8.9788
G01 X4.7231 Y8.9535
G01 X4.6525 Y8.9282
G01 X4.6313 Y8.9200
G01 X4.6105 Y8.9108
G01 X4.5329 Y8.8741
G01 X4.5126 Y8.8639
G01 X4.4928 Y8.8527
G01 X4.4191 Y8.8085
G01 X4.3999 Y8.7964
G01 X4.3813 Y8.7833
G01 X4.3123 Y8.7321
G01 X4.2944 Y8.7181
G01 X4.2772 Y8.7033
G01 X4.2136 Y8.6456
G01 X4.1971 Y8.6299
G01 X4.1891 Y8.6218
G01 X4.1237 Y8.5498
G01 X4.1089 Y8.5326
G01 X4.0949 Y8.5147
G01 X4.0371 Y8.4365
G01 X4.0306 Y8.4271
G01 X4.0185 Y8.4079
G01 X3.9743 Y8.3342
G01 X3.9631 Y8.3144
G01 X3.9529 Y8.2941
G01 X3.9162 Y8.2165
G01 X3.9070 Y8.1957
G01 X3.8988 Y8.1745
G01 X3.8698 Y8.0936
G01 X3.8627 Y8.0720
G01 X3.8566 Y8.0501
G01 X3.8358 Y7.9668
G01 X3.8308 Y7.9446
G01 X3.8269 Y7.9222
G01 X3.8143 Y7.8373
G01 X3.8115 Y7.8147
G01 X3.8098 Y7.7920
G01 X3.8056 Y7.7062
