(G-CODE GENERATED BY FLATCAM v8.994 - www.flatcam.org - Version Date: 2020/11/7)

(Name: Clock - NC Drill Data - [Through Hole].drl_cnc)
(Type: G-code from Geometry)
(Units: MM)

(Created on Wednesday, 04 December 2024 at 10:08)

(This preprocessor is the default preprocessor used by FlatCAM.)
(It is made to work with MACH3 compatible motion controllers.)


(TOOLS DIAMETER: )
(Tool: 1 -> Dia: 0.8128)
(Tool: 2 -> Dia: 0.889)
(Tool: 3 -> Dia: 0.899922)
(Tool: 4 -> Dia: 2.199894)

(FEEDRATE Z: )
(Tool: 1 -> Feedrate: 300)
(Tool: 2 -> Feedrate: 300)
(Tool: 3 -> Feedrate: 300)
(Tool: 4 -> Feedrate: 300)

(FEEDRATE RAPIDS: )
(Tool: 1 -> Feedrate Rapids: 1500)
(Tool: 2 -> Feedrate Rapids: 1500)
(Tool: 3 -> Feedrate Rapids: 1500)
(Tool: 4 -> Feedrate Rapids: 1500)

(Z_CUT: )
(Tool: 1 -> Z_Cut: -2.0)
(Tool: 2 -> Z_Cut: -2.0)
(Tool: 3 -> Z_Cut: -2.0)
(Tool: 4 -> Z_Cut: -2.0)

(Tools Offset: )
(Tool: 1 -> Offset Z: 0.0)
(Tool: 2 -> Offset Z: 0.0)
(Tool: 3 -> Offset Z: 0.0)
(Tool: 4 -> Offset Z: 0.0)

(Z_MOVE: )
(Tool: 1 -> Z_Move: 2)
(Tool: 2 -> Z_Move: 2)
(Tool: 3 -> Z_Move: 2)
(Tool: 4 -> Z_Move: 2)

(Z Toolchange: 15 mm)
(X,Y Toolchange: 0.0000, 0.0000 mm)
(Z Start: None mm)
(Z End: 0.5 mm)
(X,Y End: None mm)
(Steps per circle: 64)
(Preprocessor Excellon: default)

(X range:    4.6990 ...  224.0280  mm)
(Y range:    4.6990 ...   89.4080  mm)

(Spindle Speed: 0 RPM)
G21
G90
G94

G01 F300.00
G00 Z15.0000

G01 F300.00
M03
G00 X205.8035 Y35.6235
G01 Z-2.0000
G01 Z0
G00 Z2.0000
G00 X203.2635 Y35.6235
G01 Z-2.0000
G01 Z0
G00 Z2.0000
G00 X198.1835 Y28.0035
G01 Z-2.0000
G01 Z0
G00 Z2.0000
G00 X196.5035 Y32.6034
G01 Z-2.0000
G01 Z0
G00 Z2.0000
G00 X197.8035 Y36.1036
G01 Z-2.0000
G01 Z0
G00 Z2.0000
G00 X196.4035 Y39.3035
G01 Z-2.0000
G01 Z0
G00 Z2.0000
G00 X193.1035 Y40.7035
G01 Z-2.0000
G01 Z0
G00 Z2.0000
G00 X189.8035 Y39.2034
G01 Z-2.0000
G01 Z0
G00 Z2.0000
G00 X188.4035 Y36.1036
G01 Z-2.0000
G01 Z0
G00 Z2.0000
G00 X189.7035 Y32.6034
G01 Z-2.0000
G01 Z0
G00 Z2.0000
G00 X180.4035 Y35.6235
G01 Z-2.0000
G01 Z0
G00 Z2.0000
G00 X177.8635 Y35.6235
G01 Z-2.0000
G01 Z0
G00 Z2.0000
G00 X175.3235 Y35.6235
G01 Z-2.0000
G01 Z0
G00 Z2.0000
G00 X175.3235 Y45.7835
G01 Z-2.0000
G01 Z0
G00 Z2.0000
G00 X175.3235 Y48.3235
G01 Z-2.0000
G01 Z0
G00 Z2.0000
G00 X177.8635 Y45.7835
G01 Z-2.0000
G01 Z0
G00 Z2.0000
G00 X193.1035 Y45.7835
G01 Z-2.0000
G01 Z0
G00 Z2.0000
G00 X203.2635 Y45.7835
G01 Z-2.0000
G01 Z0
G00 Z2.0000
G00 X205.8035 Y45.7835
G01 Z-2.0000
G01 Z0
G00 Z2.0000
G00 X223.5835 Y48.3235
G01 Z-2.0000
G01 Z0
G00 Z2.0000
G00 X223.5835 Y50.8635
G01 Z-2.0000
G01 Z0
G00 Z2.0000
G00 X223.5835 Y53.4035
G01 Z-2.0000
G01 Z0
G00 Z2.0000
G00 X223.5835 Y55.9435
G01 Z-2.0000
G01 Z0
G00 Z2.0000
G00 X223.5835 Y58.4835
G01 Z-2.0000
G01 Z0
G00 Z2.0000
G00 X223.5835 Y61.0235
G01 Z-2.0000
G01 Z0
G00 Z2.0000
G00 X223.5835 Y63.5635
G01 Z-2.0000
G01 Z0
G00 Z2.0000
G00 X223.5835 Y66.1035
G01 Z-2.0000
G01 Z0
G00 Z2.0000
G00 X223.5835 Y68.6435
G01 Z-2.0000
G01 Z0
G00 Z2.0000
G00 X223.5835 Y71.1835
G01 Z-2.0000
G01 Z0
G00 Z2.0000
G00 X223.5835 Y73.7235
G01 Z-2.0000
G01 Z0
G00 Z2.0000
G00 X223.5835 Y76.2635
G01 Z-2.0000
G01 Z0
G00 Z2.0000
G00 X193.1035 Y71.1835
G01 Z-2.0000
G01 Z0
G00 Z2.0000
G00 X175.3235 Y73.7235
G01 Z-2.0000
G01 Z0
G00 Z2.0000
G00 X157.5435 Y71.1835
G01 Z-2.0000
G01 Z0
G00 Z2.0000
G00 X155.0035 Y76.2635
G01 Z-2.0000
G01 Z0
G00 Z2.0000
G00 X149.9235 Y68.6435
G01 Z-2.0000
G01 Z0
G00 Z2.0000
G00 X147.3835 Y66.1035
G01 Z-2.0000
G01 Z0
G00 Z2.0000
G00 X144.8435 Y63.5635
G01 Z-2.0000
G01 Z0
G00 Z2.0000
G00 X142.3035 Y61.0235
G01 Z-2.0000
G01 Z0
G00 Z2.0000
G00 X155.0035 Y48.3235
G01 Z-2.0000
G01 Z0
G00 Z2.0000
G00 X157.5435 Y45.7835
G01 Z-2.0000
G01 Z0
G00 Z2.0000
G00 X161.8635 Y39.2034
G01 Z-2.0000
G01 Z0
G00 Z2.0000
G00 X165.1635 Y40.7035
G01 Z-2.0000
G01 Z0
G00 Z2.0000
G00 X168.4635 Y39.3035
G01 Z-2.0000
G01 Z0
G00 Z2.0000
G00 X169.8635 Y36.1036
G01 Z-2.0000
G01 Z0
G00 Z2.0000
G00 X168.5635 Y32.6034
G01 Z-2.0000
G01 Z0
G00 Z2.0000
G00 X162.6235 Y17.8435
G01 Z-2.0000
G01 Z0
G00 Z2.0000
G00 X157.3035 Y17.6634
G01 Z-2.0000
G01 Z0
G00 Z2.0000
G00 X157.3035 Y20.6634
G01 Z-2.0000
G01 Z0
G00 Z2.0000
G00 X157.3035 Y23.6634
G01 Z-2.0000
G01 Z0
G00 Z2.0000
G00 X162.6235 Y28.0035
G01 Z-2.0000
G01 Z0
G00 Z2.0000
G00 X161.7635 Y32.6034
G01 Z-2.0000
G01 Z0
G00 Z2.0000
G00 X160.4635 Y36.1036
G01 Z-2.0000
G01 Z0
G00 Z2.0000
G00 X149.9235 Y45.7835
G01 Z-2.0000
G01 Z0
G00 Z2.0000
G00 X147.3835 Y45.7835
G01 Z-2.0000
G01 Z0
G00 Z2.0000
G00 X144.8435 Y45.7835
G01 Z-2.0000
G01 Z0
G00 Z2.0000
G00 X142.3035 Y45.7835
G01 Z-2.0000
G01 Z0
G00 Z2.0000
G00 X129.6035 Y45.7835
G01 Z-2.0000
G01 Z0
G00 Z2.0000
G00 X127.0635 Y45.7835
G01 Z-2.0000
G01 Z0
G00 Z2.0000
G00 X124.5235 Y45.7835
G01 Z-2.0000
G01 Z0
G00 Z2.0000
G00 X121.9835 Y45.7835
G01 Z-2.0000
G01 Z0
G00 Z2.0000
G00 X121.9835 Y50.8635
G01 Z-2.0000
G01 Z0
G00 Z2.0000
G00 X124.5235 Y53.4035
G01 Z-2.0000
G01 Z0
G00 Z2.0000
G00 X127.0635 Y55.9435
G01 Z-2.0000
G01 Z0
G00 Z2.0000
G00 X129.6035 Y58.4835
G01 Z-2.0000
G01 Z0
G00 Z2.0000
G00 X81.3435 Y50.8635
G01 Z-2.0000
G01 Z0
G00 Z2.0000
G00 X81.3435 Y53.4035
G01 Z-2.0000
G01 Z0
G00 Z2.0000
G00 X81.3435 Y55.9435
G01 Z-2.0000
G01 Z0
G00 Z2.0000
G00 X81.3435 Y58.4835
G01 Z-2.0000
G01 Z0
G00 Z2.0000
G00 X81.3435 Y61.0235
G01 Z-2.0000
G01 Z0
G00 Z2.0000
G00 X81.3435 Y63.5635
G01 Z-2.0000
G01 Z0
G00 Z2.0000
G00 X81.3435 Y66.1035
G01 Z-2.0000
G01 Z0
G00 Z2.0000
G00 X81.3435 Y68.6435
G01 Z-2.0000
G01 Z0
G00 Z2.0000
G00 X81.3435 Y71.1835
G01 Z-2.0000
G01 Z0
G00 Z2.0000
G00 X81.3435 Y73.7235
G01 Z-2.0000
G01 Z0
G00 Z2.0000
G00 X81.3435 Y76.2635
G01 Z-2.0000
G01 Z0
G00 Z2.0000
G00 X68.6435 Y76.2635
G01 Z-2.0000
G01 Z0
G00 Z2.0000
G00 X68.6435 Y73.7235
G01 Z-2.0000
G01 Z0
G00 Z2.0000
G00 X68.6435 Y71.1835
G01 Z-2.0000
G01 Z0
G00 Z2.0000
G00 X55.9435 Y71.1835
G01 Z-2.0000
G01 Z0
G00 Z2.0000
G00 X55.9435 Y73.7235
G01 Z-2.0000
G01 Z0
G00 Z2.0000
G00 X55.9435 Y76.2635
G01 Z-2.0000
G01 Z0
G00 Z2.0000
G00 X43.2435 Y76.2635
G01 Z-2.0000
G01 Z0
G00 Z2.0000
G00 X30.5435 Y76.2635
G01 Z-2.0000
G01 Z0
G00 Z2.0000
G00 X17.8435 Y83.8835
G01 Z-2.0000
G01 Z0
G00 Z2.0000
G00 X17.8435 Y86.4235
G01 Z-2.0000
G01 Z0
G00 Z2.0000
G00 X17.8435 Y88.9635
G01 Z-2.0000
G01 Z0
G00 Z2.0000
G00 X5.1435 Y88.9635
G01 Z-2.0000
G01 Z0
G00 Z2.0000
G00 X5.1435 Y86.4235
G01 Z-2.0000
G01 Z0
G00 Z2.0000
G00 X5.1435 Y83.8835
G01 Z-2.0000
G01 Z0
G00 Z2.0000
G00 X5.1435 Y45.7835
G01 Z-2.0000
G01 Z0
G00 Z2.0000
G00 X5.1435 Y43.2435
G01 Z-2.0000
G01 Z0
G00 Z2.0000
G00 X5.1435 Y40.7035
G01 Z-2.0000
G01 Z0
G00 Z2.0000
G00 X5.1435 Y38.1635
G01 Z-2.0000
G01 Z0
G00 Z2.0000
G00 X5.1435 Y35.6235
G01 Z-2.0000
G01 Z0
G00 Z2.0000
G00 X5.1435 Y33.0835
G01 Z-2.0000
G01 Z0
G00 Z2.0000
G00 X5.1435 Y30.5435
G01 Z-2.0000
G01 Z0
G00 Z2.0000
G00 X5.1435 Y28.0035
G01 Z-2.0000
G01 Z0
G00 Z2.0000
G00 X5.1435 Y25.4635
G01 Z-2.0000
G01 Z0
G00 Z2.0000
G00 X5.1435 Y22.9235
G01 Z-2.0000
G01 Z0
G00 Z2.0000
G00 X5.1435 Y20.3835
G01 Z-2.0000
G01 Z0
G00 Z2.0000
G00 X5.1435 Y17.8435
G01 Z-2.0000
G01 Z0
G00 Z2.0000
G00 X5.1435 Y15.3035
G01 Z-2.0000
G01 Z0
G00 Z2.0000
G00 X5.1435 Y12.7635
G01 Z-2.0000
G01 Z0
G00 Z2.0000
G00 X5.1435 Y10.2235
G01 Z-2.0000
G01 Z0
G00 Z2.0000
G00 X5.1435 Y7.6835
G01 Z-2.0000
G01 Z0
G00 Z2.0000
G00 X5.1435 Y5.1435
G01 Z-2.0000
G01 Z0
G00 Z2.0000
G00 X17.8435 Y5.1435
G01 Z-2.0000
G01 Z0
G00 Z2.0000
G00 X17.8435 Y7.6835
G01 Z-2.0000
G01 Z0
G00 Z2.0000
G00 X17.8435 Y10.2235
G01 Z-2.0000
G01 Z0
G00 Z2.0000
G00 X17.8435 Y12.7635
G01 Z-2.0000
G01 Z0
G00 Z2.0000
G00 X17.8435 Y15.3035
G01 Z-2.0000
G01 Z0
G00 Z2.0000
G00 X17.8435 Y17.8435
G01 Z-2.0000
G01 Z0
G00 Z2.0000
G00 X17.8435 Y20.3835
G01 Z-2.0000
G01 Z0
G00 Z2.0000
G00 X17.8435 Y22.9235
G01 Z-2.0000
G01 Z0
G00 Z2.0000
G00 X17.8435 Y25.4635
G01 Z-2.0000
G01 Z0
G00 Z2.0000
G00 X17.8435 Y28.0035
G01 Z-2.0000
G01 Z0
G00 Z2.0000
G00 X17.8435 Y30.5435
G01 Z-2.0000
G01 Z0
G00 Z2.0000
G00 X17.8435 Y33.0835
G01 Z-2.0000
G01 Z0
G00 Z2.0000
G00 X17.8435 Y35.6235
G01 Z-2.0000
G01 Z0
G00 Z2.0000
G00 X17.8435 Y38.1635
G01 Z-2.0000
G01 Z0
G00 Z2.0000
G00 X17.8435 Y40.7035
G01 Z-2.0000
G01 Z0
G00 Z2.0000
G00 X17.8435 Y43.2435
G01 Z-2.0000
G01 Z0
G00 Z2.0000
G00 X17.8435 Y45.7835
G01 Z-2.0000
G01 Z0
G00 Z2.0000
G00 X30.5435 Y45.7835
G01 Z-2.0000
G01 Z0
G00 Z2.0000
G00 X30.5435 Y48.3235
G01 Z-2.0000
G01 Z0
G00 Z2.0000
G00 X30.5435 Y50.8635
G01 Z-2.0000
G01 Z0
G00 Z2.0000
G00 X30.5435 Y53.4035
G01 Z-2.0000
G01 Z0
G00 Z2.0000
G00 X30.5435 Y55.9435
G01 Z-2.0000
G01 Z0
G00 Z2.0000
G00 X30.5435 Y58.4835
G01 Z-2.0000
G01 Z0
G00 Z2.0000
G00 X30.5435 Y61.0235
G01 Z-2.0000
G01 Z0
G00 Z2.0000
G00 X30.5435 Y63.5635
G01 Z-2.0000
G01 Z0
G00 Z2.0000
G00 X30.5435 Y66.1035
G01 Z-2.0000
G01 Z0
G00 Z2.0000
G00 X30.5435 Y68.6435
G01 Z-2.0000
G01 Z0
G00 Z2.0000
G00 X30.5435 Y71.1835
G01 Z-2.0000
G01 Z0
G00 Z2.0000
G00 X30.5435 Y73.7235
G01 Z-2.0000
G01 Z0
G00 Z2.0000
G00 X43.2435 Y73.7235
G01 Z-2.0000
G01 Z0
G00 Z2.0000
G00 X43.2435 Y71.1835
G01 Z-2.0000
G01 Z0
G00 Z2.0000
G00 X43.2435 Y68.6435
G01 Z-2.0000
G01 Z0
G00 Z2.0000
G00 X43.2435 Y66.1035
G01 Z-2.0000
G01 Z0
G00 Z2.0000
G00 X43.2435 Y63.5635
G01 Z-2.0000
G01 Z0
G00 Z2.0000
G00 X43.2435 Y61.0235
G01 Z-2.0000
G01 Z0
G00 Z2.0000
G00 X43.2435 Y58.4835
G01 Z-2.0000
G01 Z0
G00 Z2.0000
G00 X43.2435 Y55.9435
G01 Z-2.0000
G01 Z0
G00 Z2.0000
G00 X43.2435 Y53.4035
G01 Z-2.0000
G01 Z0
G00 Z2.0000
G00 X43.2435 Y50.8635
G01 Z-2.0000
G01 Z0
G00 Z2.0000
G00 X43.2435 Y48.3235
G01 Z-2.0000
G01 Z0
G00 Z2.0000
G00 X43.2435 Y45.7835
G01 Z-2.0000
G01 Z0
G00 Z2.0000
G00 X30.5435 Y15.3035
G01 Z-2.0000
G01 Z0
G00 Z2.0000
G00 X30.5435 Y12.7635
G01 Z-2.0000
G01 Z0
G00 Z2.0000
G00 X30.5435 Y10.2235
G01 Z-2.0000
G01 Z0
G00 Z2.0000
G00 X43.2435 Y10.2235
G01 Z-2.0000
G01 Z0
G00 Z2.0000
G00 X43.2435 Y12.7635
G01 Z-2.0000
G01 Z0
G00 Z2.0000
G00 X43.2435 Y15.3035
G01 Z-2.0000
G01 Z0
G00 Z2.0000
G00 X55.9435 Y40.7035
G01 Z-2.0000
G01 Z0
G00 Z2.0000
G00 X55.9435 Y38.1635
G01 Z-2.0000
G01 Z0
G00 Z2.0000
G00 X55.9435 Y35.6235
G01 Z-2.0000
G01 Z0
G00 Z2.0000
G00 X55.9435 Y33.0835
G01 Z-2.0000
G01 Z0
G00 Z2.0000
G00 X55.9435 Y30.5435
G01 Z-2.0000
G01 Z0
G00 Z2.0000
G00 X55.9435 Y28.0035
G01 Z-2.0000
G01 Z0
G00 Z2.0000
G00 X55.9435 Y25.4635
G01 Z-2.0000
G01 Z0
G00 Z2.0000
G00 X55.9435 Y22.9235
G01 Z-2.0000
G01 Z0
G00 Z2.0000
G00 X55.9435 Y20.3835
G01 Z-2.0000
G01 Z0
G00 Z2.0000
G00 X55.9435 Y17.8435
G01 Z-2.0000
G01 Z0
G00 Z2.0000
G00 X55.9435 Y15.3035
G01 Z-2.0000
G01 Z0
G00 Z2.0000
G00 X55.9435 Y12.7635
G01 Z-2.0000
G01 Z0
G00 Z2.0000
G00 X55.9435 Y10.2235
G01 Z-2.0000
G01 Z0
G00 Z2.0000
G00 X68.6435 Y10.2235
G01 Z-2.0000
G01 Z0
G00 Z2.0000
G00 X68.6435 Y12.7635
G01 Z-2.0000
G01 Z0
G00 Z2.0000
G00 X68.6435 Y15.3035
G01 Z-2.0000
G01 Z0
G00 Z2.0000
G00 X68.6435 Y17.8435
G01 Z-2.0000
G01 Z0
G00 Z2.0000
G00 X68.6435 Y20.3835
G01 Z-2.0000
G01 Z0
G00 Z2.0000
G00 X68.6435 Y22.9235
G01 Z-2.0000
G01 Z0
G00 Z2.0000
G00 X68.6435 Y25.4635
G01 Z-2.0000
G01 Z0
G00 Z2.0000
G00 X68.6435 Y28.0035
G01 Z-2.0000
G01 Z0
G00 Z2.0000
G00 X68.6435 Y30.5435
G01 Z-2.0000
G01 Z0
G00 Z2.0000
G00 X68.6435 Y33.0835
G01 Z-2.0000
G01 Z0
G00 Z2.0000
G00 X68.6435 Y35.6235
G01 Z-2.0000
G01 Z0
G00 Z2.0000
G00 X68.6435 Y38.1635
G01 Z-2.0000
G01 Z0
G00 Z2.0000
G00 X68.6435 Y40.7035
G01 Z-2.0000
G01 Z0
G00 Z2.0000
G00 X91.5035 Y7.6835
G01 Z-2.0000
G01 Z0
G00 Z2.0000
G00 X91.5035 Y5.1435
G01 Z-2.0000
G01 Z0
G00 Z2.0000
G00 X94.0435 Y5.1435
G01 Z-2.0000
G01 Z0
G00 Z2.0000
G00 X121.9835 Y5.1435
G01 Z-2.0000
G01 Z0
G00 Z2.0000
G00 X124.5235 Y5.1435
G01 Z-2.0000
G01 Z0
G00 Z2.0000
G00 X127.0635 Y5.1435
G01 Z-2.0000
G01 Z0
G00 Z2.0000
G00 X129.6035 Y5.1435
G01 Z-2.0000
G01 Z0
G00 Z2.0000
G00 X142.3035 Y5.1435
G01 Z-2.0000
G01 Z0
G00 Z2.0000
G00 X144.8435 Y5.1435
G01 Z-2.0000
G01 Z0
G00 Z2.0000
G00 X147.3835 Y5.1435
G01 Z-2.0000
G01 Z0
G00 Z2.0000
G00 X149.9235 Y5.1435
G01 Z-2.0000
G01 Z0
G00 Z2.0000
G00 X157.5435 Y5.1435
G01 Z-2.0000
G01 Z0
G00 Z2.0000
G00 X160.0835 Y5.1435
G01 Z-2.0000
G01 Z0
G00 Z2.0000
G00 X167.7035 Y12.7635
G01 Z-2.0000
G01 Z0
G00 Z2.0000
G00 X177.8635 Y12.7635
G01 Z-2.0000
G01 Z0
G00 Z2.0000
G00 X180.4035 Y12.7635
G01 Z-2.0000
G01 Z0
G00 Z2.0000
G00 X180.4035 Y20.3835
G01 Z-2.0000
G01 Z0
G00 Z2.0000
G00 X177.8635 Y22.9235
G01 Z-2.0000
G01 Z0
G00 Z2.0000
G00 X177.8635 Y25.4635
G01 Z-2.0000
G01 Z0
G00 Z2.0000
G00 X180.4035 Y28.0035
G01 Z-2.0000
G01 Z0
G00 Z2.0000
G00 X188.0235 Y25.4635
G01 Z-2.0000
G01 Z0
G00 Z2.0000
G00 X188.0235 Y22.9235
G01 Z-2.0000
G01 Z0
G00 Z2.0000
G00 X198.1835 Y17.8435
G01 Z-2.0000
G01 Z0
G00 Z2.0000
G00 X223.5835 Y12.7635
G01 Z-2.0000
G01 Z0
G00 Z2.0000
G00 X223.5835 Y12.7635
G01 Z-2.0000
G01 Z0
G00 Z2.0000
G00 X223.5835 Y15.3035
G01 Z-2.0000
G01 Z0
G00 Z2.0000
G00 X223.5835 Y15.3035
G01 Z-2.0000
G01 Z0
G00 Z2.0000
M05
G00 Z0.50


