(G-CODE GENERATED BY FLATCAM v8.994 - www.flatcam.org - Version Date: 2020/11/7)

(Name: Clock - Cut.gbr_iso_combined_cnc)
(Type: G-code from Geometry)
(Units: MM)

(Created on Wednesday, 04 December 2024 at 10:09)

(This preprocessor is the default preprocessor used by FlatCAM.)
(It is made to work with MACH3 compatible motion controllers.)

(TOOL DIAMETER: 1.5 mm)
(Feedrate_XY: 120.0 mm/min)
(Feedrate_Z: 60.0 mm/min)
(Feedrate rapids 1500.0 mm/min)

(Z_Cut: -2.4 mm)
(Z_Move: 2.0 mm)
(Z Start: None mm)
(Z End: 15.0 mm)
(X,Y End: None mm)
(Steps per circle: 64)
(Preprocessor Geometry: default)

(X range:   -0.7500 ...  229.4770  mm)
(Y range:   -0.7500 ...   94.8570  mm)

(Spindle Speed: 0.0 RPM)
G21
G90
G94

G01 F120.00
G00 Z15.0000

M03
G01 F120.00
G00 X25.4267 Y4.3309
G01 F60.00
G01 Z-2.4000
G01 F120.00
G01 X25.4635 Y4.3300
G01 X48.3419 Y4.3302
G01 X48.3665 Y4.3312
G01 X48.4032 Y4.3339
G01 X48.4398 Y4.3384
G01 X48.4641 Y4.3422
G01 X48.5002 Y4.3494
G01 X48.5242 Y4.3552
G01 X48.5597 Y4.3650
G01 X48.5946 Y4.3765
G01 X48.6177 Y4.3851
G01 X48.6517 Y4.3991
G01 X48.6741 Y4.4095
G01 X48.7070 Y4.4260
G01 X48.7390 Y4.4442
G01 X48.7600 Y4.4570
G01 X48.7907 Y4.4775
G01 X48.8106 Y4.4920
G01 X48.8396 Y4.5146
G01 X48.8675 Y4.5387
G01 X48.8856 Y4.5554
G01 X48.9116 Y4.5814
G01 X48.9283 Y4.5995
G01 X48.9524 Y4.6274
G01 X48.9750 Y4.6564
G01 X48.9895 Y4.6763
G01 X49.0100 Y4.7070
G01 X49.0228 Y4.7280
G01 X49.0410 Y4.7600
G01 X49.0575 Y4.7929
G01 X49.0679 Y4.8153
G01 X49.0819 Y4.8493
G01 X49.0905 Y4.8724
G01 X49.1020 Y4.9073
G01 X49.1118 Y4.9428
G01 X49.1176 Y4.9668
G01 X49.1248 Y5.0029
G01 X49.1286 Y5.0272
G01 X49.1311 Y5.0455
G01 X49.1347 Y5.0821
G01 X49.1361 Y5.1067
G01 X49.1370 Y5.1435
G01 X49.1368 Y17.8608
G01 X49.1253 Y18.1154
G01 X49.1243 Y18.1327
G01 X49.1224 Y18.1558
G01 X49.1184 Y18.1903
G01 X49.0860 Y18.4226
G01 X49.0834 Y18.4397
G01 X49.0793 Y18.4626
G01 X49.0722 Y18.4965
G01 X49.0185 Y18.7249
G01 X49.0143 Y18.7417
G01 X49.0081 Y18.7640
G01 X48.9979 Y18.7971
G01 X48.9233 Y19.0196
G01 X48.9116 Y19.0522
G01 X48.9030 Y19.0737
G01 X48.8014 Y19.3043
G01 X48.7942 Y19.3200
G01 X48.7841 Y19.3409
G01 X48.7679 Y19.3715
G01 X48.6538 Y19.5765
G01 X48.6452 Y19.5915
G01 X48.6331 Y19.6114
G01 X48.6142 Y19.6404
G01 X48.4816 Y19.8339
G01 X48.4717 Y19.8481
G01 X48.4579 Y19.8668
G01 X48.4363 Y19.8939
G01 X48.2865 Y20.0744
G01 X48.2752 Y20.0876
G01 X48.2598 Y20.1049
G01 X48.2358 Y20.1299
G01 X48.0699 Y20.2958
G01 X48.0575 Y20.3079
G01 X48.0405 Y20.3237
G01 X48.0144 Y20.3465
G01 X47.8339 Y20.4963
G01 X47.8068 Y20.5179
G01 X47.7881 Y20.5317
G01 X47.7739 Y20.5416
G01 X47.5804 Y20.6742
G01 X47.5514 Y20.6931
G01 X47.5315 Y20.7052
G01 X47.5165 Y20.7138
G01 X47.3115 Y20.8279
G01 X47.2963 Y20.8362
G01 X47.2756 Y20.8467
G01 X47.2443 Y20.8614
G01 X47.0297 Y20.9562
G01 X46.9976 Y20.9694
G01 X46.9759 Y20.9776
G01 X46.7371 Y21.0579
G01 X46.7040 Y21.0681
G01 X46.6817 Y21.0743
G01 X46.6649 Y21.0785
G01 X46.4365 Y21.1322
G01 X46.4196 Y21.1359
G01 X46.3968 Y21.1404
G01 X46.3626 Y21.1460
G01 X46.1303 Y21.1784
G01 X46.1131 Y21.1806
G01 X46.0900 Y21.1829
G01 X46.0554 Y21.1853
G01 X45.8211 Y21.1962
G01 X45.7835 Y21.1970
G01 X43.2623 Y21.1970
G01 X43.0843 Y21.2053
G01 X42.9264 Y21.2273
G01 X42.7713 Y21.2638
G01 X42.6201 Y21.3144
G01 X42.4743 Y21.3788
G01 X42.3351 Y21.4564
G01 X42.2036 Y21.5464
G01 X42.0810 Y21.6483
G01 X41.9683 Y21.7610
G01 X41.8664 Y21.8836
G01 X41.7764 Y22.0151
G01 X41.6988 Y22.1543
G01 X41.6344 Y22.3001
G01 X41.5838 Y22.4513
G01 X41.5473 Y22.6064
G01 X41.5253 Y22.7643
G01 X41.5170 Y22.9423
G01 X41.5170 Y38.1435
G01 X41.5263 Y38.3326
G01 X41.5512 Y38.5001
G01 X41.5923 Y38.6644
G01 X41.6494 Y38.8238
G01 X41.7218 Y38.9769
G01 X41.8088 Y39.1221
G01 X41.9097 Y39.2581
G01 X42.0234 Y39.3836
G01 X42.1489 Y39.4973
G01 X42.2849 Y39.5982
G01 X42.4301 Y39.6852
G01 X42.5832 Y39.7576
G01 X42.7426 Y39.8147
G01 X42.9069 Y39.8558
G01 X43.0744 Y39.8807
G01 X43.2635 Y39.8900
G01 X45.7835 Y39.8900
G01 X45.8234 Y39.8910
G01 X46.0724 Y39.9032
G01 X46.0908 Y39.9043
G01 X46.1153 Y39.9065
G01 X46.1518 Y39.9110
G01 X46.3984 Y39.9476
G01 X46.4166 Y39.9505
G01 X46.4408 Y39.9551
G01 X46.4767 Y39.9632
G01 X46.7185 Y40.0237
G01 X46.7363 Y40.0284
G01 X46.7599 Y40.0354
G01 X46.7949 Y40.0469
G01 X47.0296 Y40.1309
G01 X47.0468 Y40.1373
G01 X47.0697 Y40.1465
G01 X47.1033 Y40.1614
G01 X47.3287 Y40.2680
G01 X47.3452 Y40.2761
G01 X47.3671 Y40.2875
G01 X47.3991 Y40.3056
G01 X47.6129 Y40.4338
G01 X47.6286 Y40.4434
G01 X47.6492 Y40.4569
G01 X47.6793 Y40.4781
G01 X47.8795 Y40.6266
G01 X47.8941 Y40.6378
G01 X47.9133 Y40.6532
G01 X47.9412 Y40.6773
G01 X48.1259 Y40.8447
G01 X48.1394 Y40.8572
G01 X48.1570 Y40.8745
G01 X48.1823 Y40.9011
G01 X48.3497 Y41.0858
G01 X48.3619 Y41.0996
G01 X48.3777 Y41.1185
G01 X48.4004 Y41.1475
G01 X48.5489 Y41.3477
G01 X48.5701 Y41.3778
G01 X48.5836 Y41.3984
G01 X48.5932 Y41.4141
G01 X48.7214 Y41.6279
G01 X48.7306 Y41.6438
G01 X48.7425 Y41.6654
G01 X48.7590 Y41.6983
G01 X48.8656 Y41.9237
G01 X48.8732 Y41.9404
G01 X48.8829 Y41.9631
G01 X48.8961 Y41.9974
G01 X48.9801 Y42.2321
G01 X48.9861 Y42.2495
G01 X48.9935 Y42.2730
G01 X49.0033 Y42.3085
G01 X49.0638 Y42.5503
G01 X49.0681 Y42.5682
G01 X49.0731 Y42.5923
G01 X49.0794 Y42.6286
G01 X49.1185 Y42.8934
G01 X49.1211 Y42.9179
G01 X49.1238 Y42.9546
G01 X49.1360 Y43.2036
G01 X49.1370 Y43.2435
G01 X49.1368 Y81.3619
G01 X49.1358 Y81.3865
G01 X49.1331 Y81.4232
G01 X49.1286 Y81.4598
G01 X49.1248 Y81.4841
G01 X49.1176 Y81.5202
G01 X49.1118 Y81.5442
G01 X49.1020 Y81.5797
G01 X49.0905 Y81.6146
G01 X49.0819 Y81.6377
G01 X49.0679 Y81.6717
G01 X49.0575 Y81.6941
G01 X49.0410 Y81.7270
G01 X49.0228 Y81.7590
G01 X49.0100 Y81.7800
G01 X48.9895 Y81.8107
G01 X48.9750 Y81.8306
G01 X48.9524 Y81.8596
G01 X48.9283 Y81.8875
G01 X48.9116 Y81.9056
G01 X48.8856 Y81.9316
G01 X48.8675 Y81.9483
G01 X48.8396 Y81.9724
G01 X48.8106 Y81.9950
G01 X48.7907 Y82.0095
G01 X48.7600 Y82.0300
G01 X48.7390 Y82.0428
G01 X48.7070 Y82.0610
G01 X48.6741 Y82.0775
G01 X48.6517 Y82.0879
G01 X48.6177 Y82.1019
G01 X48.5946 Y82.1105
G01 X48.5597 Y82.1220
G01 X48.5242 Y82.1318
G01 X48.5002 Y82.1376
G01 X48.4641 Y82.1448
G01 X48.4398 Y82.1486
G01 X48.4032 Y82.1531
G01 X48.3849 Y82.1547
G01 X48.3603 Y82.1561
G01 X48.3235 Y82.1570
G01 X25.4451 Y82.1568
G01 X25.4205 Y82.1558
G01 X25.3838 Y82.1531
G01 X25.3472 Y82.1486
G01 X25.3229 Y82.1448
G01 X25.2868 Y82.1376
G01 X25.2628 Y82.1318
G01 X25.2273 Y82.1220
G01 X25.1924 Y82.1105
G01 X25.1693 Y82.1019
G01 X25.1353 Y82.0879
G01 X25.1129 Y82.0775
G01 X25.0800 Y82.0610
G01 X25.0480 Y82.0428
G01 X25.0270 Y82.0300
G01 X24.9963 Y82.0095
G01 X24.9764 Y81.9950
G01 X24.9474 Y81.9724
G01 X24.9195 Y81.9483
G01 X24.9014 Y81.9316
G01 X24.8754 Y81.9056
G01 X24.8587 Y81.8875
G01 X24.8346 Y81.8596
G01 X24.8120 Y81.8306
G01 X24.7975 Y81.8107
G01 X24.7770 Y81.7800
G01 X24.7642 Y81.7590
G01 X24.7460 Y81.7270
G01 X24.7295 Y81.6941
G01 X24.7191 Y81.6717
G01 X24.7051 Y81.6377
G01 X24.6965 Y81.6146
G01 X24.6850 Y81.5797
G01 X24.6752 Y81.5442
G01 X24.6694 Y81.5202
G01 X24.6622 Y81.4841
G01 X24.6584 Y81.4598
G01 X24.6559 Y81.4415
G01 X24.6523 Y81.4049
G01 X24.6509 Y81.3803
G01 X24.6500 Y81.3435
G01 X24.6500 Y43.2435
G01 X24.6510 Y43.2036
G01 X24.6632 Y42.9546
G01 X24.6659 Y42.9179
G01 X24.6685 Y42.8934
G01 X24.6710 Y42.8752
G01 X24.7105 Y42.6104
G01 X24.7151 Y42.5862
G01 X24.7232 Y42.5503
G01 X24.7837 Y42.3085
G01 X24.7935 Y42.2730
G01 X24.8009 Y42.2495
G01 X24.8069 Y42.2321
G01 X24.8909 Y41.9974
G01 X24.8973 Y41.9802
G01 X24.9065 Y41.9573
G01 X24.9214 Y41.9237
G01 X25.0280 Y41.6983
G01 X25.0361 Y41.6818
G01 X25.0475 Y41.6599
G01 X25.0656 Y41.6279
G01 X25.1938 Y41.4141
G01 X25.2034 Y41.3984
G01 X25.2169 Y41.3778
G01 X25.2381 Y41.3477
G01 X25.3866 Y41.1475
G01 X25.3978 Y41.1329
G01 X25.4132 Y41.1137
G01 X25.4373 Y41.0858
G01 X25.6047 Y40.9011
G01 X25.6172 Y40.8876
G01 X25.6345 Y40.8700
G01 X25.6611 Y40.8447
G01 X25.8458 Y40.6773
G01 X25.8596 Y40.6651
G01 X25.8785 Y40.6493
G01 X25.9075 Y40.6266
G01 X26.1077 Y40.4781
G01 X26.1227 Y40.4674
G01 X26.1430 Y40.4535
G01 X26.1741 Y40.4338
G01 X26.3879 Y40.3056
G01 X26.4038 Y40.2964
G01 X26.4254 Y40.2845
G01 X26.4583 Y40.2680
G01 X26.6837 Y40.1614
G01 X26.7173 Y40.1465
G01 X26.7402 Y40.1373
G01 X26.7574 Y40.1309
G01 X26.9921 Y40.0469
G01 X27.0271 Y40.0354
G01 X27.0507 Y40.0284
G01 X27.0685 Y40.0237
G01 X27.3103 Y39.9632
G01 X27.3462 Y39.9551
G01 X27.3704 Y39.9505
G01 X27.3886 Y39.9476
G01 X27.6534 Y39.9085
G01 X27.6779 Y39.9059
G01 X27.7146 Y39.9032
G01 X27.9636 Y39.8910
G01 X28.0035 Y39.8900
G01 X30.5235 Y39.8900
G01 X30.7126 Y39.8807
G01 X30.8801 Y39.8558
G01 X31.0444 Y39.8147
G01 X31.2038 Y39.7576
G01 X31.3569 Y39.6852
G01 X31.5021 Y39.5982
G01 X31.6381 Y39.4973
G01 X31.7636 Y39.3836
G01 X31.8773 Y39.2581
G01 X31.9782 Y39.1221
G01 X32.0652 Y38.9769
G01 X32.1376 Y38.8238
G01 X32.1947 Y38.6644
G01 X32.2358 Y38.5001
G01 X32.2607 Y38.3326
G01 X32.2700 Y38.1435
G01 X32.2700 Y22.9435
G01 X32.2607 Y22.7544
G01 X32.2358 Y22.5869
G01 X32.1947 Y22.4226
G01 X32.1376 Y22.2632
G01 X32.0652 Y22.1101
G01 X31.9782 Y21.9649
G01 X31.8773 Y21.8289
G01 X31.7636 Y21.7034
G01 X31.6381 Y21.5897
G01 X31.5021 Y21.4888
G01 X31.3569 Y21.4018
G01 X31.2038 Y21.3294
G01 X31.0444 Y21.2723
G01 X30.8801 Y21.2312
G01 X30.7126 Y21.2063
G01 X30.5235 Y21.1970
G01 X28.0035 Y21.1970
G01 X27.9659 Y21.1962
G01 X27.7316 Y21.1853
G01 X27.7143 Y21.1843
G01 X27.6912 Y21.1824
G01 X27.6567 Y21.1784
G01 X27.4244 Y21.1460
G01 X27.4073 Y21.1434
G01 X27.3844 Y21.1393
G01 X27.3505 Y21.1322
G01 X27.1221 Y21.0785
G01 X27.1053 Y21.0743
G01 X27.0830 Y21.0681
G01 X27.0499 Y21.0579
G01 X26.8274 Y20.9833
G01 X26.8111 Y20.9776
G01 X26.7894 Y20.9694
G01 X26.7573 Y20.9562
G01 X26.5427 Y20.8614
G01 X26.5270 Y20.8542
G01 X26.5061 Y20.8441
G01 X26.4755 Y20.8279
G01 X26.2705 Y20.7138
G01 X26.2555 Y20.7052
G01 X26.2356 Y20.6931
G01 X26.2066 Y20.6742
G01 X26.0131 Y20.5416
G01 X25.9989 Y20.5317
G01 X25.9802 Y20.5179
G01 X25.9531 Y20.4963
G01 X25.7726 Y20.3465
G01 X25.7594 Y20.3352
G01 X25.7421 Y20.3198
G01 X25.7171 Y20.2958
G01 X25.5512 Y20.1299
G01 X25.5391 Y20.1175
G01 X25.5233 Y20.1005
G01 X25.5005 Y20.0744
G01 X25.3507 Y19.8939
G01 X25.3291 Y19.8668
G01 X25.3153 Y19.8481
G01 X25.3054 Y19.8339
G01 X25.1728 Y19.6404
G01 X25.1632 Y19.6260
G01 X25.1508 Y19.6064
G01 X25.1332 Y19.5765
G01 X25.0191 Y19.3715
G01 X25.0108 Y19.3563
G01 X25.0003 Y19.3356
G01 X24.9856 Y19.3043
G01 X24.8908 Y19.0897
G01 X24.8840 Y19.0737
G01 X24.8754 Y19.0522
G01 X24.8637 Y19.0196
G01 X24.7891 Y18.7971
G01 X24.7838 Y18.7806
G01 X24.7773 Y18.7584
G01 X24.7685 Y18.7249
G01 X24.7111 Y18.4796
G01 X24.7066 Y18.4568
G01 X24.7010 Y18.4226
G01 X24.6686 Y18.1903
G01 X24.6646 Y18.1558
G01 X24.6627 Y18.1327
G01 X24.6617 Y18.1154
G01 X24.6508 Y17.8811
G01 X24.6500 Y17.8435
G01 X24.6500 Y5.1435
G01 X24.6502 Y5.1251
G01 X24.6512 Y5.1005
G01 X24.6539 Y5.0638
G01 X24.6559 Y5.0455
G01 X24.6593 Y5.0211
G01 X24.6656 Y4.9848
G01 X24.6737 Y4.9489
G01 X24.6799 Y4.9250
G01 X24.6906 Y4.8898
G01 X24.7051 Y4.8493
G01 X24.7191 Y4.8153
G01 X24.7295 Y4.7929
G01 X24.7460 Y4.7600
G01 X24.7642 Y4.7280
G01 X24.7770 Y4.7070
G01 X24.7871 Y4.6915
G01 X24.7975 Y4.6763
G01 X24.8120 Y4.6564
G01 X24.8346 Y4.6274
G01 X24.8465 Y4.6133
G01 X24.8629 Y4.5949
G01 X24.8882 Y4.5682
G01 X24.9149 Y4.5429
G01 X24.9333 Y4.5265
G01 X24.9474 Y4.5146
G01 X24.9764 Y4.4920
G01 X24.9963 Y4.4775
G01 X25.0115 Y4.4671
G01 X25.0270 Y4.4570
G01 X25.0480 Y4.4442
G01 X25.0800 Y4.4260
G01 X25.1129 Y4.4095
G01 X25.1353 Y4.3991
G01 X25.1693 Y4.3851
G01 X25.2098 Y4.3706
G01 X25.2450 Y4.3599
G01 X25.2868 Y4.3494
G01 X25.3229 Y4.3422
G01 X25.3655 Y4.3359
G01 X25.4021 Y4.3323
G01 X25.4267 Y4.3309
G00 Z2.0000
G00 X81.9885 Y9.7104
G01 F60.00
G01 Z-2.4000
G01 F120.00
G01 X82.0633 Y9.7664
G01 X82.1431 Y9.8150
G01 X82.2271 Y9.8558
G01 X82.3146 Y9.8885
G01 X82.4048 Y9.9127
G01 X82.4970 Y9.9282
G01 X82.5901 Y9.9348
G01 X82.6835 Y9.9326
G01 X82.7763 Y9.9215
G01 X82.8676 Y9.9017
G01 X82.9565 Y9.8732
G01 X83.0424 Y9.8364
G01 X83.1244 Y9.7917
G01 X83.2018 Y9.7393
G01 X83.2738 Y9.6798
G01 X83.3398 Y9.6138
G01 X83.3993 Y9.5418
G01 X83.4517 Y9.4644
G01 X83.4964 Y9.3824
G01 X83.5332 Y9.2965
G01 X83.5617 Y9.2076
G01 X83.5815 Y9.1163
G01 X83.5926 Y9.0235
G01 X83.5948 Y8.9301
G01 X83.5882 Y8.8370
G01 X83.5727 Y8.7448
G01 X83.5485 Y8.6546
G01 X83.5158 Y8.5671
G01 X83.4750 Y8.4831
G01 X83.4264 Y8.4033
G01 X83.3704 Y8.3285
G01 X83.3076 Y8.2594
G01 X83.2385 Y8.1966
G01 X83.1637 Y8.1406
G01 X83.0839 Y8.0920
G01 X82.9999 Y8.0512
G01 X82.9124 Y8.0185
G01 X82.8222 Y7.9943
G01 X82.7300 Y7.9788
G01 X82.6369 Y7.9722
G01 X82.5435 Y7.9744
G01 X82.4507 Y7.9855
G01 X82.3594 Y8.0053
G01 X82.2705 Y8.0338
G01 X82.1846 Y8.0706
G01 X82.1026 Y8.1153
G01 X82.0252 Y8.1677
G01 X81.9532 Y8.2272
G01 X81.8872 Y8.2932
G01 X81.8277 Y8.3652
G01 X81.7753 Y8.4426
G01 X81.7306 Y8.5246
G01 X81.6938 Y8.6105
G01 X81.6653 Y8.6994
G01 X81.6455 Y8.7907
G01 X81.6344 Y8.8835
G01 X81.6322 Y8.9769
G01 X81.6388 Y9.0700
G01 X81.6543 Y9.1622
G01 X81.6785 Y9.2524
G01 X81.7112 Y9.3399
G01 X81.7520 Y9.4239
G01 X81.8006 Y9.5037
G01 X81.8566 Y9.5785
G01 X81.9194 Y9.6476
G01 X81.9885 Y9.7104
G00 Z2.0000
G00 X74.5370 Y81.3435
G01 F60.00
G01 Z-2.4000
G01 F120.00
G01 X74.5361 Y81.3803
G01 X74.5347 Y81.4049
G01 X74.5331 Y81.4232
G01 X74.5311 Y81.4415
G01 X74.5277 Y81.4659
G01 X74.5214 Y81.5022
G01 X74.5133 Y81.5381
G01 X74.5071 Y81.5620
G01 X74.5020 Y81.5797
G01 X74.4964 Y81.5972
G01 X74.4884 Y81.6205
G01 X74.4751 Y81.6548
G01 X74.4679 Y81.6717
G01 X74.4575 Y81.6941
G01 X74.4410 Y81.7270
G01 X74.4228 Y81.7590
G01 X74.4100 Y81.7800
G01 X74.3999 Y81.7955
G01 X74.3895 Y81.8107
G01 X74.3750 Y81.8306
G01 X74.3524 Y81.8596
G01 X74.3283 Y81.8875
G01 X74.3116 Y81.9056
G01 X74.2988 Y81.9188
G01 X74.2856 Y81.9316
G01 X74.2675 Y81.9483
G01 X74.2396 Y81.9724
G01 X74.2252 Y81.9839
G01 X74.2056 Y81.9987
G01 X74.1755 Y82.0199
G01 X74.1444 Y82.0396
G01 X74.1231 Y82.0521
G01 X74.1070 Y82.0610
G01 X74.0907 Y82.0694
G01 X74.0685 Y82.0802
G01 X74.0348 Y82.0951
G01 X74.0005 Y82.1084
G01 X73.9772 Y82.1164
G01 X73.9597 Y82.1220
G01 X73.9420 Y82.1271
G01 X73.9181 Y82.1333
G01 X73.8822 Y82.1414
G01 X73.8459 Y82.1477
G01 X73.8215 Y82.1511
G01 X73.8032 Y82.1531
G01 X73.7849 Y82.1547
G01 X73.7603 Y82.1561
G01 X73.7235 Y82.1570
G01 X50.8451 Y82.1568
G01 X50.8205 Y82.1558
G01 X50.7838 Y82.1531
G01 X50.7472 Y82.1486
G01 X50.7229 Y82.1448
G01 X50.6868 Y82.1376
G01 X50.6628 Y82.1318
G01 X50.6273 Y82.1220
G01 X50.5924 Y82.1105
G01 X50.5693 Y82.1019
G01 X50.5353 Y82.0879
G01 X50.5129 Y82.0775
G01 X50.4800 Y82.0610
G01 X50.4480 Y82.0428
G01 X50.4270 Y82.0300
G01 X50.3963 Y82.0095
G01 X50.3764 Y81.9950
G01 X50.3474 Y81.9724
G01 X50.3195 Y81.9483
G01 X50.3014 Y81.9316
G01 X50.2754 Y81.9056
G01 X50.2587 Y81.8875
G01 X50.2346 Y81.8596
G01 X50.2120 Y81.8306
G01 X50.1975 Y81.8107
G01 X50.1770 Y81.7800
G01 X50.1642 Y81.7590
G01 X50.1460 Y81.7270
G01 X50.1295 Y81.6941
G01 X50.1191 Y81.6717
G01 X50.1051 Y81.6377
G01 X50.0965 Y81.6146
G01 X50.0850 Y81.5797
G01 X50.0752 Y81.5442
G01 X50.0694 Y81.5202
G01 X50.0622 Y81.4841
G01 X50.0584 Y81.4598
G01 X50.0539 Y81.4232
G01 X50.0523 Y81.4049
G01 X50.0509 Y81.3803
G01 X50.0500 Y81.3435
G01 X50.0502 Y68.6251
G01 X50.0510 Y68.6036
G01 X50.0632 Y68.3546
G01 X50.0643 Y68.3362
G01 X50.0665 Y68.3117
G01 X50.0710 Y68.2752
G01 X50.1076 Y68.0286
G01 X50.1105 Y68.0104
G01 X50.1151 Y67.9862
G01 X50.1232 Y67.9503
G01 X50.1837 Y67.7085
G01 X50.1884 Y67.6907
G01 X50.1954 Y67.6671
G01 X50.2069 Y67.6321
G01 X50.2909 Y67.3974
G01 X50.2973 Y67.3802
G01 X50.3065 Y67.3573
G01 X50.3214 Y67.3237
G01 X50.4280 Y67.0983
G01 X50.4361 Y67.0818
G01 X50.4475 Y67.0599
G01 X50.4656 Y67.0279
G01 X50.5938 Y66.8141
G01 X50.6034 Y66.7984
G01 X50.6169 Y66.7778
G01 X50.6381 Y66.7477
G01 X50.7866 Y66.5475
G01 X50.7978 Y66.5329
G01 X50.8132 Y66.5137
G01 X50.8373 Y66.4858
G01 X51.0047 Y66.3011
G01 X51.0172 Y66.2876
G01 X51.0345 Y66.2700
G01 X51.0611 Y66.2447
G01 X51.2458 Y66.0773
G01 X51.2596 Y66.0651
G01 X51.2785 Y66.0493
G01 X51.3075 Y66.0266
G01 X51.5077 Y65.8781
G01 X51.5227 Y65.8674
G01 X51.5430 Y65.8535
G01 X51.5741 Y65.8338
G01 X51.7879 Y65.7056
G01 X51.8038 Y65.6964
G01 X51.8254 Y65.6845
G01 X51.8583 Y65.6680
G01 X52.0837 Y65.5614
G01 X52.1004 Y65.5538
G01 X52.1231 Y65.5441
G01 X52.1574 Y65.5309
G01 X52.3921 Y65.4469
G01 X52.4095 Y65.4409
G01 X52.4330 Y65.4335
G01 X52.4685 Y65.4237
G01 X52.7103 Y65.3632
G01 X52.7282 Y65.3589
G01 X52.7523 Y65.3539
G01 X52.7886 Y65.3476
G01 X53.0352 Y65.3110
G01 X53.0534 Y65.3085
G01 X53.0779 Y65.3059
G01 X53.1146 Y65.3032
G01 X53.3636 Y65.2910
G01 X53.4035 Y65.2900
G01 X55.9235 Y65.2900
G01 X56.1126 Y65.2807
G01 X56.2801 Y65.2558
G01 X56.4444 Y65.2147
G01 X56.6038 Y65.1576
G01 X56.7569 Y65.0852
G01 X56.9021 Y64.9982
G01 X57.0381 Y64.8973
G01 X57.1636 Y64.7836
G01 X57.2773 Y64.6581
G01 X57.3782 Y64.5221
G01 X57.4652 Y64.3769
G01 X57.5376 Y64.2238
G01 X57.5947 Y64.0644
G01 X57.6358 Y63.9001
G01 X57.6607 Y63.7326
G01 X57.6700 Y63.5435
G01 X57.6700 Y48.3435
G01 X57.6607 Y48.1544
G01 X57.6358 Y47.9869
G01 X57.5947 Y47.8226
G01 X57.5376 Y47.6632
G01 X57.4652 Y47.5101
G01 X57.3782 Y47.3649
G01 X57.2773 Y47.2289
G01 X57.1636 Y47.1034
G01 X57.0381 Y46.9897
G01 X56.9021 Y46.8888
G01 X56.7569 Y46.8018
G01 X56.6038 Y46.7294
G01 X56.4444 Y46.6723
G01 X56.2801 Y46.6312
G01 X56.1126 Y46.6063
G01 X55.9235 Y46.5970
G01 X53.4035 Y46.5970
G01 X53.3636 Y46.5960
G01 X53.1146 Y46.5838
G01 X53.0962 Y46.5827
G01 X53.0717 Y46.5805
G01 X53.0352 Y46.5760
G01 X52.7886 Y46.5394
G01 X52.7704 Y46.5365
G01 X52.7462 Y46.5319
G01 X52.7103 Y46.5238
G01 X52.4685 Y46.4633
G01 X52.4507 Y46.4586
G01 X52.4271 Y46.4516
G01 X52.3921 Y46.4401
G01 X52.1574 Y46.3561
G01 X52.1402 Y46.3497
G01 X52.1173 Y46.3405
G01 X52.0837 Y46.3256
G01 X51.8583 Y46.2190
G01 X51.8418 Y46.2109
G01 X51.8199 Y46.1995
G01 X51.7879 Y46.1814
G01 X51.5741 Y46.0532
G01 X51.5584 Y46.0436
G01 X51.5378 Y46.0301
G01 X51.5077 Y46.0089
G01 X51.3075 Y45.8604
G01 X51.2929 Y45.8492
G01 X51.2737 Y45.8338
G01 X51.2458 Y45.8097
G01 X51.0611 Y45.6423
G01 X51.0476 Y45.6298
G01 X51.0300 Y45.6125
G01 X51.0047 Y45.5859
G01 X50.8373 Y45.4012
G01 X50.8251 Y45.3874
G01 X50.8093 Y45.3685
G01 X50.7866 Y45.3395
G01 X50.6381 Y45.1393
G01 X50.6169 Y45.1092
G01 X50.6034 Y45.0886
G01 X50.5938 Y45.0729
G01 X50.4656 Y44.8591
G01 X50.4564 Y44.8432
G01 X50.4445 Y44.8216
G01 X50.4280 Y44.7887
G01 X50.3214 Y44.5633
G01 X50.3138 Y44.5466
G01 X50.3041 Y44.5239
G01 X50.2909 Y44.4896
G01 X50.2069 Y44.2549
G01 X50.2009 Y44.2375
G01 X50.1935 Y44.2140
G01 X50.1837 Y44.1785
G01 X50.1232 Y43.9367
G01 X50.1189 Y43.9188
G01 X50.1139 Y43.8947
G01 X50.1076 Y43.8584
G01 X50.0685 Y43.5936
G01 X50.0659 Y43.5691
G01 X50.0632 Y43.5324
G01 X50.0510 Y43.2834
G01 X50.0500 Y43.2435
G01 X50.0502 Y5.1251
G01 X50.0512 Y5.1005
G01 X50.0539 Y5.0638
G01 X50.0584 Y5.0272
G01 X50.0622 Y5.0029
G01 X50.0694 Y4.9668
G01 X50.0752 Y4.9428
G01 X50.0850 Y4.9073
G01 X50.0965 Y4.8724
G01 X50.1051 Y4.8493
G01 X50.1191 Y4.8153
G01 X50.1295 Y4.7929
G01 X50.1460 Y4.7600
G01 X50.1642 Y4.7280
G01 X50.1770 Y4.7070
G01 X50.1975 Y4.6763
G01 X50.2120 Y4.6564
G01 X50.2346 Y4.6274
G01 X50.2587 Y4.5995
G01 X50.2754 Y4.5814
G01 X50.3014 Y4.5554
G01 X50.3195 Y4.5387
G01 X50.3474 Y4.5146
G01 X50.3764 Y4.4920
G01 X50.3963 Y4.4775
G01 X50.4270 Y4.4570
G01 X50.4480 Y4.4442
G01 X50.4800 Y4.4260
G01 X50.5129 Y4.4095
G01 X50.5353 Y4.3991
G01 X50.5693 Y4.3851
G01 X50.5924 Y4.3765
G01 X50.6273 Y4.3650
G01 X50.6628 Y4.3552
G01 X50.6868 Y4.3494
G01 X50.7229 Y4.3422
G01 X50.7472 Y4.3384
G01 X50.7655 Y4.3359
G01 X50.8021 Y4.3323
G01 X50.8267 Y4.3309
G01 X50.8635 Y4.3300
G01 X73.7419 Y4.3302
G01 X73.7665 Y4.3312
G01 X73.8032 Y4.3339
G01 X73.8398 Y4.3384
G01 X73.8641 Y4.3422
G01 X73.9002 Y4.3494
G01 X73.9242 Y4.3552
G01 X73.9597 Y4.3650
G01 X73.9946 Y4.3765
G01 X74.0177 Y4.3851
G01 X74.0517 Y4.3991
G01 X74.0741 Y4.4095
G01 X74.1070 Y4.4260
G01 X74.1390 Y4.4442
G01 X74.1600 Y4.4570
G01 X74.1907 Y4.4775
G01 X74.2106 Y4.4920
G01 X74.2396 Y4.5146
G01 X74.2675 Y4.5387
G01 X74.2856 Y4.5554
G01 X74.3116 Y4.5814
G01 X74.3283 Y4.5995
G01 X74.3524 Y4.6274
G01 X74.3750 Y4.6564
G01 X74.3895 Y4.6763
G01 X74.4100 Y4.7070
G01 X74.4228 Y4.7280
G01 X74.4410 Y4.7600
G01 X74.4575 Y4.7929
G01 X74.4679 Y4.8153
G01 X74.4819 Y4.8493
G01 X74.4905 Y4.8724
G01 X74.5020 Y4.9073
G01 X74.5118 Y4.9428
G01 X74.5176 Y4.9668
G01 X74.5248 Y5.0029
G01 X74.5286 Y5.0272
G01 X74.5331 Y5.0638
G01 X74.5347 Y5.0821
G01 X74.5361 Y5.1067
G01 X74.5370 Y5.1435
G01 X74.5370 Y43.2435
G01 X74.5360 Y43.2834
G01 X74.5238 Y43.5324
G01 X74.5211 Y43.5691
G01 X74.5185 Y43.5936
G01 X74.4794 Y43.8584
G01 X74.4765 Y43.8766
G01 X74.4719 Y43.9008
G01 X74.4638 Y43.9367
G01 X74.4033 Y44.1785
G01 X74.3986 Y44.1963
G01 X74.3916 Y44.2199
G01 X74.3801 Y44.2549
G01 X74.2961 Y44.4896
G01 X74.2897 Y44.5068
G01 X74.2805 Y44.5297
G01 X74.2656 Y44.5633
G01 X74.1590 Y44.7887
G01 X74.1425 Y44.8216
G01 X74.1306 Y44.8432
G01 X74.1214 Y44.8591
G01 X73.9932 Y45.0729
G01 X73.9836 Y45.0886
G01 X73.9701 Y45.1092
G01 X73.9489 Y45.1393
G01 X73.8004 Y45.3395
G01 X73.7892 Y45.3541
G01 X73.7738 Y45.3733
G01 X73.7497 Y45.4012
G01 X73.5823 Y45.5859
G01 X73.5698 Y45.5994
G01 X73.5525 Y45.6170
G01 X73.5259 Y45.6423
G01 X73.3412 Y45.8097
G01 X73.3274 Y45.8219
G01 X73.3085 Y45.8377
G01 X73.2795 Y45.8604
G01 X73.0793 Y46.0089
G01 X73.0643 Y46.0196
G01 X73.0440 Y46.0335
G01 X73.0129 Y46.0532
G01 X72.7991 Y46.1814
G01 X72.7671 Y46.1995
G01 X72.7452 Y46.2109
G01 X72.7287 Y46.2190
G01 X72.5033 Y46.3256
G01 X72.4697 Y46.3405
G01 X72.4468 Y46.3497
G01 X72.4296 Y46.3561
G01 X72.1949 Y46.4401
G01 X72.1599 Y46.4516
G01 X72.1363 Y46.4586
G01 X72.1185 Y46.4633
G01 X71.8767 Y46.5238
G01 X71.8408 Y46.5319
G01 X71.8166 Y46.5365
G01 X71.7984 Y46.5394
G01 X71.5518 Y46.5760
G01 X71.5153 Y46.5805
G01 X71.4908 Y46.5827
G01 X71.4724 Y46.5838
G01 X71.2234 Y46.5960
G01 X71.1835 Y46.5970
G01 X68.6623 Y46.5970
G01 X68.4843 Y46.6053
G01 X68.3264 Y46.6273
G01 X68.1713 Y46.6638
G01 X68.0201 Y46.7144
G01 X67.8743 Y46.7788
G01 X67.7351 Y46.8564
G01 X67.6036 Y46.9464
G01 X67.4810 Y47.0483
G01 X67.3683 Y47.1610
G01 X67.2664 Y47.2836
G01 X67.1764 Y47.4151
G01 X67.0988 Y47.5543
G01 X67.0344 Y47.7001
G01 X66.9838 Y47.8513
G01 X66.9473 Y48.0064
G01 X66.9253 Y48.1643
G01 X66.9170 Y48.3423
G01 X66.9170 Y63.5435
G01 X66.9263 Y63.7326
G01 X66.9512 Y63.9001
G01 X66.9923 Y64.0644
G01 X67.0494 Y64.2238
G01 X67.1218 Y64.3769
G01 X67.2088 Y64.5221
G01 X67.3097 Y64.6581
G01 X67.4234 Y64.7836
G01 X67.5489 Y64.8973
G01 X67.6849 Y64.9982
G01 X67.8301 Y65.0852
G01 X67.9832 Y65.1576
G01 X68.1426 Y65.2147
G01 X68.3069 Y65.2558
G01 X68.4744 Y65.2807
G01 X68.6635 Y65.2900
G01 X71.1835 Y65.2900
G01 X71.2234 Y65.2910
G01 X71.4724 Y65.3032
G01 X71.4908 Y65.3043
G01 X71.5153 Y65.3065
G01 X71.5518 Y65.3110
G01 X71.7984 Y65.3476
G01 X71.8166 Y65.3505
G01 X71.8408 Y65.3551
G01 X71.8767 Y65.3632
G01 X72.1185 Y65.4237
G01 X72.1363 Y65.4284
G01 X72.1599 Y65.4354
G01 X72.1949 Y65.4469
G01 X72.4296 Y65.5309
G01 X72.4468 Y65.5373
G01 X72.4697 Y65.5465
G01 X72.5033 Y65.5614
G01 X72.7287 Y65.6680
G01 X72.7452 Y65.6761
G01 X72.7671 Y65.6875
G01 X72.7991 Y65.7056
G01 X73.0129 Y65.8338
G01 X73.0286 Y65.8434
G01 X73.0492 Y65.8569
G01 X73.0793 Y65.8781
G01 X73.2795 Y66.0266
G01 X73.2941 Y66.0378
G01 X73.3133 Y66.0532
G01 X73.3412 Y66.0773
G01 X73.5259 Y66.2447
G01 X73.5394 Y66.2572
G01 X73.5570 Y66.2745
G01 X73.5823 Y66.3011
G01 X73.7497 Y66.4858
G01 X73.7738 Y66.5137
G01 X73.7892 Y66.5329
G01 X73.8004 Y66.5475
G01 X73.9489 Y66.7477
G01 X73.9701 Y66.7778
G01 X73.9836 Y66.7984
G01 X73.9932 Y66.8141
G01 X74.1214 Y67.0279
G01 X74.1395 Y67.0599
G01 X74.1509 Y67.0818
G01 X74.1590 Y67.0983
G01 X74.2656 Y67.3237
G01 X74.2805 Y67.3573
G01 X74.2897 Y67.3802
G01 X74.2961 Y67.3974
G01 X74.3801 Y67.6321
G01 X74.3916 Y67.6671
G01 X74.3986 Y67.6907
G01 X74.4033 Y67.7085
G01 X74.4638 Y67.9503
G01 X74.4719 Y67.9862
G01 X74.4765 Y68.0104
G01 X74.4794 Y68.0286
G01 X74.5160 Y68.2752
G01 X74.5205 Y68.3117
G01 X74.5227 Y68.3362
G01 X74.5238 Y68.3546
G01 X74.5360 Y68.6036
G01 X74.5368 Y68.6251
G01 X74.5370 Y81.3435
G00 Z2.0000
G00 X23.7370 Y94.0435
G01 F60.00
G01 Z-2.4000
G01 F120.00
G01 X23.7361 Y94.0803
G01 X23.7347 Y94.1049
G01 X23.7331 Y94.1232
G01 X23.7311 Y94.1415
G01 X23.7277 Y94.1659
G01 X23.7214 Y94.2022
G01 X23.7176 Y94.2202
G01 X23.7118 Y94.2442
G01 X23.7020 Y94.2797
G01 X23.6964 Y94.2972
G01 X23.6884 Y94.3205
G01 X23.6751 Y94.3548
G01 X23.6602 Y94.3885
G01 X23.6494 Y94.4107
G01 X23.6410 Y94.4270
G01 X23.6321 Y94.4431
G01 X23.6196 Y94.4644
G01 X23.5999 Y94.4955
G01 X23.5787 Y94.5256
G01 X23.5639 Y94.5452
G01 X23.5524 Y94.5596
G01 X23.5405 Y94.5737
G01 X23.5241 Y94.5921
G01 X23.4988 Y94.6188
G01 X23.4721 Y94.6441
G01 X23.4537 Y94.6605
G01 X23.4396 Y94.6724
G01 X23.4252 Y94.6839
G01 X23.4056 Y94.6987
G01 X23.3755 Y94.7199
G01 X23.3444 Y94.7396
G01 X23.3231 Y94.7521
G01 X23.3070 Y94.7610
G01 X23.2907 Y94.7694
G01 X23.2685 Y94.7802
G01 X23.2348 Y94.7951
G01 X23.2005 Y94.8084
G01 X23.1772 Y94.8164
G01 X23.1597 Y94.8220
G01 X23.1242 Y94.8318
G01 X23.1002 Y94.8376
G01 X23.0822 Y94.8414
G01 X23.0641 Y94.8448
G01 X23.0398 Y94.8486
G01 X23.0032 Y94.8531
G01 X22.9849 Y94.8547
G01 X22.9603 Y94.8561
G01 X22.9235 Y94.8570
G01 X0.0451 Y94.8568
G01 X0.0205 Y94.8558
G01 X-0.0162 Y94.8531
G01 X-0.0345 Y94.8511
G01 X-0.0589 Y94.8477
G01 X-0.0952 Y94.8414
G01 X-0.1311 Y94.8333
G01 X-0.1550 Y94.8271
G01 X-0.1902 Y94.8164
G01 X-0.2135 Y94.8084
G01 X-0.2478 Y94.7951
G01 X-0.2815 Y94.7802
G01 X-0.3037 Y94.7694
G01 X-0.3361 Y94.7521
G01 X-0.3574 Y94.7396
G01 X-0.3885 Y94.7199
G01 X-0.4186 Y94.6987
G01 X-0.4382 Y94.6839
G01 X-0.4667 Y94.6605
G01 X-0.4851 Y94.6441
G01 X-0.5118 Y94.6188
G01 X-0.5371 Y94.5921
G01 X-0.5535 Y94.5737
G01 X-0.5769 Y94.5452
G01 X-0.5917 Y94.5256
G01 X-0.6129 Y94.4955
G01 X-0.6230 Y94.4800
G01 X-0.6358 Y94.4590
G01 X-0.6540 Y94.4270
G01 X-0.6705 Y94.3941
G01 X-0.6809 Y94.3717
G01 X-0.6949 Y94.3377
G01 X-0.7035 Y94.3146
G01 X-0.7150 Y94.2797
G01 X-0.7248 Y94.2442
G01 X-0.7306 Y94.2202
G01 X-0.7344 Y94.2022
G01 X-0.7407 Y94.1659
G01 X-0.7441 Y94.1415
G01 X-0.7477 Y94.1049
G01 X-0.7488 Y94.0865
G01 X-0.7498 Y94.0619
G01 X-0.7500 Y94.0435
G01 X-0.7498 Y81.3251
G01 X-0.7490 Y81.3036
G01 X-0.7368 Y81.0546
G01 X-0.7357 Y81.0362
G01 X-0.7335 Y81.0117
G01 X-0.7290 Y80.9752
G01 X-0.6924 Y80.7286
G01 X-0.6895 Y80.7104
G01 X-0.6849 Y80.6862
G01 X-0.6768 Y80.6503
G01 X-0.6163 Y80.4085
G01 X-0.6116 Y80.3907
G01 X-0.6046 Y80.3671
G01 X-0.5931 Y80.3321
G01 X-0.5091 Y80.0974
G01 X-0.5027 Y80.0802
G01 X-0.4935 Y80.0573
G01 X-0.4786 Y80.0237
G01 X-0.3720 Y79.7983
G01 X-0.3639 Y79.7818
G01 X-0.3525 Y79.7599
G01 X-0.3344 Y79.7279
G01 X-0.2062 Y79.5141
G01 X-0.1966 Y79.4984
G01 X-0.1831 Y79.4778
G01 X-0.1619 Y79.4477
G01 X-0.0134 Y79.2475
G01 X-0.0022 Y79.2329
G01 X0.0132 Y79.2137
G01 X0.0373 Y79.1858
G01 X0.2047 Y79.0011
G01 X0.2172 Y78.9876
G01 X0.2345 Y78.9700
G01 X0.2611 Y78.9447
G01 X0.4458 Y78.7773
G01 X0.4596 Y78.7651
G01 X0.4785 Y78.7493
G01 X0.5075 Y78.7266
G01 X0.7077 Y78.5781
G01 X0.7227 Y78.5674
G01 X0.7430 Y78.5535
G01 X0.7741 Y78.5338
G01 X0.9879 Y78.4056
G01 X1.0038 Y78.3964
G01 X1.0254 Y78.3845
G01 X1.0583 Y78.3680
G01 X1.2837 Y78.2614
G01 X1.3004 Y78.2538
G01 X1.3231 Y78.2441
G01 X1.3574 Y78.2309
G01 X1.5921 Y78.1469
G01 X1.6095 Y78.1409
G01 X1.6330 Y78.1335
G01 X1.6685 Y78.1237
G01 X1.9103 Y78.0632
G01 X1.9282 Y78.0589
G01 X1.9523 Y78.0539
G01 X1.9886 Y78.0476
G01 X2.2352 Y78.0110
G01 X2.2534 Y78.0085
G01 X2.2779 Y78.0059
G01 X2.3146 Y78.0032
G01 X2.5636 Y77.9910
G01 X2.6035 Y77.9900
G01 X5.1235 Y77.9900
G01 X5.3126 Y77.9807
G01 X5.4801 Y77.9558
G01 X5.6444 Y77.9147
G01 X5.8038 Y77.8576
G01 X5.9569 Y77.7852
G01 X6.1021 Y77.6982
G01 X6.2381 Y77.5973
G01 X6.3636 Y77.4836
G01 X6.4773 Y77.3581
G01 X6.5782 Y77.2221
G01 X6.6652 Y77.0769
G01 X6.7376 Y76.9238
G01 X6.7947 Y76.7644
G01 X6.8358 Y76.6001
G01 X6.8607 Y76.4326
G01 X6.8700 Y76.2435
G01 X6.8700 Y53.4235
G01 X6.8607 Y53.2344
G01 X6.8358 Y53.0669
G01 X6.7947 Y52.9026
G01 X6.7376 Y52.7432
G01 X6.6652 Y52.5901
G01 X6.5782 Y52.4449
G01 X6.4773 Y52.3089
G01 X6.3636 Y52.1834
G01 X6.2381 Y52.0697
G01 X6.1021 Y51.9688
G01 X5.9569 Y51.8818
G01 X5.8038 Y51.8094
G01 X5.6444 Y51.7523
G01 X5.4801 Y51.7112
G01 X5.3126 Y51.6863
G01 X5.1235 Y51.6770
G01 X2.6035 Y51.6770
G01 X2.5659 Y51.6762
G01 X2.3316 Y51.6653
G01 X2.2970 Y51.6629
G01 X2.2739 Y51.6606
G01 X2.0244 Y51.6260
G01 X2.0073 Y51.6234
G01 X1.9844 Y51.6193
G01 X1.9505 Y51.6122
G01 X1.7221 Y51.5585
G01 X1.7053 Y51.5543
G01 X1.6830 Y51.5481
G01 X1.6499 Y51.5379
G01 X1.4274 Y51.4633
G01 X1.4111 Y51.4576
G01 X1.3894 Y51.4494
G01 X1.3573 Y51.4362
G01 X1.1427 Y51.3414
G01 X1.1270 Y51.3342
G01 X1.1061 Y51.3241
G01 X1.0755 Y51.3079
G01 X0.8705 Y51.1938
G01 X0.8555 Y51.1852
G01 X0.8356 Y51.1731
G01 X0.8066 Y51.1542
G01 X0.6131 Y51.0216
G01 X0.5989 Y51.0117
G01 X0.5802 Y50.9979
G01 X0.5531 Y50.9763
G01 X0.3726 Y50.8265
G01 X0.3594 Y50.8152
G01 X0.3421 Y50.7998
G01 X0.3171 Y50.7758
G01 X0.1512 Y50.6099
G01 X0.1391 Y50.5975
G01 X0.1233 Y50.5805
G01 X0.1005 Y50.5544
G01 X-0.0493 Y50.3739
G01 X-0.0603 Y50.3605
G01 X-0.0744 Y50.3421
G01 X-0.0946 Y50.3139
G01 X-0.2272 Y50.1204
G01 X-0.2461 Y50.0914
G01 X-0.2582 Y50.0715
G01 X-0.2668 Y50.0565
G01 X-0.3809 Y49.8515
G01 X-0.3892 Y49.8363
G01 X-0.3997 Y49.8156
G01 X-0.4144 Y49.7843
G01 X-0.5092 Y49.5697
G01 X-0.5160 Y49.5537
G01 X-0.5246 Y49.5322
G01 X-0.5363 Y49.4996
G01 X-0.6109 Y49.2771
G01 X-0.6162 Y49.2606
G01 X-0.6227 Y49.2384
G01 X-0.6315 Y49.2049
G01 X-0.6852 Y48.9765
G01 X-0.6889 Y48.9596
G01 X-0.6934 Y48.9368
G01 X-0.6990 Y48.9026
G01 X-0.7314 Y48.6703
G01 X-0.7336 Y48.6531
G01 X-0.7359 Y48.6300
G01 X-0.7383 Y48.5954
G01 X-0.7492 Y48.3611
G01 X-0.7500 Y48.3235
G01 X-0.7500 Y0.0635
G01 X-0.7491 Y0.0267
G01 X-0.7477 Y0.0021
G01 X-0.7461 Y-0.0162
G01 X-0.7416 Y-0.0528
G01 X-0.7378 Y-0.0771
G01 X-0.7306 Y-0.1132
G01 X-0.7248 Y-0.1372
G01 X-0.7150 Y-0.1727
G01 X-0.7035 Y-0.2076
G01 X-0.6949 Y-0.2307
G01 X-0.6809 Y-0.2647
G01 X-0.6705 Y-0.2871
G01 X-0.6540 Y-0.3200
G01 X-0.6451 Y-0.3361
G01 X-0.6326 Y-0.3574
G01 X-0.6129 Y-0.3885
G01 X-0.5917 Y-0.4186
G01 X-0.5769 Y-0.4382
G01 X-0.5535 Y-0.4667
G01 X-0.5371 Y-0.4851
G01 X-0.5118 Y-0.5118
G01 X-0.4851 Y-0.5371
G01 X-0.4667 Y-0.5535
G01 X-0.4382 Y-0.5769
G01 X-0.4186 Y-0.5917
G01 X-0.3885 Y-0.6129
G01 X-0.3730 Y-0.6230
G01 X-0.3520 Y-0.6358
G01 X-0.3200 Y-0.6540
G01 X-0.2871 Y-0.6705
G01 X-0.2647 Y-0.6809
G01 X-0.2307 Y-0.6949
G01 X-0.2076 Y-0.7035
G01 X-0.1727 Y-0.7150
G01 X-0.1372 Y-0.7248
G01 X-0.1132 Y-0.7306
G01 X-0.0952 Y-0.7344
G01 X-0.0589 Y-0.7407
G01 X-0.0345 Y-0.7441
G01 X-0.0162 Y-0.7461
G01 X0.0205 Y-0.7488
G01 X0.0451 Y-0.7498
G01 X0.0635 Y-0.7500
G01 X22.9419 Y-0.7498
G01 X22.9665 Y-0.7488
G01 X23.0032 Y-0.7461
G01 X23.0215 Y-0.7441
G01 X23.0459 Y-0.7407
G01 X23.0822 Y-0.7344
G01 X23.1181 Y-0.7263
G01 X23.1420 Y-0.7201
G01 X23.1772 Y-0.7094
G01 X23.2005 Y-0.7014
G01 X23.2348 Y-0.6881
G01 X23.2685 Y-0.6732
G01 X23.2907 Y-0.6624
G01 X23.3231 Y-0.6451
G01 X23.3444 Y-0.6326
G01 X23.3755 Y-0.6129
G01 X23.4056 Y-0.5917
G01 X23.4252 Y-0.5769
G01 X23.4537 Y-0.5535
G01 X23.4721 Y-0.5371
G01 X23.4988 Y-0.5118
G01 X23.5241 Y-0.4851
G01 X23.5405 Y-0.4667
G01 X23.5639 Y-0.4382
G01 X23.5787 Y-0.4186
G01 X23.5999 Y-0.3885
G01 X23.6196 Y-0.3574
G01 X23.6321 Y-0.3361
G01 X23.6410 Y-0.3200
G01 X23.6575 Y-0.2871
G01 X23.6679 Y-0.2647
G01 X23.6819 Y-0.2307
G01 X23.6905 Y-0.2076
G01 X23.7020 Y-0.1727
G01 X23.7118 Y-0.1372
G01 X23.7176 Y-0.1132
G01 X23.7214 Y-0.0952
G01 X23.7277 Y-0.0589
G01 X23.7311 Y-0.0345
G01 X23.7347 Y0.0021
G01 X23.7358 Y0.0205
G01 X23.7368 Y0.0451
G01 X23.7370 Y0.0635
G01 X23.7370 Y48.3235
G01 X23.7360 Y48.3634
G01 X23.7238 Y48.6124
G01 X23.7227 Y48.6308
G01 X23.7205 Y48.6553
G01 X23.7160 Y48.6918
G01 X23.6794 Y48.9384
G01 X23.6765 Y48.9566
G01 X23.6719 Y48.9808
G01 X23.6638 Y49.0167
G01 X23.6033 Y49.2585
G01 X23.5986 Y49.2763
G01 X23.5916 Y49.2999
G01 X23.5801 Y49.3349
G01 X23.4961 Y49.5696
G01 X23.4897 Y49.5868
G01 X23.4805 Y49.6097
G01 X23.4656 Y49.6433
G01 X23.3590 Y49.8687
G01 X23.3509 Y49.8852
G01 X23.3395 Y49.9071
G01 X23.3214 Y49.9391
G01 X23.1932 Y50.1529
G01 X23.1735 Y50.1840
G01 X23.1596 Y50.2043
G01 X23.1489 Y50.2193
G01 X23.0004 Y50.4195
G01 X22.9892 Y50.4341
G01 X22.9738 Y50.4533
G01 X22.9497 Y50.4812
G01 X22.7823 Y50.6659
G01 X22.7698 Y50.6794
G01 X22.7525 Y50.6970
G01 X22.7259 Y50.7223
G01 X22.5412 Y50.8897
G01 X22.5274 Y50.9019
G01 X22.5085 Y50.9177
G01 X22.4795 Y50.9404
G01 X22.2793 Y51.0889
G01 X22.2643 Y51.0996
G01 X22.2440 Y51.1135
G01 X22.2129 Y51.1332
G01 X21.9832 Y51.2706
G01 X21.9616 Y51.2825
G01 X21.9287 Y51.2990
G01 X21.7033 Y51.4056
G01 X21.6697 Y51.4205
G01 X21.6468 Y51.4297
G01 X21.6296 Y51.4361
G01 X21.3949 Y51.5201
G01 X21.3599 Y51.5316
G01 X21.3363 Y51.5386
G01 X21.3185 Y51.5433
G01 X21.0767 Y51.6038
G01 X21.0408 Y51.6119
G01 X21.0166 Y51.6165
G01 X20.9984 Y51.6194
G01 X20.7518 Y51.6560
G01 X20.7153 Y51.6605
G01 X20.6908 Y51.6627
G01 X20.6724 Y51.6638
G01 X20.4234 Y51.6760
G01 X20.3835 Y51.6770
G01 X17.8635 Y51.6770
G01 X17.6744 Y51.6863
G01 X17.5069 Y51.7112
G01 X17.3426 Y51.7523
G01 X17.1832 Y51.8094
G01 X17.0301 Y51.8818
G01 X16.8849 Y51.9688
G01 X16.7489 Y52.0697
G01 X16.6234 Y52.1834
G01 X16.5097 Y52.3089
G01 X16.4088 Y52.4449
G01 X16.3218 Y52.5901
G01 X16.2494 Y52.7432
G01 X16.1923 Y52.9026
G01 X16.1512 Y53.0669
G01 X16.1263 Y53.2344
G01 X16.1170 Y53.4235
G01 X16.1170 Y76.2435
G01 X16.1263 Y76.4326
G01 X16.1512 Y76.6001
G01 X16.1923 Y76.7644
G01 X16.2494 Y76.9238
G01 X16.3218 Y77.0769
G01 X16.4088 Y77.2221
G01 X16.5097 Y77.3581
G01 X16.6234 Y77.4836
G01 X16.7489 Y77.5973
G01 X16.8849 Y77.6982
G01 X17.0301 Y77.7852
G01 X17.1832 Y77.8576
G01 X17.3426 Y77.9147
G01 X17.5069 Y77.9558
G01 X17.6744 Y77.9807
G01 X17.8635 Y77.9900
G01 X20.3835 Y77.9900
G01 X20.4234 Y77.9910
G01 X20.6724 Y78.0032
G01 X20.6908 Y78.0043
G01 X20.7153 Y78.0065
G01 X20.7518 Y78.0110
G01 X20.9984 Y78.0476
G01 X21.0166 Y78.0505
G01 X21.0408 Y78.0551
G01 X21.0767 Y78.0632
G01 X21.3185 Y78.1237
G01 X21.3363 Y78.1284
G01 X21.3599 Y78.1354
G01 X21.3949 Y78.1469
G01 X21.6296 Y78.2309
G01 X21.6468 Y78.2373
G01 X21.6697 Y78.2465
G01 X21.7033 Y78.2614
G01 X21.9287 Y78.3680
G01 X21.9452 Y78.3761
G01 X21.9671 Y78.3875
G01 X21.9991 Y78.4056
G01 X22.2129 Y78.5338
G01 X22.2286 Y78.5434
G01 X22.2492 Y78.5569
G01 X22.2793 Y78.5781
G01 X22.4795 Y78.7266
G01 X22.4941 Y78.7378
G01 X22.5133 Y78.7532
G01 X22.5412 Y78.7773
G01 X22.7259 Y78.9447
G01 X22.7394 Y78.9572
G01 X22.7570 Y78.9745
G01 X22.7823 Y79.0011
G01 X22.9497 Y79.1858
G01 X22.9738 Y79.2137
G01 X22.9892 Y79.2329
G01 X23.0004 Y79.2475
G01 X23.1489 Y79.4477
G01 X23.1701 Y79.4778
G01 X23.1836 Y79.4984
G01 X23.1932 Y79.5141
G01 X23.3214 Y79.7279
G01 X23.3395 Y79.7599
G01 X23.3509 Y79.7818
G01 X23.3590 Y79.7983
G01 X23.4656 Y80.0237
G01 X23.4805 Y80.0573
G01 X23.4897 Y80.0802
G01 X23.4961 Y80.0974
G01 X23.5801 Y80.3321
G01 X23.5916 Y80.3671
G01 X23.5986 Y80.3907
G01 X23.6033 Y80.4085
G01 X23.6638 Y80.6503
G01 X23.6719 Y80.6862
G01 X23.6765 Y80.7104
G01 X23.6794 Y80.7286
G01 X23.7160 Y80.9752
G01 X23.7205 Y81.0117
G01 X23.7227 Y81.0362
G01 X23.7238 Y81.0546
G01 X23.7360 Y81.3036
G01 X23.7368 Y81.3251
G01 X23.7370 Y94.0435
G00 Z2.0000
G00 X160.4915 Y36.3875
G01 F60.00
G01 Z-2.4000
G01 F120.00
G01 X160.5192 Y36.3834
G01 X160.5464 Y36.3766
G01 X160.5728 Y36.3671
G01 X160.5981 Y36.3552
G01 X160.6221 Y36.3407
G01 X160.6446 Y36.3240
G01 X160.6654 Y36.3052
G01 X160.6842 Y36.2845
G01 X160.7009 Y36.2620
G01 X160.7153 Y36.2379
G01 X160.7273 Y36.2126
G01 X160.7368 Y36.1862
G01 X160.7436 Y36.1590
G01 X160.7477 Y36.1313
G01 X160.7490 Y36.1033
G01 X160.7477 Y36.0753
G01 X160.7436 Y36.0476
G01 X160.7368 Y36.0204
G01 X160.7273 Y35.9940
G01 X160.7153 Y35.9687
G01 X160.7009 Y35.9447
G01 X160.6842 Y35.9221
G01 X160.6654 Y35.9014
G01 X160.6446 Y35.8826
G01 X160.6221 Y35.8659
G01 X160.5981 Y35.8515
G01 X160.5728 Y35.8395
G01 X160.5464 Y35.8300
G01 X160.5192 Y35.8232
G01 X160.4924 Y35.8193
G01 X160.4644 Y35.8179
G01 X160.4355 Y35.8194
G01 X160.4078 Y35.8235
G01 X160.3806 Y35.8303
G01 X160.3542 Y35.8397
G01 X160.3289 Y35.8517
G01 X160.3048 Y35.8661
G01 X160.2823 Y35.8828
G01 X160.2616 Y35.9016
G01 X160.2427 Y35.9224
G01 X160.2260 Y35.9449
G01 X160.2116 Y35.9689
G01 X160.1997 Y35.9943
G01 X160.1902 Y36.0207
G01 X160.1834 Y36.0478
G01 X160.1793 Y36.0756
G01 X160.1779 Y36.1036
G01 X160.1793 Y36.1316
G01 X160.1834 Y36.1593
G01 X160.1902 Y36.1865
G01 X160.1997 Y36.2128
G01 X160.2116 Y36.2382
G01 X160.2260 Y36.2622
G01 X160.2427 Y36.2847
G01 X160.2616 Y36.3055
G01 X160.2823 Y36.3243
G01 X160.3048 Y36.3410
G01 X160.3289 Y36.3554
G01 X160.3542 Y36.3674
G01 X160.3806 Y36.3768
G01 X160.4078 Y36.3836
G01 X160.4345 Y36.3876
G01 X160.4625 Y36.3889
G01 X160.4915 Y36.3875
G00 Z2.0000
G00 X161.8915 Y39.4876
G01 F60.00
G01 Z-2.4000
G01 F120.00
G01 X161.9192 Y39.4835
G01 X161.9464 Y39.4766
G01 X161.9728 Y39.4672
G01 X161.9981 Y39.4552
G01 X162.0222 Y39.4408
G01 X162.0447 Y39.4241
G01 X162.0655 Y39.4053
G01 X162.0843 Y39.3845
G01 X162.1010 Y39.3620
G01 X162.1154 Y39.3380
G01 X162.1274 Y39.3127
G01 X162.1368 Y39.2863
G01 X162.1436 Y39.2591
G01 X162.1477 Y39.2314
G01 X162.1491 Y39.2034
G01 X162.1477 Y39.1754
G01 X162.1436 Y39.1477
G01 X162.1368 Y39.1205
G01 X162.1274 Y39.0941
G01 X162.1154 Y39.0688
G01 X162.1010 Y39.0447
G01 X162.0843 Y39.0222
G01 X162.0655 Y39.0015
G01 X162.0447 Y38.9826
G01 X162.0222 Y38.9659
G01 X161.9981 Y38.9515
G01 X161.9728 Y38.9395
G01 X161.9464 Y38.9301
G01 X161.9192 Y38.9233
G01 X161.8925 Y38.9193
G01 X161.8645 Y38.9180
G01 X161.8355 Y38.9194
G01 X161.8078 Y38.9236
G01 X161.7806 Y38.9304
G01 X161.7543 Y38.9398
G01 X161.7289 Y38.9518
G01 X161.7049 Y38.9662
G01 X161.6824 Y38.9829
G01 X161.6616 Y39.0017
G01 X161.6428 Y39.0225
G01 X161.6261 Y39.0450
G01 X161.6117 Y39.0690
G01 X161.5997 Y39.0943
G01 X161.5903 Y39.1207
G01 X161.5835 Y39.1479
G01 X161.5793 Y39.1756
G01 X161.5780 Y39.2036
G01 X161.5793 Y39.2316
G01 X161.5835 Y39.2593
G01 X161.5903 Y39.2865
G01 X161.5997 Y39.3129
G01 X161.6117 Y39.3382
G01 X161.6261 Y39.3623
G01 X161.6428 Y39.3848
G01 X161.6616 Y39.4056
G01 X161.6824 Y39.4244
G01 X161.7049 Y39.4411
G01 X161.7289 Y39.4555
G01 X161.7543 Y39.4675
G01 X161.7806 Y39.4769
G01 X161.8078 Y39.4837
G01 X161.8346 Y39.4877
G01 X161.8626 Y39.4890
G01 X161.8915 Y39.4876
G00 Z2.0000
G00 X165.1915 Y40.9877
G01 F60.00
G01 Z-2.4000
G01 F120.00
G01 X165.2192 Y40.9836
G01 X165.2464 Y40.9768
G01 X165.2728 Y40.9673
G01 X165.2981 Y40.9553
G01 X165.3222 Y40.9409
G01 X165.3447 Y40.9242
G01 X165.3654 Y40.9054
G01 X165.3842 Y40.8847
G01 X165.4009 Y40.8622
G01 X165.4153 Y40.8381
G01 X165.4273 Y40.8128
G01 X165.4368 Y40.7864
G01 X165.4436 Y40.7592
G01 X165.4477 Y40.7315
G01 X165.4491 Y40.7035
G01 X165.4477 Y40.6755
G01 X165.4436 Y40.6478
G01 X165.4368 Y40.6206
G01 X165.4273 Y40.5942
G01 X165.4153 Y40.5689
G01 X165.4009 Y40.5448
G01 X165.3842 Y40.5223
G01 X165.3654 Y40.5016
G01 X165.3447 Y40.4828
G01 X165.3222 Y40.4661
G01 X165.2981 Y40.4517
G01 X165.2728 Y40.4397
G01 X165.2464 Y40.4302
G01 X165.2192 Y40.4234
G01 X165.1915 Y40.4193
G01 X165.1635 Y40.4179
G01 X165.1355 Y40.4193
G01 X165.1078 Y40.4234
G01 X165.0806 Y40.4302
G01 X165.0542 Y40.4397
G01 X165.0289 Y40.4517
G01 X165.0048 Y40.4661
G01 X164.9823 Y40.4828
G01 X164.9616 Y40.5016
G01 X164.9428 Y40.5223
G01 X164.9261 Y40.5448
G01 X164.9117 Y40.5689
G01 X164.8997 Y40.5942
G01 X164.8902 Y40.6206
G01 X164.8834 Y40.6478
G01 X164.8793 Y40.6755
G01 X164.8779 Y40.7035
G01 X164.8793 Y40.7315
G01 X164.8834 Y40.7592
G01 X164.8902 Y40.7864
G01 X164.8997 Y40.8128
G01 X164.9117 Y40.8381
G01 X164.9261 Y40.8622
G01 X164.9428 Y40.8847
G01 X164.9616 Y40.9054
G01 X164.9823 Y40.9242
G01 X165.0048 Y40.9409
G01 X165.0289 Y40.9553
G01 X165.0542 Y40.9673
G01 X165.0806 Y40.9768
G01 X165.1078 Y40.9836
G01 X165.1355 Y40.9877
G01 X165.1635 Y40.9891
G01 X165.1915 Y40.9877
G00 Z2.0000
G00 X168.4915 Y39.5876
G01 F60.00
G01 Z-2.4000
G01 F120.00
G01 X168.5192 Y39.5835
G01 X168.5464 Y39.5767
G01 X168.5727 Y39.5673
G01 X168.5981 Y39.5553
G01 X168.6221 Y39.5409
G01 X168.6446 Y39.5242
G01 X168.6654 Y39.5054
G01 X168.6842 Y39.4846
G01 X168.7009 Y39.4621
G01 X168.7153 Y39.4381
G01 X168.7273 Y39.4127
G01 X168.7367 Y39.3863
G01 X168.7435 Y39.3592
G01 X168.7477 Y39.3314
G01 X168.7490 Y39.3035
G01 X168.7477 Y39.2755
G01 X168.7435 Y39.2477
G01 X168.7367 Y39.2206
G01 X168.7273 Y39.1942
G01 X168.7153 Y39.1688
G01 X168.7009 Y39.1448
G01 X168.6842 Y39.1223
G01 X168.6654 Y39.1015
G01 X168.6446 Y39.0827
G01 X168.6221 Y39.0660
G01 X168.5981 Y39.0516
G01 X168.5727 Y39.0396
G01 X168.5464 Y39.0302
G01 X168.5192 Y39.0234
G01 X168.4915 Y39.0193
G01 X168.4635 Y39.0179
G01 X168.4355 Y39.0193
G01 X168.4078 Y39.0234
G01 X168.3806 Y39.0302
G01 X168.3542 Y39.0396
G01 X168.3289 Y39.0516
G01 X168.3048 Y39.0660
G01 X168.2823 Y39.0827
G01 X168.2615 Y39.1015
G01 X168.2427 Y39.1223
G01 X168.2260 Y39.1448
G01 X168.2116 Y39.1688
G01 X168.1996 Y39.1942
G01 X168.1902 Y39.2206
G01 X168.1834 Y39.2477
G01 X168.1793 Y39.2755
G01 X168.1779 Y39.3035
G01 X168.1793 Y39.3314
G01 X168.1834 Y39.3592
G01 X168.1902 Y39.3863
G01 X168.1996 Y39.4127
G01 X168.2116 Y39.4381
G01 X168.2260 Y39.4621
G01 X168.2427 Y39.4846
G01 X168.2615 Y39.5054
G01 X168.2823 Y39.5242
G01 X168.3048 Y39.5409
G01 X168.3289 Y39.5553
G01 X168.3542 Y39.5673
G01 X168.3806 Y39.5767
G01 X168.4078 Y39.5835
G01 X168.4355 Y39.5876
G01 X168.4635 Y39.5890
G01 X168.4915 Y39.5876
G00 Z2.0000
G00 X169.8915 Y36.3875
G01 F60.00
G01 Z-2.4000
G01 F120.00
G01 X169.9192 Y36.3834
G01 X169.9464 Y36.3766
G01 X169.9728 Y36.3671
G01 X169.9981 Y36.3552
G01 X170.0222 Y36.3407
G01 X170.0447 Y36.3240
G01 X170.0654 Y36.3052
G01 X170.0843 Y36.2845
G01 X170.1010 Y36.2620
G01 X170.1154 Y36.2379
G01 X170.1273 Y36.2126
G01 X170.1368 Y36.1862
G01 X170.1436 Y36.1590
G01 X170.1477 Y36.1313
G01 X170.1491 Y36.1033
G01 X170.1477 Y36.0753
G01 X170.1436 Y36.0476
G01 X170.1368 Y36.0204
G01 X170.1273 Y35.9940
G01 X170.1154 Y35.9687
G01 X170.1010 Y35.9447
G01 X170.0843 Y35.9221
G01 X170.0654 Y35.9014
G01 X170.0447 Y35.8826
G01 X170.0222 Y35.8659
G01 X169.9981 Y35.8515
G01 X169.9728 Y35.8395
G01 X169.9464 Y35.8300
G01 X169.9192 Y35.8232
G01 X169.8925 Y35.8193
G01 X169.8645 Y35.8179
G01 X169.8355 Y35.8194
G01 X169.8078 Y35.8235
G01 X169.7806 Y35.8303
G01 X169.7542 Y35.8397
G01 X169.7289 Y35.8517
G01 X169.7049 Y35.8661
G01 X169.6824 Y35.8828
G01 X169.6616 Y35.9016
G01 X169.6428 Y35.9224
G01 X169.6261 Y35.9449
G01 X169.6117 Y35.9689
G01 X169.5997 Y35.9943
G01 X169.5902 Y36.0207
G01 X169.5834 Y36.0478
G01 X169.5793 Y36.0756
G01 X169.5780 Y36.1036
G01 X169.5793 Y36.1316
G01 X169.5834 Y36.1593
G01 X169.5902 Y36.1865
G01 X169.5997 Y36.2128
G01 X169.6117 Y36.2382
G01 X169.6261 Y36.2622
G01 X169.6428 Y36.2847
G01 X169.6616 Y36.3055
G01 X169.6824 Y36.3243
G01 X169.7049 Y36.3410
G01 X169.7289 Y36.3554
G01 X169.7542 Y36.3674
G01 X169.7806 Y36.3768
G01 X169.8078 Y36.3836
G01 X169.8346 Y36.3876
G01 X169.8626 Y36.3889
G01 X169.8915 Y36.3875
G00 Z2.0000
G00 X168.5915 Y32.8876
G01 F60.00
G01 Z-2.4000
G01 F120.00
G01 X168.6193 Y32.8835
G01 X168.6464 Y32.8767
G01 X168.6728 Y32.8673
G01 X168.6982 Y32.8553
G01 X168.7222 Y32.8409
G01 X168.7447 Y32.8242
G01 X168.7655 Y32.8054
G01 X168.7843 Y32.7846
G01 X168.8010 Y32.7621
G01 X168.8154 Y32.7381
G01 X168.8274 Y32.7127
G01 X168.8368 Y32.6863
G01 X168.8436 Y32.6592
G01 X168.8477 Y32.6314
G01 X168.8491 Y32.6034
G01 X168.8477 Y32.5754
G01 X168.8436 Y32.5477
G01 X168.8368 Y32.5205
G01 X168.8274 Y32.4942
G01 X168.8154 Y32.4688
G01 X168.8010 Y32.4448
G01 X168.7843 Y32.4223
G01 X168.7655 Y32.4015
G01 X168.7447 Y32.3827
G01 X168.7222 Y32.3660
G01 X168.6982 Y32.3516
G01 X168.6728 Y32.3396
G01 X168.6464 Y32.3302
G01 X168.6193 Y32.3234
G01 X168.5925 Y32.3194
G01 X168.5645 Y32.3181
G01 X168.5356 Y32.3195
G01 X168.5078 Y32.3236
G01 X168.4806 Y32.3304
G01 X168.4543 Y32.3399
G01 X168.4289 Y32.3518
G01 X168.4049 Y32.3663
G01 X168.3824 Y32.3830
G01 X168.3616 Y32.4018
G01 X168.3428 Y32.4225
G01 X168.3261 Y32.4450
G01 X168.3117 Y32.4691
G01 X168.2997 Y32.4944
G01 X168.2903 Y32.5208
G01 X168.2835 Y32.5480
G01 X168.2794 Y32.5757
G01 X168.2780 Y32.6037
G01 X168.2794 Y32.6317
G01 X168.2835 Y32.6594
G01 X168.2903 Y32.6866
G01 X168.2997 Y32.7130
G01 X168.3117 Y32.7383
G01 X168.3261 Y32.7623
G01 X168.3428 Y32.7849
G01 X168.3616 Y32.8056
G01 X168.3824 Y32.8244
G01 X168.4049 Y32.8411
G01 X168.4289 Y32.8555
G01 X168.4543 Y32.8675
G01 X168.4806 Y32.8770
G01 X168.5078 Y32.8838
G01 X168.5346 Y32.8877
G01 X168.5626 Y32.8891
G01 X168.5915 Y32.8876
G00 Z2.0000
G00 X161.7914 Y32.8876
G01 F60.00
G01 Z-2.4000
G01 F120.00
G01 X161.8192 Y32.8835
G01 X161.8464 Y32.8767
G01 X161.8727 Y32.8673
G01 X161.8981 Y32.8553
G01 X161.9221 Y32.8409
G01 X161.9446 Y32.8242
G01 X161.9654 Y32.8054
G01 X161.9842 Y32.7846
G01 X162.0009 Y32.7621
G01 X162.0153 Y32.7381
G01 X162.0273 Y32.7127
G01 X162.0367 Y32.6863
G01 X162.0435 Y32.6592
G01 X162.0476 Y32.6314
G01 X162.0490 Y32.6034
G01 X162.0476 Y32.5754
G01 X162.0435 Y32.5477
G01 X162.0367 Y32.5205
G01 X162.0273 Y32.4942
G01 X162.0153 Y32.4688
G01 X162.0009 Y32.4448
G01 X161.9842 Y32.4223
G01 X161.9654 Y32.4015
G01 X161.9446 Y32.3827
G01 X161.9221 Y32.3660
G01 X161.8981 Y32.3516
G01 X161.8727 Y32.3396
G01 X161.8464 Y32.3302
G01 X161.8192 Y32.3234
G01 X161.7924 Y32.3194
G01 X161.7644 Y32.3181
G01 X161.7355 Y32.3195
G01 X161.7077 Y32.3236
G01 X161.6806 Y32.3304
G01 X161.6542 Y32.3399
G01 X161.6288 Y32.3518
G01 X161.6048 Y32.3663
G01 X161.5823 Y32.3830
G01 X161.5615 Y32.4018
G01 X161.5427 Y32.4225
G01 X161.5260 Y32.4450
G01 X161.5116 Y32.4691
G01 X161.4996 Y32.4944
G01 X161.4902 Y32.5208
G01 X161.4834 Y32.5480
G01 X161.4793 Y32.5757
G01 X161.4779 Y32.6037
G01 X161.4793 Y32.6317
G01 X161.4834 Y32.6594
G01 X161.4902 Y32.6866
G01 X161.4996 Y32.7130
G01 X161.5116 Y32.7383
G01 X161.5260 Y32.7623
G01 X161.5427 Y32.7849
G01 X161.5615 Y32.8056
G01 X161.5823 Y32.8244
G01 X161.6048 Y32.8411
G01 X161.6288 Y32.8555
G01 X161.6542 Y32.8675
G01 X161.6806 Y32.8770
G01 X161.7077 Y32.8838
G01 X161.7345 Y32.8877
G01 X161.7625 Y32.8891
G01 X161.7914 Y32.8876
G00 Z2.0000
G00 X188.4315 Y36.3875
G01 F60.00
G01 Z-2.4000
G01 F120.00
G01 X188.4592 Y36.3834
G01 X188.4864 Y36.3766
G01 X188.5128 Y36.3671
G01 X188.5381 Y36.3552
G01 X188.5621 Y36.3407
G01 X188.5846 Y36.3240
G01 X188.6054 Y36.3052
G01 X188.6242 Y36.2845
G01 X188.6409 Y36.2620
G01 X188.6553 Y36.2379
G01 X188.6673 Y36.2126
G01 X188.6768 Y36.1862
G01 X188.6836 Y36.1590
G01 X188.6877 Y36.1313
G01 X188.6890 Y36.1033
G01 X188.6877 Y36.0753
G01 X188.6836 Y36.0476
G01 X188.6768 Y36.0204
G01 X188.6673 Y35.9940
G01 X188.6553 Y35.9687
G01 X188.6409 Y35.9447
G01 X188.6242 Y35.9221
G01 X188.6054 Y35.9014
G01 X188.5846 Y35.8826
G01 X188.5621 Y35.8659
G01 X188.5381 Y35.8515
G01 X188.5128 Y35.8395
G01 X188.4864 Y35.8300
G01 X188.4592 Y35.8232
G01 X188.4324 Y35.8193
G01 X188.4044 Y35.8179
G01 X188.3755 Y35.8194
G01 X188.3478 Y35.8235
G01 X188.3206 Y35.8303
G01 X188.2942 Y35.8397
G01 X188.2689 Y35.8517
G01 X188.2448 Y35.8661
G01 X188.2223 Y35.8828
G01 X188.2016 Y35.9016
G01 X188.1827 Y35.9224
G01 X188.1660 Y35.9449
G01 X188.1516 Y35.9689
G01 X188.1397 Y35.9943
G01 X188.1302 Y36.0207
G01 X188.1234 Y36.0478
G01 X188.1193 Y36.0756
G01 X188.1179 Y36.1036
G01 X188.1193 Y36.1316
G01 X188.1234 Y36.1593
G01 X188.1302 Y36.1865
G01 X188.1397 Y36.2128
G01 X188.1516 Y36.2382
G01 X188.1660 Y36.2622
G01 X188.1827 Y36.2847
G01 X188.2016 Y36.3055
G01 X188.2223 Y36.3243
G01 X188.2448 Y36.3410
G01 X188.2689 Y36.3554
G01 X188.2942 Y36.3674
G01 X188.3206 Y36.3768
G01 X188.3478 Y36.3836
G01 X188.3745 Y36.3876
G01 X188.4025 Y36.3889
G01 X188.4315 Y36.3875
G00 Z2.0000
G00 X189.8315 Y39.4876
G01 F60.00
G01 Z-2.4000
G01 F120.00
G01 X189.8592 Y39.4835
G01 X189.8864 Y39.4766
G01 X189.9128 Y39.4672
G01 X189.9381 Y39.4552
G01 X189.9622 Y39.4408
G01 X189.9847 Y39.4241
G01 X190.0055 Y39.4053
G01 X190.0243 Y39.3845
G01 X190.0410 Y39.3620
G01 X190.0554 Y39.3380
G01 X190.0674 Y39.3127
G01 X190.0768 Y39.2863
G01 X190.0836 Y39.2591
G01 X190.0877 Y39.2314
G01 X190.0891 Y39.2034
G01 X190.0877 Y39.1754
G01 X190.0836 Y39.1477
G01 X190.0768 Y39.1205
G01 X190.0674 Y39.0941
G01 X190.0554 Y39.0688
G01 X190.0410 Y39.0447
G01 X190.0243 Y39.0222
G01 X190.0055 Y39.0015
G01 X189.9847 Y38.9826
G01 X189.9622 Y38.9659
G01 X189.9381 Y38.9515
G01 X189.9128 Y38.9395
G01 X189.8864 Y38.9301
G01 X189.8592 Y38.9233
G01 X189.8325 Y38.9193
G01 X189.8045 Y38.9180
G01 X189.7755 Y38.9194
G01 X189.7478 Y38.9236
G01 X189.7206 Y38.9304
G01 X189.6943 Y38.9398
G01 X189.6689 Y38.9518
G01 X189.6449 Y38.9662
G01 X189.6224 Y38.9829
G01 X189.6016 Y39.0017
G01 X189.5828 Y39.0225
G01 X189.5661 Y39.0450
G01 X189.5517 Y39.0690
G01 X189.5397 Y39.0943
G01 X189.5303 Y39.1207
G01 X189.5235 Y39.1479
G01 X189.5193 Y39.1756
G01 X189.5180 Y39.2036
G01 X189.5193 Y39.2316
G01 X189.5235 Y39.2593
G01 X189.5303 Y39.2865
G01 X189.5397 Y39.3129
G01 X189.5517 Y39.3382
G01 X189.5661 Y39.3623
G01 X189.5828 Y39.3848
G01 X189.6016 Y39.4056
G01 X189.6224 Y39.4244
G01 X189.6449 Y39.4411
G01 X189.6689 Y39.4555
G01 X189.6943 Y39.4675
G01 X189.7206 Y39.4769
G01 X189.7478 Y39.4837
G01 X189.7746 Y39.4877
G01 X189.8026 Y39.4890
G01 X189.8315 Y39.4876
G00 Z2.0000
G00 X193.1315 Y40.9877
G01 F60.00
G01 Z-2.4000
G01 F120.00
G01 X193.1592 Y40.9836
G01 X193.1864 Y40.9768
G01 X193.2128 Y40.9673
G01 X193.2381 Y40.9553
G01 X193.2622 Y40.9409
G01 X193.2847 Y40.9242
G01 X193.3054 Y40.9054
G01 X193.3242 Y40.8847
G01 X193.3409 Y40.8622
G01 X193.3553 Y40.8381
G01 X193.3673 Y40.8128
G01 X193.3768 Y40.7864
G01 X193.3836 Y40.7592
G01 X193.3877 Y40.7315
G01 X193.3891 Y40.7035
G01 X193.3877 Y40.6755
G01 X193.3836 Y40.6478
G01 X193.3768 Y40.6206
G01 X193.3673 Y40.5942
G01 X193.3553 Y40.5689
G01 X193.3409 Y40.5448
G01 X193.3242 Y40.5223
G01 X193.3054 Y40.5016
G01 X193.2847 Y40.4828
G01 X193.2622 Y40.4661
G01 X193.2381 Y40.4517
G01 X193.2128 Y40.4397
G01 X193.1864 Y40.4302
G01 X193.1592 Y40.4234
G01 X193.1315 Y40.4193
G01 X193.1035 Y40.4179
G01 X193.0755 Y40.4193
G01 X193.0478 Y40.4234
G01 X193.0206 Y40.4302
G01 X192.9942 Y40.4397
G01 X192.9689 Y40.4517
G01 X192.9448 Y40.4661
G01 X192.9223 Y40.4828
G01 X192.9016 Y40.5016
G01 X192.8828 Y40.5223
G01 X192.8661 Y40.5448
G01 X192.8517 Y40.5689
G01 X192.8397 Y40.5942
G01 X192.8302 Y40.6206
G01 X192.8234 Y40.6478
G01 X192.8193 Y40.6755
G01 X192.8179 Y40.7035
G01 X192.8193 Y40.7315
G01 X192.8234 Y40.7592
G01 X192.8302 Y40.7864
G01 X192.8397 Y40.8128
G01 X192.8517 Y40.8381
G01 X192.8661 Y40.8622
G01 X192.8828 Y40.8847
G01 X192.9016 Y40.9054
G01 X192.9223 Y40.9242
G01 X192.9448 Y40.9409
G01 X192.9689 Y40.9553
G01 X192.9942 Y40.9673
G01 X193.0206 Y40.9768
G01 X193.0478 Y40.9836
G01 X193.0755 Y40.9877
G01 X193.1035 Y40.9891
G01 X193.1315 Y40.9877
G00 Z2.0000
G00 X196.4315 Y39.5876
G01 F60.00
G01 Z-2.4000
G01 F120.00
G01 X196.4592 Y39.5835
G01 X196.4864 Y39.5767
G01 X196.5127 Y39.5673
G01 X196.5381 Y39.5553
G01 X196.5621 Y39.5409
G01 X196.5846 Y39.5242
G01 X196.6054 Y39.5054
G01 X196.6242 Y39.4846
G01 X196.6409 Y39.4621
G01 X196.6553 Y39.4381
G01 X196.6673 Y39.4127
G01 X196.6767 Y39.3863
G01 X196.6835 Y39.3592
G01 X196.6877 Y39.3314
G01 X196.6890 Y39.3035
G01 X196.6877 Y39.2755
G01 X196.6835 Y39.2477
G01 X196.6767 Y39.2206
G01 X196.6673 Y39.1942
G01 X196.6553 Y39.1688
G01 X196.6409 Y39.1448
G01 X196.6242 Y39.1223
G01 X196.6054 Y39.1015
G01 X196.5846 Y39.0827
G01 X196.5621 Y39.0660
G01 X196.5381 Y39.0516
G01 X196.5127 Y39.0396
G01 X196.4864 Y39.0302
G01 X196.4592 Y39.0234
G01 X196.4315 Y39.0193
G01 X196.4035 Y39.0179
G01 X196.3755 Y39.0193
G01 X196.3478 Y39.0234
G01 X196.3206 Y39.0302
G01 X196.2942 Y39.0396
G01 X196.2689 Y39.0516
G01 X196.2448 Y39.0660
G01 X196.2223 Y39.0827
G01 X196.2015 Y39.1015
G01 X196.1827 Y39.1223
G01 X196.1660 Y39.1448
G01 X196.1516 Y39.1688
G01 X196.1396 Y39.1942
G01 X196.1302 Y39.2206
G01 X196.1234 Y39.2477
G01 X196.1193 Y39.2755
G01 X196.1179 Y39.3035
G01 X196.1193 Y39.3314
G01 X196.1234 Y39.3592
G01 X196.1302 Y39.3863
G01 X196.1396 Y39.4127
G01 X196.1516 Y39.4381
G01 X196.1660 Y39.4621
G01 X196.1827 Y39.4846
G01 X196.2015 Y39.5054
G01 X196.2223 Y39.5242
G01 X196.2448 Y39.5409
G01 X196.2689 Y39.5553
G01 X196.2942 Y39.5673
G01 X196.3206 Y39.5767
G01 X196.3478 Y39.5835
G01 X196.3755 Y39.5876
G01 X196.4035 Y39.5890
G01 X196.4315 Y39.5876
G00 Z2.0000
G00 X197.8315 Y36.3875
G01 F60.00
G01 Z-2.4000
G01 F120.00
G01 X197.8592 Y36.3834
G01 X197.8864 Y36.3766
G01 X197.9128 Y36.3671
G01 X197.9381 Y36.3552
G01 X197.9622 Y36.3407
G01 X197.9847 Y36.3240
G01 X198.0054 Y36.3052
G01 X198.0243 Y36.2845
G01 X198.0410 Y36.2620
G01 X198.0554 Y36.2379
G01 X198.0673 Y36.2126
G01 X198.0768 Y36.1862
G01 X198.0836 Y36.1590
G01 X198.0877 Y36.1313
G01 X198.0891 Y36.1033
G01 X198.0877 Y36.0753
G01 X198.0836 Y36.0476
G01 X198.0768 Y36.0204
G01 X198.0673 Y35.9940
G01 X198.0554 Y35.9687
G01 X198.0410 Y35.9447
G01 X198.0243 Y35.9221
G01 X198.0054 Y35.9014
G01 X197.9847 Y35.8826
G01 X197.9622 Y35.8659
G01 X197.9381 Y35.8515
G01 X197.9128 Y35.8395
G01 X197.8864 Y35.8300
G01 X197.8592 Y35.8232
G01 X197.8325 Y35.8193
G01 X197.8045 Y35.8179
G01 X197.7755 Y35.8194
G01 X197.7478 Y35.8235
G01 X197.7206 Y35.8303
G01 X197.6942 Y35.8397
G01 X197.6689 Y35.8517
G01 X197.6449 Y35.8661
G01 X197.6224 Y35.8828
G01 X197.6016 Y35.9016
G01 X197.5828 Y35.9224
G01 X197.5661 Y35.9449
G01 X197.5517 Y35.9689
G01 X197.5397 Y35.9943
G01 X197.5302 Y36.0207
G01 X197.5234 Y36.0478
G01 X197.5193 Y36.0756
G01 X197.5180 Y36.1036
G01 X197.5193 Y36.1316
G01 X197.5234 Y36.1593
G01 X197.5302 Y36.1865
G01 X197.5397 Y36.2128
G01 X197.5517 Y36.2382
G01 X197.5661 Y36.2622
G01 X197.5828 Y36.2847
G01 X197.6016 Y36.3055
G01 X197.6224 Y36.3243
G01 X197.6449 Y36.3410
G01 X197.6689 Y36.3554
G01 X197.6942 Y36.3674
G01 X197.7206 Y36.3768
G01 X197.7478 Y36.3836
G01 X197.7746 Y36.3876
G01 X197.8026 Y36.3889
G01 X197.8315 Y36.3875
G00 Z2.0000
G00 X196.5315 Y32.8876
G01 F60.00
G01 Z-2.4000
G01 F120.00
G01 X196.5593 Y32.8835
G01 X196.5864 Y32.8767
G01 X196.6128 Y32.8673
G01 X196.6382 Y32.8553
G01 X196.6622 Y32.8409
G01 X196.6847 Y32.8242
G01 X196.7055 Y32.8054
G01 X196.7243 Y32.7846
G01 X196.7410 Y32.7621
G01 X196.7554 Y32.7381
G01 X196.7674 Y32.7127
G01 X196.7768 Y32.6863
G01 X196.7836 Y32.6592
G01 X196.7877 Y32.6314
G01 X196.7891 Y32.6034
G01 X196.7877 Y32.5754
G01 X196.7836 Y32.5477
G01 X196.7768 Y32.5205
G01 X196.7674 Y32.4942
G01 X196.7554 Y32.4688
G01 X196.7410 Y32.4448
G01 X196.7243 Y32.4223
G01 X196.7055 Y32.4015
G01 X196.6847 Y32.3827
G01 X196.6622 Y32.3660
G01 X196.6382 Y32.3516
G01 X196.6128 Y32.3396
G01 X196.5864 Y32.3302
G01 X196.5593 Y32.3234
G01 X196.5325 Y32.3194
G01 X196.5045 Y32.3181
G01 X196.4756 Y32.3195
G01 X196.4478 Y32.3236
G01 X196.4206 Y32.3304
G01 X196.3943 Y32.3399
G01 X196.3689 Y32.3518
G01 X196.3449 Y32.3663
G01 X196.3224 Y32.3830
G01 X196.3016 Y32.4018
G01 X196.2828 Y32.4225
G01 X196.2661 Y32.4450
G01 X196.2517 Y32.4691
G01 X196.2397 Y32.4944
G01 X196.2303 Y32.5208
G01 X196.2235 Y32.5480
G01 X196.2194 Y32.5757
G01 X196.2180 Y32.6037
G01 X196.2194 Y32.6317
G01 X196.2235 Y32.6594
G01 X196.2303 Y32.6866
G01 X196.2397 Y32.7130
G01 X196.2517 Y32.7383
G01 X196.2661 Y32.7623
G01 X196.2828 Y32.7849
G01 X196.3016 Y32.8056
G01 X196.3224 Y32.8244
G01 X196.3449 Y32.8411
G01 X196.3689 Y32.8555
G01 X196.3943 Y32.8675
G01 X196.4206 Y32.8770
G01 X196.4478 Y32.8838
G01 X196.4746 Y32.8877
G01 X196.5026 Y32.8891
G01 X196.5315 Y32.8876
G00 Z2.0000
G00 X189.7314 Y32.8876
G01 F60.00
G01 Z-2.4000
G01 F120.00
G01 X189.7592 Y32.8835
G01 X189.7864 Y32.8767
G01 X189.8127 Y32.8673
G01 X189.8381 Y32.8553
G01 X189.8621 Y32.8409
G01 X189.8846 Y32.8242
G01 X189.9054 Y32.8054
G01 X189.9242 Y32.7846
G01 X189.9409 Y32.7621
G01 X189.9553 Y32.7381
G01 X189.9673 Y32.7127
G01 X189.9767 Y32.6863
G01 X189.9835 Y32.6592
G01 X189.9876 Y32.6314
G01 X189.9890 Y32.6034
G01 X189.9876 Y32.5754
G01 X189.9835 Y32.5477
G01 X189.9767 Y32.5205
G01 X189.9673 Y32.4942
G01 X189.9553 Y32.4688
G01 X189.9409 Y32.4448
G01 X189.9242 Y32.4223
G01 X189.9054 Y32.4015
G01 X189.8846 Y32.3827
G01 X189.8621 Y32.3660
G01 X189.8381 Y32.3516
G01 X189.8127 Y32.3396
G01 X189.7864 Y32.3302
G01 X189.7592 Y32.3234
G01 X189.7324 Y32.3194
G01 X189.7044 Y32.3181
G01 X189.6755 Y32.3195
G01 X189.6477 Y32.3236
G01 X189.6206 Y32.3304
G01 X189.5942 Y32.3399
G01 X189.5688 Y32.3518
G01 X189.5448 Y32.3663
G01 X189.5223 Y32.3830
G01 X189.5015 Y32.4018
G01 X189.4827 Y32.4225
G01 X189.4660 Y32.4450
G01 X189.4516 Y32.4691
G01 X189.4396 Y32.4944
G01 X189.4302 Y32.5208
G01 X189.4234 Y32.5480
G01 X189.4193 Y32.5757
G01 X189.4179 Y32.6037
G01 X189.4193 Y32.6317
G01 X189.4234 Y32.6594
G01 X189.4302 Y32.6866
G01 X189.4396 Y32.7130
G01 X189.4516 Y32.7383
G01 X189.4660 Y32.7623
G01 X189.4827 Y32.7849
G01 X189.5015 Y32.8056
G01 X189.5223 Y32.8244
G01 X189.5448 Y32.8411
G01 X189.5688 Y32.8555
G01 X189.5942 Y32.8675
G01 X189.6206 Y32.8770
G01 X189.6477 Y32.8838
G01 X189.6745 Y32.8877
G01 X189.7025 Y32.8891
G01 X189.7314 Y32.8876
G00 Z2.0000
G00 X221.6908 Y30.0322
G01 F60.00
G01 Z-2.4000
G01 F120.00
G01 X221.7682 Y30.0896
G01 X221.8508 Y30.1391
G01 X221.9379 Y30.1803
G01 X222.0286 Y30.2128
G01 X222.1220 Y30.2362
G01 X222.2173 Y30.2503
G01 X222.3135 Y30.2550
G01 X222.4097 Y30.2503
G01 X222.5050 Y30.2362
G01 X222.5984 Y30.2128
G01 X222.6891 Y30.1803
G01 X222.7762 Y30.1391
G01 X222.8588 Y30.0896
G01 X222.9362 Y30.0322
G01 X223.0076 Y29.9676
G01 X223.0722 Y29.8962
G01 X223.1296 Y29.8188
G01 X223.1791 Y29.7362
G01 X223.2203 Y29.6491
G01 X223.2528 Y29.5584
G01 X223.2762 Y29.4650
G01 X223.2903 Y29.3697
G01 X223.2950 Y29.2735
G01 X223.2903 Y29.1773
G01 X223.2762 Y29.0820
G01 X223.2528 Y28.9886
G01 X223.2203 Y28.8979
G01 X223.1791 Y28.8108
G01 X223.1296 Y28.7282
G01 X223.0722 Y28.6508
G01 X223.0076 Y28.5794
G01 X222.9362 Y28.5148
G01 X222.8588 Y28.4574
G01 X222.7762 Y28.4079
G01 X222.6891 Y28.3667
G01 X222.5984 Y28.3342
G01 X222.5050 Y28.3108
G01 X222.4097 Y28.2967
G01 X222.3135 Y28.2920
G01 X222.2173 Y28.2967
G01 X222.1220 Y28.3108
G01 X222.0286 Y28.3342
G01 X221.9379 Y28.3667
G01 X221.8508 Y28.4079
G01 X221.7682 Y28.4574
G01 X221.6908 Y28.5148
G01 X221.6194 Y28.5794
G01 X221.5548 Y28.6508
G01 X221.4974 Y28.7282
G01 X221.4479 Y28.8108
G01 X221.4067 Y28.8979
G01 X221.3742 Y28.9886
G01 X221.3508 Y29.0820
G01 X221.3367 Y29.1773
G01 X221.3320 Y29.2735
G01 X221.3367 Y29.3697
G01 X221.3508 Y29.4650
G01 X221.3742 Y29.5584
G01 X221.4067 Y29.6491
G01 X221.4479 Y29.7362
G01 X221.4974 Y29.8188
G01 X221.5548 Y29.8962
G01 X221.6194 Y29.9676
G01 X221.6908 Y30.0322
G00 Z2.0000
G00 X229.4770 Y83.8835
G01 F60.00
G01 Z-2.4000
G01 F120.00
G01 X229.4761 Y83.9203
G01 X229.4747 Y83.9449
G01 X229.4731 Y83.9632
G01 X229.4711 Y83.9815
G01 X229.4677 Y84.0059
G01 X229.4614 Y84.0422
G01 X229.4533 Y84.0781
G01 X229.4471 Y84.1020
G01 X229.4420 Y84.1197
G01 X229.4364 Y84.1372
G01 X229.4284 Y84.1605
G01 X229.4151 Y84.1948
G01 X229.4079 Y84.2117
G01 X229.3975 Y84.2341
G01 X229.3810 Y84.2670
G01 X229.3628 Y84.2990
G01 X229.3500 Y84.3200
G01 X229.3399 Y84.3355
G01 X229.3187 Y84.3656
G01 X229.3039 Y84.3852
G01 X229.2924 Y84.3996
G01 X229.2805 Y84.4137
G01 X229.2641 Y84.4321
G01 X229.2388 Y84.4588
G01 X229.2256 Y84.4716
G01 X229.2075 Y84.4883
G01 X229.1796 Y84.5124
G01 X229.1506 Y84.5350
G01 X229.1307 Y84.5495
G01 X229.1155 Y84.5599
G01 X229.1000 Y84.5700
G01 X229.0790 Y84.5828
G01 X229.0470 Y84.6010
G01 X229.0307 Y84.6094
G01 X229.0085 Y84.6202
G01 X228.9748 Y84.6351
G01 X228.9405 Y84.6484
G01 X228.9172 Y84.6564
G01 X228.8997 Y84.6620
G01 X228.8820 Y84.6671
G01 X228.8581 Y84.6733
G01 X228.8222 Y84.6814
G01 X228.7859 Y84.6877
G01 X228.7615 Y84.6911
G01 X228.7432 Y84.6931
G01 X228.7249 Y84.6947
G01 X228.7003 Y84.6961
G01 X228.6635 Y84.6970
G01 X76.2635 Y84.6970
G01 X76.2451 Y84.6968
G01 X76.2205 Y84.6958
G01 X76.1838 Y84.6931
G01 X76.1655 Y84.6911
G01 X76.1411 Y84.6877
G01 X76.1048 Y84.6814
G01 X76.0868 Y84.6776
G01 X76.0628 Y84.6718
G01 X76.0450 Y84.6671
G01 X76.0098 Y84.6564
G01 X75.9693 Y84.6419
G01 X75.9353 Y84.6279
G01 X75.9185 Y84.6202
G01 X75.8963 Y84.6094
G01 X75.8800 Y84.6010
G01 X75.8480 Y84.5828
G01 X75.8270 Y84.5700
G01 X75.7963 Y84.5495
G01 X75.7814 Y84.5387
G01 X75.7618 Y84.5239
G01 X75.7474 Y84.5124
G01 X75.7195 Y84.4883
G01 X75.7014 Y84.4716
G01 X75.6754 Y84.4456
G01 X75.6587 Y84.4275
G01 X75.6465 Y84.4137
G01 X75.6231 Y84.3852
G01 X75.6083 Y84.3656
G01 X75.5871 Y84.3355
G01 X75.5770 Y84.3200
G01 X75.5642 Y84.2990
G01 X75.5549 Y84.2831
G01 X75.5376 Y84.2507
G01 X75.5268 Y84.2285
G01 X75.5119 Y84.1948
G01 X75.5051 Y84.1777
G01 X75.4965 Y84.1546
G01 X75.4850 Y84.1197
G01 X75.4799 Y84.1020
G01 X75.4737 Y84.0781
G01 X75.4656 Y84.0422
G01 X75.4622 Y84.0241
G01 X75.4584 Y83.9998
G01 X75.4559 Y83.9815
G01 X75.4523 Y83.9449
G01 X75.4509 Y83.9203
G01 X75.4500 Y83.8835
G01 X75.4500 Y0.0635
G01 X75.4502 Y0.0451
G01 X75.4512 Y0.0205
G01 X75.4539 Y-0.0162
G01 X75.4559 Y-0.0345
G01 X75.4593 Y-0.0589
G01 X75.4656 Y-0.0952
G01 X75.4694 Y-0.1132
G01 X75.4752 Y-0.1372
G01 X75.4799 Y-0.1550
G01 X75.4906 Y-0.1902
G01 X75.5051 Y-0.2307
G01 X75.5119 Y-0.2478
G01 X75.5268 Y-0.2815
G01 X75.5376 Y-0.3037
G01 X75.5460 Y-0.3200
G01 X75.5642 Y-0.3520
G01 X75.5770 Y-0.3730
G01 X75.5871 Y-0.3885
G01 X75.6083 Y-0.4186
G01 X75.6231 Y-0.4382
G01 X75.6346 Y-0.4526
G01 X75.6587 Y-0.4805
G01 X75.6754 Y-0.4986
G01 X75.7014 Y-0.5246
G01 X75.7195 Y-0.5413
G01 X75.7474 Y-0.5654
G01 X75.7618 Y-0.5769
G01 X75.7814 Y-0.5917
G01 X75.8115 Y-0.6129
G01 X75.8270 Y-0.6230
G01 X75.8480 Y-0.6358
G01 X75.8800 Y-0.6540
G01 X75.8963 Y-0.6624
G01 X75.9185 Y-0.6732
G01 X75.9522 Y-0.6881
G01 X75.9693 Y-0.6949
G01 X75.9924 Y-0.7035
G01 X76.0098 Y-0.7094
G01 X76.0450 Y-0.7201
G01 X76.0689 Y-0.7263
G01 X76.1048 Y-0.7344
G01 X76.1229 Y-0.7378
G01 X76.1472 Y-0.7416
G01 X76.1655 Y-0.7441
G01 X76.2021 Y-0.7477
G01 X76.2267 Y-0.7491
G01 X76.2635 Y-0.7500
G01 X228.6635 Y-0.7500
G01 X228.6819 Y-0.7498
G01 X228.7065 Y-0.7488
G01 X228.7432 Y-0.7461
G01 X228.7615 Y-0.7441
G01 X228.7859 Y-0.7407
G01 X228.8222 Y-0.7344
G01 X228.8402 Y-0.7306
G01 X228.8642 Y-0.7248
G01 X228.8820 Y-0.7201
G01 X228.9172 Y-0.7094
G01 X228.9577 Y-0.6949
G01 X228.9748 Y-0.6881
G01 X229.0085 Y-0.6732
G01 X229.0307 Y-0.6624
G01 X229.0470 Y-0.6540
G01 X229.0790 Y-0.6358
G01 X229.1000 Y-0.6230
G01 X229.1155 Y-0.6129
G01 X229.1456 Y-0.5917
G01 X229.1652 Y-0.5769
G01 X229.1796 Y-0.5654
G01 X229.2075 Y-0.5413
G01 X229.2256 Y-0.5246
G01 X229.2388 Y-0.5118
G01 X229.2641 Y-0.4851
G01 X229.2805 Y-0.4667
G01 X229.3039 Y-0.4382
G01 X229.3187 Y-0.4186
G01 X229.3399 Y-0.3885
G01 X229.3500 Y-0.3730
G01 X229.3628 Y-0.3520
G01 X229.3810 Y-0.3200
G01 X229.3894 Y-0.3037
G01 X229.4002 Y-0.2815
G01 X229.4151 Y-0.2478
G01 X229.4219 Y-0.2307
G01 X229.4305 Y-0.2076
G01 X229.4420 Y-0.1727
G01 X229.4471 Y-0.1550
G01 X229.4533 Y-0.1311
G01 X229.4614 Y-0.0952
G01 X229.4648 Y-0.0771
G01 X229.4686 Y-0.0528
G01 X229.4731 Y-0.0162
G01 X229.4747 Y0.0021
G01 X229.4761 Y0.0267
G01 X229.4770 Y0.0635
G01 X229.4770 Y83.8835
G00 Z2.0000
M05
G00 Z2.0000
G00 Z15.00


