(G-CODE GENERATED BY FLATCAM v8.994 - www.flatcam.org - Version Date: 2020/11/7)

(Name: Conn - Bottom Copper.gbr_iso_combined_cnc)
(Type: G-code from Geometry)
(Units: MM)

(Created on Monday, 02 December 2024 at 12:29)

(This preprocessor is the default preprocessor used by FlatCAM.)
(It is made to work with MACH3 compatible motion controllers.)

(TOOL DIAMETER: 0.331 mm)
(Feedrate_XY: 320.0 mm/min)
(Feedrate_Z: 60.0 mm/min)
(Feedrate rapids 1500.0 mm/min)

(Z_Cut: -0.2001 mm)
(Z_Move: 2.0 mm)
(Z Start: None mm)
(Z End: 15.0 mm)
(X,Y End: None mm)
(Steps per circle: 64)
(Preprocessor Geometry: default)

(X range:    3.5072 ...  141.3998  mm)
(Y range:    3.5072 ...   95.6798  mm)

(Spindle Speed: 0.0 RPM)
G21
G90
G94

G01 F320.00
G00 Z15.0000

M03
G01 F320.00
G00 X6.1856 Y24.2020
G01 F60.00
G01 Z-0.2001
G01 F320.00
G01 X16.8014 Y24.2020
G01 X16.8200 Y24.1869
G01 X16.8349 Y24.1756
G01 X16.9039 Y24.1245
G01 X16.9344 Y24.1029
G01 X16.9660 Y24.0830
G01 X17.0396 Y24.0388
G01 X17.0721 Y24.0204
G01 X17.1055 Y24.0036
G01 X17.2001 Y23.9591
G01 X17.2347 Y23.9448
G01 X17.2522 Y23.9383
G01 X17.3330 Y23.9094
G01 X17.3685 Y23.8976
G01 X17.4045 Y23.8877
G01 X17.4878 Y23.8668
G01 X17.5243 Y23.8586
G01 X17.5611 Y23.8522
G01 X17.6460 Y23.8396
G01 X17.6831 Y23.8351
G01 X17.7204 Y23.8323
G01 X17.8248 Y23.8274
G01 X17.8435 Y23.8272
G01 X17.8809 Y23.8281
G01 X17.9666 Y23.8323
G01 X18.0039 Y23.8351
G01 X18.0410 Y23.8396
G01 X18.1444 Y23.8552
G01 X18.1810 Y23.8625
G01 X18.1992 Y23.8668
G01 X18.2825 Y23.8877
G01 X18.3185 Y23.8976
G01 X18.3540 Y23.9094
G01 X18.4348 Y23.9383
G01 X18.4523 Y23.9448
G01 X18.4869 Y23.9591
G01 X18.5815 Y24.0036
G01 X18.6149 Y24.0204
G01 X18.6474 Y24.0388
G01 X18.7210 Y24.0830
G01 X18.7369 Y24.0928
G01 X18.7680 Y24.1135
G01 X18.8670 Y24.1869
G01 X18.8816 Y24.1986
G01 X18.9099 Y24.2230
G01 X18.9735 Y24.2807
G01 X19.0006 Y24.3064
G01 X19.0263 Y24.3335
G01 X19.0840 Y24.3971
G01 X19.0964 Y24.4111
G01 X19.1201 Y24.4400
G01 X19.1825 Y24.5239
G01 X19.2041 Y24.5544
G01 X19.2240 Y24.5860
G01 X19.2682 Y24.6596
G01 X19.2866 Y24.6921
G01 X19.2952 Y24.7087
G01 X19.3479 Y24.8201
G01 X19.3622 Y24.8547
G01 X19.3687 Y24.8722
G01 X19.3976 Y24.9530
G01 X19.4094 Y24.9885
G01 X19.4193 Y25.0245
G01 X19.4402 Y25.1078
G01 X19.4484 Y25.1443
G01 X19.4518 Y25.1626
G01 X19.4674 Y25.2660
G01 X19.4719 Y25.3031
G01 X19.4747 Y25.3404
G01 X19.4796 Y25.4448
G01 X19.4798 Y25.4635
G01 X19.4789 Y25.5009
G01 X19.4747 Y25.5866
G01 X19.4719 Y25.6239
G01 X19.4674 Y25.6610
G01 X19.4548 Y25.7459
G01 X19.4484 Y25.7827
G01 X19.4445 Y25.8010
G01 X19.4146 Y25.9206
G01 X19.4094 Y25.9385
G01 X19.3976 Y25.9740
G01 X19.3687 Y26.0548
G01 X19.3553 Y26.0897
G01 X19.3401 Y26.1239
G01 X19.2952 Y26.2183
G01 X19.2866 Y26.2349
G01 X19.2682 Y26.2674
G01 X19.2240 Y26.3410
G01 X19.2041 Y26.3726
G01 X19.1825 Y26.4031
G01 X19.1314 Y26.4721
G01 X19.1084 Y26.5016
G01 X19.0964 Y26.5159
G01 X19.0263 Y26.5935
G01 X19.0006 Y26.6206
G01 X18.9735 Y26.6463
G01 X18.9099 Y26.7040
G01 X18.8959 Y26.7164
G01 X18.8752 Y26.7335
G01 X18.8959 Y26.7506
G01 X18.9099 Y26.7630
G01 X18.9735 Y26.8207
G01 X19.0006 Y26.8464
G01 X19.0263 Y26.8735
G01 X19.0840 Y26.9371
G01 X19.1084 Y26.9654
G01 X19.1314 Y26.9949
G01 X19.1825 Y27.0639
G01 X19.2041 Y27.0944
G01 X19.2240 Y27.1260
G01 X19.2682 Y27.1996
G01 X19.2866 Y27.2321
G01 X19.3034 Y27.2655
G01 X19.3401 Y27.3431
G01 X19.3553 Y27.3773
G01 X19.3687 Y27.4122
G01 X19.3976 Y27.4930
G01 X19.4094 Y27.5285
G01 X19.4193 Y27.5645
G01 X19.4402 Y27.6478
G01 X19.4484 Y27.6843
G01 X19.4548 Y27.7211
G01 X19.4674 Y27.8060
G01 X19.4719 Y27.8431
G01 X19.4747 Y27.8804
G01 X19.4796 Y27.9848
G01 X19.4798 Y28.0035
G01 X19.4789 Y28.0409
G01 X19.4747 Y28.1266
G01 X19.4719 Y28.1639
G01 X19.4674 Y28.2010
G01 X19.4548 Y28.2859
G01 X19.4484 Y28.3227
G01 X19.4445 Y28.3410
G01 X19.4146 Y28.4606
G01 X19.4094 Y28.4785
G01 X19.3976 Y28.5140
G01 X19.3687 Y28.5948
G01 X19.3553 Y28.6297
G01 X19.3401 Y28.6639
G01 X19.2952 Y28.7583
G01 X19.2866 Y28.7749
G01 X19.2682 Y28.8074
G01 X19.2240 Y28.8810
G01 X19.2041 Y28.9126
G01 X19.1825 Y28.9431
G01 X19.1314 Y29.0121
G01 X19.1201 Y29.0270
G01 X19.0964 Y29.0559
G01 X19.0263 Y29.1335
G01 X19.0006 Y29.1606
G01 X18.9735 Y29.1863
G01 X18.9099 Y29.2440
G01 X18.8959 Y29.2564
G01 X18.8752 Y29.2735
G01 X18.8959 Y29.2906
G01 X18.9099 Y29.3030
G01 X18.9872 Y29.3734
G01 X19.0136 Y29.3998
G01 X19.0840 Y29.4771
G01 X19.1084 Y29.5054
G01 X19.1314 Y29.5349
G01 X19.1935 Y29.6190
G01 X19.2142 Y29.6501
G01 X19.2240 Y29.6660
G01 X19.2682 Y29.7396
G01 X19.2866 Y29.7721
G01 X19.3034 Y29.8055
G01 X19.3401 Y29.8831
G01 X19.3553 Y29.9173
G01 X19.3687 Y29.9522
G01 X19.3976 Y30.0330
G01 X19.4094 Y30.0685
G01 X19.4193 Y30.1045
G01 X19.4402 Y30.1878
G01 X19.4484 Y30.2243
G01 X19.4548 Y30.2611
G01 X19.4674 Y30.3460
G01 X19.4719 Y30.3831
G01 X19.4747 Y30.4204
G01 X19.4789 Y30.5061
G01 X19.4798 Y30.5435
G01 X19.4789 Y30.5809
G01 X19.4747 Y30.6666
G01 X19.4719 Y30.7039
G01 X19.4674 Y30.7410
G01 X19.4548 Y30.8259
G01 X19.4484 Y30.8627
G01 X19.4402 Y30.8992
G01 X19.4146 Y31.0006
G01 X19.4037 Y31.0363
G01 X19.3687 Y31.1348
G01 X19.3553 Y31.1697
G01 X19.3401 Y31.2039
G01 X19.3034 Y31.2815
G01 X19.2866 Y31.3149
G01 X19.2682 Y31.3474
G01 X19.2142 Y31.4369
G01 X19.2041 Y31.4526
G01 X19.1825 Y31.4831
G01 X19.1314 Y31.5521
G01 X19.1084 Y31.5816
G01 X19.0840 Y31.6099
G01 X19.0263 Y31.6735
G01 X19.0006 Y31.7006
G01 X18.9872 Y31.7136
G01 X18.9099 Y31.7840
G01 X18.8816 Y31.8084
G01 X18.8521 Y31.8314
G01 X18.7680 Y31.8935
G01 X18.7526 Y31.9041
G01 X18.7210 Y31.9240
G01 X18.6474 Y31.9682
G01 X18.6149 Y31.9866
G01 X18.5815 Y32.0034
G01 X18.5039 Y32.0401
G01 X18.4869 Y32.0479
G01 X18.4523 Y32.0622
G01 X18.3540 Y32.0976
G01 X18.3185 Y32.1094
G01 X18.2825 Y32.1193
G01 X18.1810 Y32.1445
G01 X18.1444 Y32.1518
G01 X18.1259 Y32.1548
G01 X18.0410 Y32.1674
G01 X18.0039 Y32.1719
G01 X17.9666 Y32.1747
G01 X17.8809 Y32.1789
G01 X17.8622 Y32.1796
G01 X17.8248 Y32.1796
G01 X17.7204 Y32.1747
G01 X17.6831 Y32.1719
G01 X17.6460 Y32.1674
G01 X17.5426 Y32.1518
G01 X17.5060 Y32.1445
G01 X17.3864 Y32.1146
G01 X17.3507 Y32.1037
G01 X17.3330 Y32.0976
G01 X17.2347 Y32.0622
G01 X17.2001 Y32.0479
G01 X17.1055 Y32.0034
G01 X17.0887 Y31.9952
G01 X17.0558 Y31.9776
G01 X16.9660 Y31.9240
G01 X16.9344 Y31.9041
G01 X16.9039 Y31.8825
G01 X16.8349 Y31.8314
G01 X16.8200 Y31.8201
G01 X16.8014 Y31.8050
G01 X6.1856 Y31.8050
G01 X6.1670 Y31.8201
G01 X6.1521 Y31.8314
G01 X6.0831 Y31.8825
G01 X6.0526 Y31.9041
G01 X6.0210 Y31.9240
G01 X5.9474 Y31.9682
G01 X5.9149 Y31.9866
G01 X5.8815 Y32.0034
G01 X5.7869 Y32.0479
G01 X5.7697 Y32.0553
G01 X5.7348 Y32.0687
G01 X5.6540 Y32.0976
G01 X5.6185 Y32.1094
G01 X5.5825 Y32.1193
G01 X5.4992 Y32.1402
G01 X5.4627 Y32.1484
G01 X5.4259 Y32.1548
G01 X5.3410 Y32.1674
G01 X5.3039 Y32.1719
G01 X5.2666 Y32.1747
G01 X5.1622 Y32.1796
G01 X5.1248 Y32.1796
G01 X5.1061 Y32.1789
G01 X5.0204 Y32.1747
G01 X4.9831 Y32.1719
G01 X4.9460 Y32.1674
G01 X4.8426 Y32.1518
G01 X4.8243 Y32.1484
G01 X4.7878 Y32.1402
G01 X4.7045 Y32.1193
G01 X4.6685 Y32.1094
G01 X4.6330 Y32.0976
G01 X4.5522 Y32.0687
G01 X4.5173 Y32.0553
G01 X4.5001 Y32.0479
G01 X4.4055 Y32.0034
G01 X4.3721 Y31.9866
G01 X4.3396 Y31.9682
G01 X4.2501 Y31.9142
G01 X4.2190 Y31.8935
G01 X4.2039 Y31.8825
G01 X4.1349 Y31.8314
G01 X4.1054 Y31.8084
G01 X4.0771 Y31.7840
G01 X4.0135 Y31.7263
G01 X3.9864 Y31.7006
G01 X3.9734 Y31.6872
G01 X3.8906 Y31.5959
G01 X3.8786 Y31.5816
G01 X3.8556 Y31.5521
G01 X3.8045 Y31.4831
G01 X3.7829 Y31.4526
G01 X3.7630 Y31.4210
G01 X3.7188 Y31.3474
G01 X3.7004 Y31.3149
G01 X3.6918 Y31.2983
G01 X3.6391 Y31.1869
G01 X3.6317 Y31.1697
G01 X3.6183 Y31.1348
G01 X3.5894 Y31.0540
G01 X3.5776 Y31.0185
G01 X3.5677 Y30.9825
G01 X3.5468 Y30.8992
G01 X3.5386 Y30.8627
G01 X3.5352 Y30.8444
G01 X3.5171 Y30.7225
G01 X3.5134 Y30.6853
G01 X3.5123 Y30.6666
G01 X3.5081 Y30.5809
G01 X3.5072 Y30.5435
G01 X3.5081 Y30.5061
G01 X3.5134 Y30.4017
G01 X3.5171 Y30.3645
G01 X3.5196 Y30.3460
G01 X3.5322 Y30.2611
G01 X3.5386 Y30.2243
G01 X3.5468 Y30.1878
G01 X3.5677 Y30.1045
G01 X3.5724 Y30.0864
G01 X3.5833 Y30.0507
G01 X3.6183 Y29.9522
G01 X3.6317 Y29.9173
G01 X3.6469 Y29.8831
G01 X3.6918 Y29.7887
G01 X3.7004 Y29.7721
G01 X3.7188 Y29.7396
G01 X3.7630 Y29.6660
G01 X3.7829 Y29.6344
G01 X3.8045 Y29.6039
G01 X3.8556 Y29.5349
G01 X3.8786 Y29.5054
G01 X3.8906 Y29.4911
G01 X3.9607 Y29.4135
G01 X3.9864 Y29.3864
G01 X4.0135 Y29.3607
G01 X4.0771 Y29.3030
G01 X4.0911 Y29.2906
G01 X4.1118 Y29.2735
G01 X4.0911 Y29.2564
G01 X4.0771 Y29.2440
G01 X4.0135 Y29.1863
G01 X3.9864 Y29.1606
G01 X3.9607 Y29.1335
G01 X3.9030 Y29.0699
G01 X3.8786 Y29.0416
G01 X3.8556 Y29.0121
G01 X3.8045 Y28.9431
G01 X3.7829 Y28.9126
G01 X3.7630 Y28.8810
G01 X3.7094 Y28.7912
G01 X3.7004 Y28.7749
G01 X3.6836 Y28.7415
G01 X3.6469 Y28.6639
G01 X3.6317 Y28.6297
G01 X3.6183 Y28.5948
G01 X3.5833 Y28.4963
G01 X3.5724 Y28.4606
G01 X3.5677 Y28.4425
G01 X3.5425 Y28.3410
G01 X3.5352 Y28.3044
G01 X3.5196 Y28.2010
G01 X3.5171 Y28.1825
G01 X3.5134 Y28.1453
G01 X3.5081 Y28.0409
G01 X3.5072 Y28.0035
G01 X3.5081 Y27.9661
G01 X3.5134 Y27.8617
G01 X3.5171 Y27.8245
G01 X3.5196 Y27.8060
G01 X3.5322 Y27.7211
G01 X3.5386 Y27.6843
G01 X3.5468 Y27.6478
G01 X3.5677 Y27.5645
G01 X3.5724 Y27.5464
G01 X3.5833 Y27.5107
G01 X3.6183 Y27.4122
G01 X3.6317 Y27.3773
G01 X3.6469 Y27.3431
G01 X3.6918 Y27.2487
G01 X3.7004 Y27.2321
G01 X3.7188 Y27.1996
G01 X3.7630 Y27.1260
G01 X3.7829 Y27.0944
G01 X3.8045 Y27.0639
G01 X3.8556 Y26.9949
G01 X3.8786 Y26.9654
G01 X3.8906 Y26.9511
G01 X3.9607 Y26.8735
G01 X3.9864 Y26.8464
G01 X4.0135 Y26.8207
G01 X4.0771 Y26.7630
G01 X4.0911 Y26.7506
G01 X4.1118 Y26.7335
G01 X4.0911 Y26.7164
G01 X4.0771 Y26.7040
G01 X4.0135 Y26.6463
G01 X3.9864 Y26.6206
G01 X3.9607 Y26.5935
G01 X3.9030 Y26.5299
G01 X3.8786 Y26.5016
G01 X3.8556 Y26.4721
G01 X3.7935 Y26.3880
G01 X3.7829 Y26.3726
G01 X3.7630 Y26.3410
G01 X3.7094 Y26.2512
G01 X3.6918 Y26.2183
G01 X3.6469 Y26.1239
G01 X3.6317 Y26.0897
G01 X3.6183 Y26.0548
G01 X3.5894 Y25.9740
G01 X3.5776 Y25.9385
G01 X3.5724 Y25.9206
G01 X3.5468 Y25.8192
G01 X3.5386 Y25.7827
G01 X3.5322 Y25.7459
G01 X3.5171 Y25.6425
G01 X3.5134 Y25.6053
G01 X3.5123 Y25.5866
G01 X3.5081 Y25.5009
G01 X3.5072 Y25.4635
G01 X3.5081 Y25.4261
G01 X3.5134 Y25.3217
G01 X3.5171 Y25.2845
G01 X3.5322 Y25.1811
G01 X3.5352 Y25.1626
G01 X3.5425 Y25.1260
G01 X3.5677 Y25.0245
G01 X3.5776 Y24.9885
G01 X3.5894 Y24.9530
G01 X3.6183 Y24.8722
G01 X3.6317 Y24.8373
G01 X3.6391 Y24.8201
G01 X3.6918 Y24.7087
G01 X3.7094 Y24.6758
G01 X3.7188 Y24.6596
G01 X3.7630 Y24.5860
G01 X3.7829 Y24.5544
G01 X3.8045 Y24.5239
G01 X3.8669 Y24.4400
G01 X3.8906 Y24.4111
G01 X3.9030 Y24.3971
G01 X3.9607 Y24.3335
G01 X3.9864 Y24.3064
G01 X4.0135 Y24.2807
G01 X4.0771 Y24.2230
G01 X4.0911 Y24.2106
G01 X4.1200 Y24.1869
G01 X4.2039 Y24.1245
G01 X4.2344 Y24.1029
G01 X4.2660 Y24.0830
G01 X4.3558 Y24.0294
G01 X4.3721 Y24.0204
G01 X4.4055 Y24.0036
G01 X4.4831 Y23.9669
G01 X4.5173 Y23.9517
G01 X4.5522 Y23.9383
G01 X4.6330 Y23.9094
G01 X4.6685 Y23.8976
G01 X4.6864 Y23.8924
G01 X4.7878 Y23.8668
G01 X4.8243 Y23.8586
G01 X4.8611 Y23.8522
G01 X4.9645 Y23.8371
G01 X5.0017 Y23.8334
G01 X5.0204 Y23.8323
G01 X5.1061 Y23.8281
G01 X5.1435 Y23.8272
G01 X5.1809 Y23.8281
G01 X5.2666 Y23.8323
G01 X5.2853 Y23.8334
G01 X5.3225 Y23.8371
G01 X5.4259 Y23.8522
G01 X5.4627 Y23.8586
G01 X5.4992 Y23.8668
G01 X5.6006 Y23.8924
G01 X5.6363 Y23.9033
G01 X5.6540 Y23.9094
G01 X5.7348 Y23.9383
G01 X5.7697 Y23.9517
G01 X5.8039 Y23.9669
G01 X5.8815 Y24.0036
G01 X5.9149 Y24.0204
G01 X5.9312 Y24.0294
G01 X6.0210 Y24.0830
G01 X6.0526 Y24.1029
G01 X6.0831 Y24.1245
G01 X6.1521 Y24.1756
G01 X6.1670 Y24.1869
G01 X6.1856 Y24.2020
G00 Z2.0000
G00 X6.0717 Y24.4999
G01 F60.00
G01 Z-0.2001
G01 F320.00
G01 X16.9153 Y24.4999
G01 X16.9772 Y24.4437
G01 X16.9944 Y24.4289
G01 X17.0123 Y24.4149
G01 X17.0813 Y24.3637
G01 X17.0999 Y24.3506
G01 X17.1191 Y24.3385
G01 X17.1928 Y24.2943
G01 X17.2126 Y24.2831
G01 X17.2329 Y24.2729
G01 X17.3105 Y24.2362
G01 X17.3313 Y24.2270
G01 X17.3525 Y24.2188
G01 X17.4334 Y24.1898
G01 X17.4441 Y24.1861
G01 X17.4659 Y24.1795
G01 X17.5602 Y24.1558
G01 X17.5824 Y24.1508
G01 X17.6048 Y24.1469
G01 X17.6897 Y24.1343
G01 X17.7123 Y24.1315
G01 X17.7350 Y24.1298
G01 X17.8208 Y24.1256
G01 X17.8435 Y24.1251
G01 X17.8549 Y24.1252
G01 X17.9520 Y24.1298
G01 X17.9747 Y24.1315
G01 X17.9973 Y24.1343
G01 X18.0934 Y24.1487
G01 X18.1157 Y24.1531
G01 X18.1268 Y24.1558
G01 X18.2101 Y24.1766
G01 X18.2320 Y24.1827
G01 X18.2536 Y24.1898
G01 X18.3345 Y24.2188
G01 X18.3557 Y24.2270
G01 X18.3765 Y24.2362
G01 X18.4643 Y24.2779
G01 X18.4844 Y24.2886
G01 X18.4942 Y24.2943
G01 X18.5679 Y24.3385
G01 X18.5871 Y24.3506
G01 X18.6057 Y24.3637
G01 X18.6747 Y24.4149
G01 X18.6926 Y24.4289
G01 X18.7098 Y24.4437
G01 X18.7734 Y24.5014
G01 X18.7899 Y24.5171
G01 X18.8056 Y24.5336
G01 X18.8633 Y24.5972
G01 X18.8781 Y24.6144
G01 X18.8921 Y24.6323
G01 X18.9433 Y24.7013
G01 X18.9564 Y24.7199
G01 X18.9685 Y24.7391
G01 X19.0127 Y24.8128
G01 X19.0239 Y24.8326
G01 X19.0341 Y24.8529
G01 X19.0708 Y24.9305
G01 X19.0800 Y24.9513
G01 X19.0882 Y24.9725
G01 X19.1172 Y25.0534
G01 X19.1243 Y25.0750
G01 X19.1304 Y25.0969
G01 X19.1512 Y25.1802
G01 X19.1562 Y25.2024
G01 X19.1601 Y25.2248
G01 X19.1727 Y25.3097
G01 X19.1742 Y25.3210
G01 X19.1765 Y25.3436
G01 X19.1814 Y25.4408
G01 X19.1819 Y25.4635
G01 X19.1814 Y25.4862
G01 X19.1772 Y25.5720
G01 X19.1755 Y25.5947
G01 X19.1727 Y25.6173
G01 X19.1601 Y25.7022
G01 X19.1562 Y25.7246
G01 X19.1512 Y25.7468
G01 X19.1304 Y25.8301
G01 X19.1243 Y25.8520
G01 X19.1209 Y25.8629
G01 X19.0882 Y25.9545
G01 X19.0800 Y25.9757
G01 X19.0708 Y25.9965
G01 X19.0341 Y26.0741
G01 X19.0239 Y26.0944
G01 X19.0127 Y26.1142
G01 X18.9685 Y26.1879
G01 X18.9564 Y26.2071
G01 X18.9433 Y26.2257
G01 X18.8921 Y26.2947
G01 X18.8781 Y26.3126
G01 X18.8633 Y26.3298
G01 X18.8056 Y26.3934
G01 X18.7979 Y26.4018
G01 X18.7818 Y26.4179
G01 X18.7098 Y26.4833
G01 X18.6926 Y26.4981
G01 X18.6747 Y26.5121
G01 X18.6057 Y26.5633
G01 X18.5871 Y26.5764
G01 X18.5679 Y26.5885
G01 X18.4942 Y26.6327
G01 X18.4744 Y26.6439
G01 X18.4541 Y26.6541
G01 X18.3765 Y26.6908
G01 X18.3557 Y26.7000
G01 X18.3345 Y26.7082
G01 X18.2639 Y26.7335
G01 X18.3345 Y26.7588
G01 X18.3557 Y26.7670
G01 X18.3765 Y26.7762
G01 X18.4541 Y26.8129
G01 X18.4744 Y26.8231
G01 X18.4942 Y26.8343
G01 X18.5679 Y26.8785
G01 X18.5871 Y26.8906
G01 X18.6057 Y26.9037
G01 X18.6747 Y26.9549
G01 X18.6926 Y26.9689
G01 X18.7098 Y26.9837
G01 X18.7734 Y27.0414
G01 X18.7899 Y27.0571
G01 X18.8056 Y27.0736
G01 X18.8708 Y27.1457
G01 X18.8852 Y27.1633
G01 X18.8921 Y27.1723
G01 X18.9433 Y27.2413
G01 X18.9564 Y27.2599
G01 X18.9685 Y27.2791
G01 X19.0127 Y27.3528
G01 X19.0239 Y27.3726
G01 X19.0341 Y27.3929
G01 X19.0708 Y27.4705
G01 X19.0800 Y27.4913
G01 X19.0882 Y27.5125
G01 X19.1172 Y27.5934
G01 X19.1243 Y27.6150
G01 X19.1304 Y27.6369
G01 X19.1512 Y27.7202
G01 X19.1562 Y27.7424
G01 X19.1583 Y27.7536
G01 X19.1727 Y27.8497
G01 X19.1755 Y27.8723
G01 X19.1772 Y27.8950
G01 X19.1814 Y27.9808
G01 X19.1819 Y28.0035
G01 X19.1814 Y28.0262
G01 X19.1772 Y28.1120
G01 X19.1755 Y28.1347
G01 X19.1727 Y28.1573
G01 X19.1583 Y28.2534
G01 X19.1539 Y28.2757
G01 X19.1512 Y28.2868
G01 X19.1304 Y28.3701
G01 X19.1243 Y28.3920
G01 X19.1172 Y28.4136
G01 X19.0882 Y28.4945
G01 X19.0800 Y28.5157
G01 X19.0756 Y28.5261
G01 X19.0341 Y28.6141
G01 X19.0239 Y28.6344
G01 X19.0127 Y28.6542
G01 X18.9685 Y28.7279
G01 X18.9564 Y28.7471
G01 X18.9433 Y28.7657
G01 X18.8921 Y28.8347
G01 X18.8781 Y28.8526
G01 X18.8633 Y28.8698
G01 X18.8056 Y28.9334
G01 X18.7899 Y28.9499
G01 X18.7734 Y28.9656
G01 X18.7098 Y29.0233
G01 X18.6926 Y29.0381
G01 X18.6747 Y29.0521
G01 X18.6057 Y29.1033
G01 X18.5871 Y29.1164
G01 X18.5679 Y29.1285
G01 X18.4942 Y29.1727
G01 X18.4744 Y29.1839
G01 X18.4541 Y29.1941
G01 X18.3765 Y29.2308
G01 X18.3557 Y29.2400
G01 X18.3345 Y29.2482
G01 X18.2639 Y29.2735
G01 X18.3345 Y29.2988
G01 X18.3557 Y29.3070
G01 X18.3765 Y29.3162
G01 X18.4541 Y29.3529
G01 X18.4643 Y29.3579
G01 X18.4844 Y29.3686
G01 X18.5679 Y29.4185
G01 X18.5871 Y29.4306
G01 X18.5965 Y29.4371
G01 X18.6837 Y29.5018
G01 X18.6926 Y29.5089
G01 X18.7098 Y29.5237
G01 X18.7734 Y29.5814
G01 X18.7899 Y29.5971
G01 X18.8056 Y29.6136
G01 X18.8633 Y29.6772
G01 X18.8781 Y29.6944
G01 X18.8921 Y29.7123
G01 X18.9433 Y29.7813
G01 X18.9564 Y29.7999
G01 X18.9685 Y29.8191
G01 X19.0127 Y29.8928
G01 X19.0239 Y29.9126
G01 X19.0341 Y29.9329
G01 X19.0708 Y30.0105
G01 X19.0800 Y30.0313
G01 X19.0882 Y30.0525
G01 X19.1172 Y30.1334
G01 X19.1243 Y30.1550
G01 X19.1304 Y30.1769
G01 X19.1512 Y30.2602
G01 X19.1562 Y30.2824
G01 X19.1601 Y30.3048
G01 X19.1727 Y30.3897
G01 X19.1755 Y30.4123
G01 X19.1772 Y30.4350
G01 X19.1814 Y30.5208
G01 X19.1819 Y30.5435
G01 X19.1814 Y30.5662
G01 X19.1772 Y30.6520
G01 X19.1755 Y30.6747
G01 X19.1727 Y30.6973
G01 X19.1601 Y30.7822
G01 X19.1583 Y30.7934
G01 X19.1539 Y30.8157
G01 X19.1304 Y30.9101
G01 X19.1243 Y30.9320
G01 X19.1209 Y30.9429
G01 X19.0843 Y31.0451
G01 X19.0756 Y31.0661
G01 X19.0708 Y31.0765
G01 X19.0291 Y31.1643
G01 X19.0184 Y31.1844
G01 X19.0127 Y31.1942
G01 X18.9685 Y31.2679
G01 X18.9564 Y31.2871
G01 X18.9433 Y31.3057
G01 X18.8921 Y31.3747
G01 X18.8781 Y31.3926
G01 X18.8633 Y31.4098
G01 X18.8056 Y31.4734
G01 X18.7899 Y31.4899
G01 X18.7734 Y31.5056
G01 X18.7098 Y31.5633
G01 X18.6926 Y31.5781
G01 X18.6747 Y31.5921
G01 X18.6057 Y31.6433
G01 X18.5871 Y31.6564
G01 X18.5776 Y31.6626
G01 X18.4942 Y31.7127
G01 X18.4744 Y31.7239
G01 X18.4541 Y31.7341
G01 X18.3765 Y31.7708
G01 X18.3557 Y31.7800
G01 X18.3345 Y31.7882
G01 X18.2536 Y31.8172
G01 X18.2320 Y31.8243
G01 X18.2101 Y31.8304
G01 X18.1268 Y31.8512
G01 X18.1046 Y31.8562
G01 X18.0822 Y31.8601
G01 X17.9973 Y31.8727
G01 X17.9747 Y31.8755
G01 X17.9520 Y31.8772
G01 X17.8662 Y31.8814
G01 X17.8549 Y31.8818
G01 X17.8321 Y31.8818
G01 X17.7236 Y31.8765
G01 X17.7123 Y31.8755
G01 X17.6897 Y31.8727
G01 X17.5936 Y31.8583
G01 X17.5824 Y31.8562
G01 X17.5602 Y31.8512
G01 X17.4769 Y31.8304
G01 X17.4550 Y31.8243
G01 X17.4334 Y31.8172
G01 X17.3419 Y31.7843
G01 X17.3313 Y31.7800
G01 X17.3105 Y31.7708
G01 X17.2329 Y31.7341
G01 X17.2126 Y31.7239
G01 X17.1928 Y31.7127
G01 X17.1094 Y31.6626
G01 X17.0999 Y31.6564
G01 X17.0813 Y31.6433
G01 X17.0123 Y31.5921
G01 X16.9944 Y31.5781
G01 X16.9772 Y31.5633
G01 X16.9153 Y31.5071
G01 X6.0717 Y31.5071
G01 X6.0098 Y31.5633
G01 X5.9926 Y31.5781
G01 X5.9747 Y31.5921
G01 X5.9057 Y31.6433
G01 X5.8871 Y31.6564
G01 X5.8679 Y31.6685
G01 X5.7942 Y31.7127
G01 X5.7744 Y31.7239
G01 X5.7541 Y31.7341
G01 X5.6765 Y31.7708
G01 X5.6557 Y31.7800
G01 X5.6345 Y31.7882
G01 X5.5536 Y31.8172
G01 X5.5320 Y31.8243
G01 X5.5211 Y31.8275
G01 X5.4268 Y31.8512
G01 X5.4046 Y31.8562
G01 X5.3822 Y31.8601
G01 X5.2973 Y31.8727
G01 X5.2747 Y31.8755
G01 X5.2520 Y31.8772
G01 X5.1662 Y31.8814
G01 X5.1549 Y31.8818
G01 X5.1321 Y31.8818
G01 X5.0350 Y31.8772
G01 X5.0123 Y31.8755
G01 X4.9897 Y31.8727
G01 X4.8936 Y31.8583
G01 X4.8824 Y31.8562
G01 X4.8602 Y31.8512
G01 X4.7769 Y31.8304
G01 X4.7550 Y31.8243
G01 X4.7334 Y31.8172
G01 X4.6525 Y31.7882
G01 X4.6313 Y31.7800
G01 X4.6105 Y31.7708
G01 X4.5227 Y31.7291
G01 X4.5126 Y31.7239
G01 X4.4928 Y31.7127
G01 X4.4191 Y31.6685
G01 X4.3999 Y31.6564
G01 X4.3813 Y31.6433
G01 X4.3123 Y31.5921
G01 X4.2944 Y31.5781
G01 X4.2772 Y31.5633
G01 X4.2136 Y31.5056
G01 X4.1971 Y31.4899
G01 X4.1814 Y31.4734
G01 X4.1237 Y31.4098
G01 X4.1089 Y31.3926
G01 X4.0949 Y31.3747
G01 X4.0437 Y31.3057
G01 X4.0306 Y31.2871
G01 X4.0185 Y31.2679
G01 X3.9743 Y31.1942
G01 X3.9631 Y31.1744
G01 X3.9529 Y31.1541
G01 X3.9162 Y31.0765
G01 X3.9070 Y31.0557
G01 X3.8988 Y31.0345
G01 X3.8698 Y30.9536
G01 X3.8627 Y30.9320
G01 X3.8566 Y30.9101
G01 X3.8358 Y30.8268
G01 X3.8308 Y30.8046
G01 X3.8269 Y30.7822
G01 X3.8143 Y30.6973
G01 X3.8115 Y30.6747
G01 X3.8098 Y30.6520
G01 X3.8056 Y30.5662
G01 X3.8051 Y30.5435
G01 X3.8056 Y30.5208
G01 X3.8105 Y30.4236
G01 X3.8115 Y30.4123
G01 X3.8143 Y30.3897
G01 X3.8269 Y30.3048
G01 X3.8308 Y30.2824
G01 X3.8358 Y30.2602
G01 X3.8566 Y30.1769
G01 X3.8627 Y30.1550
G01 X3.8698 Y30.1334
G01 X3.8988 Y30.0525
G01 X3.9070 Y30.0313
G01 X3.9162 Y30.0105
G01 X3.9529 Y29.9329
G01 X3.9631 Y29.9126
G01 X3.9743 Y29.8928
G01 X4.0185 Y29.8191
G01 X4.0306 Y29.7999
G01 X4.0437 Y29.7813
G01 X4.1018 Y29.7033
G01 X4.1162 Y29.6857
G01 X4.1237 Y29.6772
G01 X4.1814 Y29.6136
G01 X4.1971 Y29.5971
G01 X4.2136 Y29.5814
G01 X4.2772 Y29.5237
G01 X4.2944 Y29.5089
G01 X4.3123 Y29.4949
G01 X4.3905 Y29.4371
G01 X4.4094 Y29.4244
G01 X4.4191 Y29.4185
G01 X4.4928 Y29.3743
G01 X4.5126 Y29.3631
G01 X4.5227 Y29.3579
G01 X4.6105 Y29.3162
G01 X4.6313 Y29.3070
G01 X4.6525 Y29.2988
G01 X4.7231 Y29.2735
G01 X4.6525 Y29.2482
G01 X4.6313 Y29.2400
G01 X4.6105 Y29.2308
G01 X4.5329 Y29.1941
G01 X4.5126 Y29.1839
G01 X4.4928 Y29.1727
G01 X4.4191 Y29.1285
G01 X4.3999 Y29.1164
G01 X4.3813 Y29.1033
G01 X4.3123 Y29.0521
G01 X4.2944 Y29.0381
G01 X4.2772 Y29.0233
G01 X4.2136 Y28.9656
G01 X4.1971 Y28.9499
G01 X4.1891 Y28.9418
G01 X4.1237 Y28.8698
G01 X4.1089 Y28.8526
G01 X4.0949 Y28.8347
G01 X4.0371 Y28.7565
G01 X4.0244 Y28.7376
G01 X4.0185 Y28.7279
G01 X3.9743 Y28.6542
G01 X3.9631 Y28.6344
G01 X3.9529 Y28.6141
G01 X3.9162 Y28.5365
G01 X3.9070 Y28.5157
G01 X3.8988 Y28.4945
G01 X3.8698 Y28.4136
G01 X3.8627 Y28.3920
G01 X3.8566 Y28.3701
G01 X3.8358 Y28.2868
G01 X3.8308 Y28.2646
G01 X3.8269 Y28.2422
G01 X3.8143 Y28.1573
G01 X3.8128 Y28.1460
G01 X3.8105 Y28.1234
G01 X3.8056 Y28.0262
G01 X3.8051 Y28.0035
G01 X3.8056 Y27.9808
G01 X3.8098 Y27.8950
G01 X3.8115 Y27.8723
G01 X3.8143 Y27.8497
G01 X3.8269 Y27.7648
G01 X3.8308 Y27.7424
G01 X3.8358 Y27.7202
G01 X3.8566 Y27.6369
G01 X3.8627 Y27.6150
G01 X3.8661 Y27.6041
G01 X3.8988 Y27.5125
G01 X3.9070 Y27.4913
G01 X3.9162 Y27.4705
G01 X3.9579 Y27.3827
G01 X3.9631 Y27.3726
G01 X3.9743 Y27.3528
G01 X4.0185 Y27.2791
G01 X4.0306 Y27.2599
G01 X4.0437 Y27.2413
G01 X4.0949 Y27.1723
G01 X4.1089 Y27.1544
G01 X4.1237 Y27.1372
G01 X4.1891 Y27.0652
G01 X4.1971 Y27.0571
G01 X4.2136 Y27.0414
G01 X4.2772 Y26.9837
G01 X4.2944 Y26.9689
G01 X4.3123 Y26.9549
G01 X4.3813 Y26.9037
G01 X4.3999 Y26.8906
G01 X4.4191 Y26.8785
G01 X4.4928 Y26.8343
G01 X4.5126 Y26.8231
G01 X4.5329 Y26.8129
G01 X4.6105 Y26.7762
G01 X4.6313 Y26.7670
G01 X4.6525 Y26.7588
G01 X4.7231 Y26.7335
G01 X4.6525 Y26.7082
G01 X4.6313 Y26.7000
G01 X4.6105 Y26.6908
G01 X4.5329 Y26.6541
G01 X4.5126 Y26.6439
G01 X4.4928 Y26.6327
G01 X4.4191 Y26.5885
G01 X4.3999 Y26.5764
G01 X4.3813 Y26.5633
G01 X4.3123 Y26.5121
G01 X4.2944 Y26.4981
G01 X4.2772 Y26.4833
G01 X4.2136 Y26.4256
G01 X4.1971 Y26.4099
G01 X4.1814 Y26.3934
G01 X4.1237 Y26.3298
G01 X4.1089 Y26.3126
G01 X4.0949 Y26.2947
G01 X4.0437 Y26.2257
G01 X4.0306 Y26.2071
G01 X4.0185 Y26.1879
G01 X3.9686 Y26.1044
G01 X3.9579 Y26.0843
G01 X3.9529 Y26.0741
G01 X3.9162 Y25.9965
G01 X3.9070 Y25.9757
G01 X3.8988 Y25.9545
G01 X3.8698 Y25.8736
G01 X3.8627 Y25.8520
G01 X3.8566 Y25.8301
G01 X3.8358 Y25.7468
G01 X3.8308 Y25.7246
G01 X3.8269 Y25.7022
G01 X3.8143 Y25.6173
G01 X3.8128 Y25.6060
G01 X3.8105 Y25.5834
G01 X3.8056 Y25.4862
G01 X3.8051 Y25.4635
G01 X3.8056 Y25.4408
G01 X3.8098 Y25.3550
G01 X3.8115 Y25.3323
G01 X3.8143 Y25.3097
G01 X3.8269 Y25.2248
G01 X3.8308 Y25.2024
G01 X3.8331 Y25.1913
G01 X3.8566 Y25.0969
G01 X3.8627 Y25.0750
G01 X3.8698 Y25.0534
G01 X3.8988 Y24.9725
G01 X3.9070 Y24.9513
G01 X3.9162 Y24.9305
G01 X3.9529 Y24.8529
G01 X3.9631 Y24.8326
G01 X3.9743 Y24.8128
G01 X4.0185 Y24.7391
G01 X4.0306 Y24.7199
G01 X4.0437 Y24.7013
G01 X4.0949 Y24.6323
G01 X4.1089 Y24.6144
G01 X4.1237 Y24.5972
G01 X4.1814 Y24.5336
G01 X4.1971 Y24.5171
G01 X4.2136 Y24.5014
G01 X4.2772 Y24.4437
G01 X4.2944 Y24.4289
G01 X4.3123 Y24.4149
G01 X4.3813 Y24.3637
G01 X4.3999 Y24.3506
G01 X4.4191 Y24.3385
G01 X4.4928 Y24.2943
G01 X4.5126 Y24.2831
G01 X4.5329 Y24.2729
G01 X4.6105 Y24.2362
G01 X4.6313 Y24.2270
G01 X4.6525 Y24.2188
G01 X4.7334 Y24.1898
G01 X4.7550 Y24.1827
G01 X4.7769 Y24.1766
G01 X4.8602 Y24.1558
G01 X4.8824 Y24.1508
G01 X4.9048 Y24.1469
G01 X4.9897 Y24.1343
G01 X5.0123 Y24.1315
G01 X5.0350 Y24.1298
G01 X5.1208 Y24.1256
G01 X5.1435 Y24.1251
G01 X5.1662 Y24.1256
G01 X5.2520 Y24.1298
G01 X5.2747 Y24.1315
G01 X5.2973 Y24.1343
G01 X5.3822 Y24.1469
G01 X5.4046 Y24.1508
G01 X5.4268 Y24.1558
G01 X5.5101 Y24.1766
G01 X5.5320 Y24.1827
G01 X5.5536 Y24.1898
G01 X5.6345 Y24.2188
G01 X5.6557 Y24.2270
G01 X5.6765 Y24.2362
G01 X5.7541 Y24.2729
G01 X5.7744 Y24.2831
G01 X5.7942 Y24.2943
G01 X5.8679 Y24.3385
G01 X5.8871 Y24.3506
G01 X5.9057 Y24.3637
G01 X5.9747 Y24.4149
G01 X5.9926 Y24.4289
G01 X6.0098 Y24.4437
G01 X6.0717 Y24.4999
G00 Z2.0000
G00 X5.9430 Y24.7978
G01 F60.00
G01 Z-0.2001
G01 F320.00
G01 X17.0440 Y24.7978
G01 X17.1021 Y24.7336
G01 X17.1136 Y24.7221
G01 X17.1834 Y24.6592
G01 X17.2588 Y24.6030
G01 X17.2723 Y24.5940
G01 X17.3530 Y24.5458
G01 X17.4453 Y24.5022
G01 X17.5415 Y24.4678
G01 X17.6326 Y24.4447
G01 X17.6485 Y24.4416
G01 X17.7415 Y24.4280
G01 X17.8354 Y24.4232
G01 X17.8516 Y24.4232
G01 X17.9374 Y24.4274
G01 X17.9536 Y24.4290
G01 X18.0465 Y24.4430
G01 X18.1455 Y24.4678
G01 X18.2417 Y24.5022
G01 X18.3340 Y24.5458
G01 X18.4216 Y24.5983
G01 X18.5036 Y24.6592
G01 X18.5793 Y24.7277
G01 X18.6478 Y24.8034
G01 X18.7087 Y24.8854
G01 X18.7612 Y24.9730
G01 X18.8048 Y25.0653
G01 X18.8392 Y25.1615
G01 X18.8640 Y25.2605
G01 X18.8790 Y25.3615
G01 X18.8840 Y25.4635
G01 X18.8796 Y25.5574
G01 X18.8780 Y25.5736
G01 X18.8640 Y25.6665
G01 X18.8392 Y25.7655
G01 X18.8048 Y25.8617
G01 X18.7648 Y25.9467
G01 X18.7572 Y25.9611
G01 X18.7087 Y26.0416
G01 X18.6528 Y26.1172
G01 X18.6425 Y26.1298
G01 X18.5849 Y26.1934
G01 X18.5734 Y26.2049
G01 X18.5036 Y26.2678
G01 X18.4216 Y26.3287
G01 X18.3340 Y26.3812
G01 X18.2417 Y26.4248
G01 X18.1455 Y26.4592
G01 X18.0465 Y26.4840
G01 X17.9455 Y26.4990
G01 X17.8516 Y26.5038
G01 X17.8354 Y26.5038
G01 X17.7415 Y26.4990
G01 X17.6405 Y26.4840
G01 X17.5415 Y26.4592
G01 X17.4529 Y26.4277
G01 X17.4379 Y26.4215
G01 X17.3603 Y26.3848
G01 X17.3459 Y26.3772
G01 X17.2654 Y26.3287
G01 X17.1898 Y26.2728
G01 X17.1772 Y26.2625
G01 X17.1077 Y26.1993
G01 X17.0440 Y26.1292
G01 X5.9430 Y26.1292
G01 X5.8793 Y26.1993
G01 X5.8098 Y26.2625
G01 X5.7972 Y26.2728
G01 X5.7216 Y26.3287
G01 X5.6411 Y26.3772
G01 X5.6267 Y26.3848
G01 X5.5491 Y26.4215
G01 X5.5341 Y26.4277
G01 X5.4455 Y26.4592
G01 X5.3465 Y26.4840
G01 X5.2455 Y26.4990
G01 X5.1516 Y26.5038
G01 X5.1394 Y26.5040
G01 X5.0415 Y26.4990
G01 X4.9485 Y26.4854
G01 X4.9326 Y26.4823
G01 X4.8493 Y26.4614
G01 X4.8337 Y26.4567
G01 X4.7453 Y26.4248
G01 X4.6603 Y26.3848
G01 X4.6459 Y26.3772
G01 X4.5654 Y26.3287
G01 X4.4834 Y26.2678
G01 X4.4077 Y26.1993
G01 X4.3392 Y26.1236
G01 X4.2783 Y26.0416
G01 X4.2258 Y25.9540
G01 X4.1822 Y25.8617
G01 X4.1478 Y25.7655
G01 X4.1230 Y25.6665
G01 X4.1080 Y25.5655
G01 X4.1030 Y25.4635
G01 X4.1080 Y25.3615
G01 X4.1230 Y25.2605
G01 X4.1478 Y25.1615
G01 X4.1822 Y25.0653
G01 X4.2258 Y24.9730
G01 X4.2783 Y24.8854
G01 X4.3392 Y24.8034
G01 X4.4077 Y24.7277
G01 X4.4834 Y24.6592
G01 X4.5654 Y24.5983
G01 X4.6530 Y24.5458
G01 X4.7453 Y24.5022
G01 X4.8415 Y24.4678
G01 X4.9405 Y24.4430
G01 X5.0415 Y24.4280
G01 X5.1435 Y24.4230
G01 X5.2455 Y24.4280
G01 X5.3465 Y24.4430
G01 X5.4455 Y24.4678
G01 X5.5417 Y24.5022
G01 X5.6340 Y24.5458
G01 X5.7216 Y24.5983
G01 X5.8036 Y24.6592
G01 X5.8793 Y24.7277
G01 X5.9430 Y24.7978
G00 Z2.0000
G00 X6.1752 Y26.7335
G01 F60.00
G01 Z-0.2001
G01 F320.00
G01 X6.1856 Y26.7250
G01 X16.8014 Y26.7250
G01 X16.8118 Y26.7335
G01 X16.8014 Y26.7420
G01 X6.1856 Y26.7420
G01 X6.1752 Y26.7335
G00 Z2.0000
G00 X5.5639 Y26.7335
G01 F60.00
G01 Z-0.2001
G01 F320.00
G01 X5.6345 Y26.7082
G01 X5.6557 Y26.7000
G01 X5.6765 Y26.6908
G01 X5.7541 Y26.6541
G01 X5.7643 Y26.6491
G01 X5.7844 Y26.6384
G01 X5.8679 Y26.5885
G01 X5.8776 Y26.5826
G01 X5.8965 Y26.5699
G01 X5.9837 Y26.5052
G01 X5.9926 Y26.4981
G01 X6.0098 Y26.4833
G01 X6.0717 Y26.4271
G01 X16.9153 Y26.4271
G01 X16.9772 Y26.4833
G01 X16.9944 Y26.4981
G01 X17.0033 Y26.5052
G01 X17.0905 Y26.5699
G01 X17.1094 Y26.5826
G01 X17.1191 Y26.5885
G01 X17.2026 Y26.6384
G01 X17.2126 Y26.6439
G01 X17.2329 Y26.6541
G01 X17.3105 Y26.6908
G01 X17.3313 Y26.7000
G01 X17.3525 Y26.7082
G01 X17.4231 Y26.7335
G01 X17.3525 Y26.7588
G01 X17.3313 Y26.7670
G01 X17.3105 Y26.7762
G01 X17.2329 Y26.8129
G01 X17.2227 Y26.8179
G01 X17.2026 Y26.8286
G01 X17.1191 Y26.8785
G01 X17.0999 Y26.8906
G01 X17.0905 Y26.8971
G01 X17.0033 Y26.9618
G01 X16.9944 Y26.9689
G01 X16.9772 Y26.9837
G01 X16.9153 Y27.0399
G01 X6.0717 Y27.0399
G01 X6.0098 Y26.9837
G01 X6.0013 Y26.9762
G01 X5.9837 Y26.9618
G01 X5.8965 Y26.8971
G01 X5.8871 Y26.8906
G01 X5.8679 Y26.8785
G01 X5.7844 Y26.8286
G01 X5.7643 Y26.8179
G01 X5.7541 Y26.8129
G01 X5.6765 Y26.7762
G01 X5.6557 Y26.7670
G01 X5.6345 Y26.7588
G01 X5.5639 Y26.7335
G00 Z2.0000
G00 X5.9430 Y27.3378
G01 F60.00
G01 Z-0.2001
G01 F320.00
G01 X17.0440 Y27.3378
G01 X17.1021 Y27.2736
G01 X17.1136 Y27.2621
G01 X17.1834 Y27.1992
G01 X17.2588 Y27.1430
G01 X17.2723 Y27.1340
G01 X17.3530 Y27.0858
G01 X17.4453 Y27.0422
G01 X17.5415 Y27.0078
G01 X17.6326 Y26.9847
G01 X17.6485 Y26.9816
G01 X17.7415 Y26.9680
G01 X17.8354 Y26.9632
G01 X17.8516 Y26.9632
G01 X17.9374 Y26.9674
G01 X17.9536 Y26.9690
G01 X18.0465 Y26.9830
G01 X18.1455 Y27.0078
G01 X18.2417 Y27.0422
G01 X18.3340 Y27.0858
G01 X18.4216 Y27.1383
G01 X18.5036 Y27.1992
G01 X18.5793 Y27.2677
G01 X18.6478 Y27.3434
G01 X18.7087 Y27.4254
G01 X18.7612 Y27.5130
G01 X18.8048 Y27.6053
G01 X18.8392 Y27.7015
G01 X18.8640 Y27.8005
G01 X18.8790 Y27.9015
G01 X18.8840 Y28.0035
G01 X18.8796 Y28.0974
G01 X18.8780 Y28.1136
G01 X18.8640 Y28.2065
G01 X18.8392 Y28.3055
G01 X18.8048 Y28.4017
G01 X18.7648 Y28.4867
G01 X18.7572 Y28.5011
G01 X18.7087 Y28.5816
G01 X18.6528 Y28.6572
G01 X18.6425 Y28.6698
G01 X18.5849 Y28.7334
G01 X18.5734 Y28.7449
G01 X18.5036 Y28.8078
G01 X18.4216 Y28.8687
G01 X18.3340 Y28.9212
G01 X18.2417 Y28.9648
G01 X18.1455 Y28.9992
G01 X18.0465 Y29.0240
G01 X17.9455 Y29.0390
G01 X17.8516 Y29.0438
G01 X17.8354 Y29.0438
G01 X17.7415 Y29.0390
G01 X17.6405 Y29.0240
G01 X17.5415 Y28.9992
G01 X17.4529 Y28.9677
G01 X17.4379 Y28.9615
G01 X17.3603 Y28.9248
G01 X17.3459 Y28.9172
G01 X17.2654 Y28.8687
G01 X17.1898 Y28.8128
G01 X17.1772 Y28.8025
G01 X17.1077 Y28.7393
G01 X17.0440 Y28.6692
G01 X5.9430 Y28.6692
G01 X5.8793 Y28.7393
G01 X5.8098 Y28.8025
G01 X5.7972 Y28.8128
G01 X5.7216 Y28.8687
G01 X5.6411 Y28.9172
G01 X5.6267 Y28.9248
G01 X5.5491 Y28.9615
G01 X5.5341 Y28.9677
G01 X5.4455 Y28.9992
G01 X5.3465 Y29.0240
G01 X5.2455 Y29.0390
G01 X5.1516 Y29.0438
G01 X5.1394 Y29.0440
G01 X5.0415 Y29.0390
G01 X4.9485 Y29.0254
G01 X4.9326 Y29.0223
G01 X4.8493 Y29.0014
G01 X4.8337 Y28.9967
G01 X4.7453 Y28.9648
G01 X4.6603 Y28.9248
G01 X4.6459 Y28.9172
G01 X4.5654 Y28.8687
G01 X4.4834 Y28.8078
G01 X4.4077 Y28.7393
G01 X4.3392 Y28.6636
G01 X4.2783 Y28.5816
G01 X4.2258 Y28.4940
G01 X4.1822 Y28.4017
G01 X4.1478 Y28.3055
G01 X4.1230 Y28.2065
G01 X4.1080 Y28.1055
G01 X4.1030 Y28.0035
G01 X4.1080 Y27.9015
G01 X4.1230 Y27.8005
G01 X4.1478 Y27.7015
G01 X4.1822 Y27.6053
G01 X4.2258 Y27.5130
G01 X4.2783 Y27.4254
G01 X4.3392 Y27.3434
G01 X4.4077 Y27.2677
G01 X4.4834 Y27.1992
G01 X4.5654 Y27.1383
G01 X4.6530 Y27.0858
G01 X4.7453 Y27.0422
G01 X4.8415 Y27.0078
G01 X4.9405 Y26.9830
G01 X5.0415 Y26.9680
G01 X5.1435 Y26.9630
G01 X5.2455 Y26.9680
G01 X5.3465 Y26.9830
G01 X5.4455 Y27.0078
G01 X5.5417 Y27.0422
G01 X5.6340 Y27.0858
G01 X5.7216 Y27.1383
G01 X5.8036 Y27.1992
G01 X5.8793 Y27.2677
G01 X5.9430 Y27.3378
G00 Z2.0000
G00 X6.1752 Y29.2735
G01 F60.00
G01 Z-0.2001
G01 F320.00
G01 X6.1856 Y29.2650
G01 X16.8014 Y29.2650
G01 X16.8118 Y29.2735
G01 X16.8014 Y29.2820
G01 X6.1856 Y29.2820
G01 X6.1752 Y29.2735
G00 Z2.0000
G00 X5.5639 Y29.2735
G01 F60.00
G01 Z-0.2001
G01 F320.00
G01 X5.6345 Y29.2482
G01 X5.6557 Y29.2400
G01 X5.6765 Y29.2308
G01 X5.7541 Y29.1941
G01 X5.7643 Y29.1891
G01 X5.7844 Y29.1784
G01 X5.8679 Y29.1285
G01 X5.8776 Y29.1226
G01 X5.8965 Y29.1099
G01 X5.9837 Y29.0452
G01 X5.9926 Y29.0381
G01 X6.0098 Y29.0233
G01 X6.0717 Y28.9671
G01 X16.9153 Y28.9671
G01 X16.9772 Y29.0233
G01 X16.9944 Y29.0381
G01 X17.0033 Y29.0452
G01 X17.0905 Y29.1099
G01 X17.0999 Y29.1164
G01 X17.1191 Y29.1285
G01 X17.2026 Y29.1784
G01 X17.2227 Y29.1891
G01 X17.2329 Y29.1941
G01 X17.3105 Y29.2308
G01 X17.3313 Y29.2400
G01 X17.3525 Y29.2482
G01 X17.4231 Y29.2735
G01 X17.3525 Y29.2988
G01 X17.3313 Y29.3070
G01 X17.3105 Y29.3162
G01 X17.2329 Y29.3529
G01 X17.2227 Y29.3579
G01 X17.2026 Y29.3686
G01 X17.1191 Y29.4185
G01 X17.0999 Y29.4306
G01 X17.0905 Y29.4371
G01 X17.0033 Y29.5018
G01 X16.9944 Y29.5089
G01 X16.9772 Y29.5237
G01 X16.9153 Y29.5799
G01 X6.0717 Y29.5799
G01 X6.0098 Y29.5237
G01 X5.9926 Y29.5089
G01 X5.9837 Y29.5018
G01 X5.8965 Y29.4371
G01 X5.8871 Y29.4306
G01 X5.8679 Y29.4185
G01 X5.7844 Y29.3686
G01 X5.7643 Y29.3579
G01 X5.7541 Y29.3529
G01 X5.6765 Y29.3162
G01 X5.6557 Y29.3070
G01 X5.6345 Y29.2988
G01 X5.5639 Y29.2735
G00 Z2.0000
G00 X5.9430 Y29.8778
G01 F60.00
G01 Z-0.2001
G01 F320.00
G01 X17.0440 Y29.8778
G01 X17.1021 Y29.8136
G01 X17.1136 Y29.8021
G01 X17.1834 Y29.7392
G01 X17.2588 Y29.6830
G01 X17.2723 Y29.6740
G01 X17.3530 Y29.6258
G01 X17.4453 Y29.5822
G01 X17.5415 Y29.5478
G01 X17.6326 Y29.5247
G01 X17.6485 Y29.5216
G01 X17.7415 Y29.5080
G01 X17.8354 Y29.5032
G01 X17.8516 Y29.5032
G01 X17.9374 Y29.5074
G01 X17.9536 Y29.5090
G01 X18.0465 Y29.5230
G01 X18.1455 Y29.5478
G01 X18.2417 Y29.5822
G01 X18.3340 Y29.6258
G01 X18.4216 Y29.6783
G01 X18.5036 Y29.7392
G01 X18.5793 Y29.8077
G01 X18.6478 Y29.8834
G01 X18.7087 Y29.9654
G01 X18.7612 Y30.0530
G01 X18.8048 Y30.1453
G01 X18.8392 Y30.2415
G01 X18.8640 Y30.3405
G01 X18.8790 Y30.4415
G01 X18.8840 Y30.5435
G01 X18.8796 Y30.6374
G01 X18.8780 Y30.6536
G01 X18.8640 Y30.7465
G01 X18.8392 Y30.8455
G01 X18.8048 Y30.9417
G01 X18.7648 Y31.0267
G01 X18.7572 Y31.0411
G01 X18.7087 Y31.1216
G01 X18.6528 Y31.1972
G01 X18.6425 Y31.2098
G01 X18.5849 Y31.2734
G01 X18.5734 Y31.2849
G01 X18.5036 Y31.3478
G01 X18.4216 Y31.4087
G01 X18.3340 Y31.4612
G01 X18.2417 Y31.5048
G01 X18.1455 Y31.5392
G01 X18.0465 Y31.5640
G01 X17.9455 Y31.5790
G01 X17.8516 Y31.5838
G01 X17.8354 Y31.5838
G01 X17.7415 Y31.5790
G01 X17.6405 Y31.5640
G01 X17.5415 Y31.5392
G01 X17.4529 Y31.5077
G01 X17.4379 Y31.5015
G01 X17.3603 Y31.4648
G01 X17.3459 Y31.4572
G01 X17.2654 Y31.4087
G01 X17.1898 Y31.3528
G01 X17.1772 Y31.3425
G01 X17.1077 Y31.2793
G01 X17.0440 Y31.2092
G01 X5.9430 Y31.2092
G01 X5.8793 Y31.2793
G01 X5.8098 Y31.3425
G01 X5.7972 Y31.3528
G01 X5.7216 Y31.4087
G01 X5.6411 Y31.4572
G01 X5.6267 Y31.4648
G01 X5.5491 Y31.5015
G01 X5.5341 Y31.5077
G01 X5.4455 Y31.5392
G01 X5.3465 Y31.5640
G01 X5.2455 Y31.5790
G01 X5.1516 Y31.5838
G01 X5.1394 Y31.5840
G01 X5.0415 Y31.5790
G01 X4.9485 Y31.5654
G01 X4.9326 Y31.5623
G01 X4.8493 Y31.5414
G01 X4.8337 Y31.5367
G01 X4.7453 Y31.5048
G01 X4.6603 Y31.4648
G01 X4.6459 Y31.4572
G01 X4.5654 Y31.4087
G01 X4.4834 Y31.3478
G01 X4.4077 Y31.2793
G01 X4.3392 Y31.2036
G01 X4.2783 Y31.1216
G01 X4.2258 Y31.0340
G01 X4.1822 Y30.9417
G01 X4.1478 Y30.8455
G01 X4.1230 Y30.7465
G01 X4.1080 Y30.6455
G01 X4.1030 Y30.5435
G01 X4.1080 Y30.4415
G01 X4.1230 Y30.3405
G01 X4.1478 Y30.2415
G01 X4.1822 Y30.1453
G01 X4.2258 Y30.0530
G01 X4.2783 Y29.9654
G01 X4.3392 Y29.8834
G01 X4.4077 Y29.8077
G01 X4.4834 Y29.7392
G01 X4.5654 Y29.6783
G01 X4.6530 Y29.6258
G01 X4.7453 Y29.5822
G01 X4.8415 Y29.5478
G01 X4.9405 Y29.5230
G01 X5.0415 Y29.5080
G01 X5.1435 Y29.5030
G01 X5.2455 Y29.5080
G01 X5.3465 Y29.5230
G01 X5.4455 Y29.5478
G01 X5.5417 Y29.5822
G01 X5.6340 Y29.6258
G01 X5.7216 Y29.6783
G01 X5.8036 Y29.7392
G01 X5.8793 Y29.8077
G01 X5.9430 Y29.8778
G00 Z2.0000
G00 X30.9639 Y29.2735
G01 F60.00
G01 Z-0.2001
G01 F320.00
G01 X31.0345 Y29.2482
G01 X31.0557 Y29.2400
G01 X31.0765 Y29.2308
G01 X31.1541 Y29.1941
G01 X31.1744 Y29.1839
G01 X31.1844 Y29.1784
G01 X31.2679 Y29.1285
G01 X31.2871 Y29.1164
G01 X31.2965 Y29.1099
G01 X31.3837 Y29.0452
G01 X31.4013 Y29.0308
G01 X31.4098 Y29.0233
G01 X31.4717 Y28.9671
G01 X42.3153 Y28.9671
G01 X42.3772 Y29.0233
G01 X42.3944 Y29.0381
G01 X42.4033 Y29.0452
G01 X42.4905 Y29.1099
G01 X42.5094 Y29.1226
G01 X42.5191 Y29.1285
G01 X42.6026 Y29.1784
G01 X42.6227 Y29.1891
G01 X42.6329 Y29.1941
G01 X42.7105 Y29.2308
G01 X42.7313 Y29.2400
G01 X42.7525 Y29.2482
G01 X42.8231 Y29.2735
G01 X42.7525 Y29.2988
G01 X42.7313 Y29.3070
G01 X42.7105 Y29.3162
G01 X42.6329 Y29.3529
G01 X42.6227 Y29.3579
G01 X42.6026 Y29.3686
G01 X42.5191 Y29.4185
G01 X42.5094 Y29.4244
G01 X42.4905 Y29.4371
G01 X42.4033 Y29.5018
G01 X42.3857 Y29.5162
G01 X42.3772 Y29.5237
G01 X42.3153 Y29.5799
G01 X31.4717 Y29.5799
G01 X31.4098 Y29.5237
G01 X31.3926 Y29.5089
G01 X31.3837 Y29.5018
G01 X31.2965 Y29.4371
G01 X31.2871 Y29.4306
G01 X31.2679 Y29.4185
G01 X31.1844 Y29.3686
G01 X31.1643 Y29.3579
G01 X31.1541 Y29.3529
G01 X31.0765 Y29.3162
G01 X31.0557 Y29.3070
G01 X31.0345 Y29.2988
G01 X30.9639 Y29.2735
G00 Z2.0000
G00 X31.5752 Y29.2735
G01 F60.00
G01 Z-0.2001
G01 F320.00
G01 X31.5856 Y29.2650
G01 X42.2014 Y29.2650
G01 X42.2118 Y29.2735
G01 X42.2014 Y29.2820
G01 X31.5856 Y29.2820
G01 X31.5752 Y29.2735
G00 Z2.0000
G00 X31.3430 Y29.8778
G01 F60.00
G01 Z-0.2001
G01 F320.00
G01 X42.4440 Y29.8778
G01 X42.5021 Y29.8136
G01 X42.5136 Y29.8021
G01 X42.5834 Y29.7392
G01 X42.6588 Y29.6830
G01 X42.6723 Y29.6740
G01 X42.7530 Y29.6258
G01 X42.8453 Y29.5822
G01 X42.9415 Y29.5478
G01 X43.0326 Y29.5247
G01 X43.0485 Y29.5216
G01 X43.1334 Y29.5090
G01 X43.1496 Y29.5074
G01 X43.2435 Y29.5030
G01 X43.3374 Y29.5074
G01 X43.3536 Y29.5090
G01 X43.4465 Y29.5230
G01 X43.5455 Y29.5478
G01 X43.6417 Y29.5822
G01 X43.7340 Y29.6258
G01 X43.8216 Y29.6783
G01 X43.9036 Y29.7392
G01 X43.9793 Y29.8077
G01 X44.0478 Y29.8834
G01 X44.1087 Y29.9654
G01 X44.1612 Y30.0530
G01 X44.2048 Y30.1453
G01 X44.2392 Y30.2415
G01 X44.2640 Y30.3405
G01 X44.2790 Y30.4415
G01 X44.2840 Y30.5435
G01 X44.2796 Y30.6374
G01 X44.2780 Y30.6536
G01 X44.2640 Y30.7465
G01 X44.2414 Y30.8377
G01 X44.2367 Y30.8533
G01 X44.2077 Y30.9341
G01 X44.2015 Y30.9491
G01 X44.1612 Y31.0340
G01 X44.1087 Y31.1216
G01 X44.0478 Y31.2036
G01 X43.9849 Y31.2734
G01 X43.9734 Y31.2849
G01 X43.9036 Y31.3478
G01 X43.8216 Y31.4087
G01 X43.7340 Y31.4612
G01 X43.6417 Y31.5048
G01 X43.5455 Y31.5392
G01 X43.4465 Y31.5640
G01 X43.3455 Y31.5790
G01 X43.2516 Y31.5838
G01 X43.2354 Y31.5838
G01 X43.1415 Y31.5790
G01 X43.0405 Y31.5640
G01 X42.9415 Y31.5392
G01 X42.8529 Y31.5077
G01 X42.8379 Y31.5015
G01 X42.7603 Y31.4648
G01 X42.7459 Y31.4572
G01 X42.6654 Y31.4087
G01 X42.5898 Y31.3528
G01 X42.5772 Y31.3425
G01 X42.5077 Y31.2793
G01 X42.4440 Y31.2092
G01 X31.3430 Y31.2092
G01 X31.2793 Y31.2793
G01 X31.2098 Y31.3425
G01 X31.1972 Y31.3528
G01 X31.1216 Y31.4087
G01 X31.0411 Y31.4572
G01 X31.0267 Y31.4648
G01 X30.9491 Y31.5015
G01 X30.9341 Y31.5077
G01 X30.8455 Y31.5392
G01 X30.7465 Y31.5640
G01 X30.6455 Y31.5790
G01 X30.5516 Y31.5838
G01 X30.5394 Y31.5840
G01 X30.4415 Y31.5790
G01 X30.3485 Y31.5654
G01 X30.3326 Y31.5623
G01 X30.2493 Y31.5414
G01 X30.2337 Y31.5367
G01 X30.1453 Y31.5048
G01 X30.0603 Y31.4648
G01 X30.0459 Y31.4572
G01 X29.9654 Y31.4087
G01 X29.8834 Y31.3478
G01 X29.8077 Y31.2793
G01 X29.7392 Y31.2036
G01 X29.6783 Y31.1216
G01 X29.6258 Y31.0340
G01 X29.5822 Y30.9417
G01 X29.5478 Y30.8455
G01 X29.5230 Y30.7465
G01 X29.5080 Y30.6455
G01 X29.5030 Y30.5435
G01 X29.5080 Y30.4415
G01 X29.5230 Y30.3405
G01 X29.5478 Y30.2415
G01 X29.5822 Y30.1453
G01 X29.6258 Y30.0530
G01 X29.6783 Y29.9654
G01 X29.7392 Y29.8834
G01 X29.8077 Y29.8077
G01 X29.8834 Y29.7392
G01 X29.9654 Y29.6783
G01 X30.0530 Y29.6258
G01 X30.1453 Y29.5822
G01 X30.2415 Y29.5478
G01 X30.3405 Y29.5230
G01 X30.4415 Y29.5080
G01 X30.5435 Y29.5030
G01 X30.6455 Y29.5080
G01 X30.7465 Y29.5230
G01 X30.8455 Y29.5478
G01 X30.9417 Y29.5822
G01 X31.0340 Y29.6258
G01 X31.1216 Y29.6783
G01 X31.2036 Y29.7392
G01 X31.2793 Y29.8077
G01 X31.3430 Y29.8778
G00 Z2.0000
G00 X31.5752 Y31.8135
G01 F60.00
G01 Z-0.2001
G01 F320.00
G01 X31.5856 Y31.8050
G01 X42.2014 Y31.8050
G01 X42.2118 Y31.8135
G01 X42.2014 Y31.8220
G01 X31.5856 Y31.8220
G01 X31.5752 Y31.8135
G00 Z2.0000
G00 X30.9639 Y31.8135
G01 F60.00
G01 Z-0.2001
G01 F320.00
G01 X31.0345 Y31.7882
G01 X31.0557 Y31.7800
G01 X31.0765 Y31.7708
G01 X31.1541 Y31.7341
G01 X31.1744 Y31.7239
G01 X31.1844 Y31.7184
G01 X31.2679 Y31.6685
G01 X31.2871 Y31.6564
G01 X31.2965 Y31.6499
G01 X31.3837 Y31.5852
G01 X31.3926 Y31.5781
G01 X31.4098 Y31.5633
G01 X31.4717 Y31.5071
G01 X42.3153 Y31.5071
G01 X42.3772 Y31.5633
G01 X42.3944 Y31.5781
G01 X42.4033 Y31.5852
G01 X42.4905 Y31.6499
G01 X42.5094 Y31.6626
G01 X42.5191 Y31.6685
G01 X42.6026 Y31.7184
G01 X42.6126 Y31.7239
G01 X42.6329 Y31.7341
G01 X42.7105 Y31.7708
G01 X42.7313 Y31.7800
G01 X42.7525 Y31.7882
G01 X42.8231 Y31.8135
G01 X42.7525 Y31.8388
G01 X42.7313 Y31.8470
G01 X42.7105 Y31.8562
G01 X42.6329 Y31.8929
G01 X42.6227 Y31.8979
G01 X42.6026 Y31.9086
G01 X42.5191 Y31.9585
G01 X42.5094 Y31.9644
G01 X42.4905 Y31.9771
G01 X42.4033 Y32.0418
G01 X42.3857 Y32.0562
G01 X42.3772 Y32.0637
G01 X42.3153 Y32.1199
G01 X31.4717 Y32.1199
G01 X31.4098 Y32.0637
G01 X31.3926 Y32.0489
G01 X31.3837 Y32.0418
G01 X31.2965 Y31.9771
G01 X31.2871 Y31.9706
G01 X31.2679 Y31.9585
G01 X31.1844 Y31.9086
G01 X31.1643 Y31.8979
G01 X31.1541 Y31.8929
G01 X31.0765 Y31.8562
G01 X31.0557 Y31.8470
G01 X31.0345 Y31.8388
G01 X30.9639 Y31.8135
G00 Z2.0000
G00 X31.3430 Y32.4178
G01 F60.00
G01 Z-0.2001
G01 F320.00
G01 X42.4440 Y32.4178
G01 X42.5021 Y32.3536
G01 X42.5136 Y32.3421
G01 X42.5834 Y32.2792
G01 X42.6588 Y32.2230
G01 X42.6723 Y32.2140
G01 X42.7530 Y32.1658
G01 X42.8453 Y32.1222
G01 X42.9415 Y32.0878
G01 X43.0326 Y32.0647
G01 X43.0485 Y32.0616
G01 X43.1415 Y32.0480
G01 X43.2354 Y32.0432
G01 X43.2516 Y32.0432
G01 X43.3374 Y32.0474
G01 X43.3536 Y32.0490
G01 X43.4465 Y32.0630
G01 X43.5455 Y32.0878
G01 X43.6417 Y32.1222
G01 X43.7340 Y32.1658
G01 X43.8216 Y32.2183
G01 X43.9036 Y32.2792
G01 X43.9793 Y32.3477
G01 X44.0478 Y32.4234
G01 X44.1087 Y32.5054
G01 X44.1612 Y32.5930
G01 X44.2048 Y32.6853
G01 X44.2392 Y32.7815
G01 X44.2640 Y32.8805
G01 X44.2790 Y32.9815
G01 X44.2840 Y33.0835
G01 X44.2796 Y33.1774
G01 X44.2780 Y33.1936
G01 X44.2640 Y33.2865
G01 X44.2414 Y33.3777
G01 X44.2367 Y33.3933
G01 X44.2077 Y33.4741
G01 X44.2015 Y33.4891
G01 X44.1612 Y33.5740
G01 X44.1087 Y33.6616
G01 X44.0478 Y33.7436
G01 X43.9849 Y33.8134
G01 X43.9734 Y33.8249
G01 X43.9036 Y33.8878
G01 X43.8216 Y33.9487
G01 X43.7340 Y34.0012
G01 X43.6417 Y34.0448
G01 X43.5455 Y34.0792
G01 X43.4465 Y34.1040
G01 X43.3455 Y34.1190
G01 X43.2516 Y34.1238
G01 X43.2354 Y34.1238
G01 X43.1415 Y34.1190
G01 X43.0405 Y34.1040
G01 X42.9415 Y34.0792
G01 X42.8529 Y34.0477
G01 X42.8379 Y34.0415
G01 X42.7530 Y34.0012
G01 X42.6723 Y33.9530
G01 X42.6588 Y33.9440
G01 X42.5898 Y33.8928
G01 X42.5772 Y33.8825
G01 X42.5077 Y33.8193
G01 X42.4440 Y33.7492
G01 X31.3430 Y33.7492
G01 X31.2793 Y33.8193
G01 X31.2098 Y33.8825
G01 X31.1972 Y33.8928
G01 X31.1216 Y33.9487
G01 X31.0411 Y33.9972
G01 X31.0267 Y34.0048
G01 X30.9491 Y34.0415
G01 X30.9341 Y34.0477
G01 X30.8455 Y34.0792
G01 X30.7465 Y34.1040
G01 X30.6455 Y34.1190
G01 X30.5516 Y34.1238
G01 X30.5394 Y34.1240
G01 X30.4415 Y34.1190
G01 X30.3485 Y34.1054
G01 X30.3326 Y34.1023
G01 X30.2415 Y34.0792
G01 X30.1529 Y34.0477
G01 X30.1379 Y34.0415
G01 X30.0603 Y34.0048
G01 X30.0459 Y33.9972
G01 X29.9654 Y33.9487
G01 X29.8834 Y33.8878
G01 X29.8077 Y33.8193
G01 X29.7392 Y33.7436
G01 X29.6783 Y33.6616
G01 X29.6258 Y33.5740
G01 X29.5822 Y33.4817
G01 X29.5478 Y33.3855
G01 X29.5230 Y33.2865
G01 X29.5080 Y33.1855
G01 X29.5030 Y33.0835
G01 X29.5080 Y32.9815
G01 X29.5230 Y32.8805
G01 X29.5478 Y32.7815
G01 X29.5822 Y32.6853
G01 X29.6258 Y32.5930
G01 X29.6783 Y32.5054
G01 X29.7392 Y32.4234
G01 X29.8077 Y32.3477
G01 X29.8834 Y32.2792
G01 X29.9654 Y32.2183
G01 X30.0530 Y32.1658
G01 X30.1453 Y32.1222
G01 X30.2415 Y32.0878
G01 X30.3405 Y32.0630
G01 X30.4415 Y32.0480
G01 X30.5435 Y32.0430
G01 X30.6455 Y32.0480
G01 X30.7465 Y32.0630
G01 X30.8455 Y32.0878
G01 X30.9417 Y32.1222
G01 X31.0340 Y32.1658
G01 X31.1216 Y32.2183
G01 X31.2036 Y32.2792
G01 X31.2793 Y32.3477
G01 X31.3430 Y32.4178
G00 Z2.0000
G00 X31.5752 Y34.3535
G01 F60.00
G01 Z-0.2001
G01 F320.00
G01 X31.5856 Y34.3450
G01 X42.2014 Y34.3450
G01 X42.2118 Y34.3535
G01 X42.2014 Y34.3620
G01 X31.5856 Y34.3620
G01 X31.5752 Y34.3535
G00 Z2.0000
G00 X30.9639 Y34.3535
G01 F60.00
G01 Z-0.2001
G01 F320.00
G01 X31.0345 Y34.3282
G01 X31.0557 Y34.3200
G01 X31.0765 Y34.3108
G01 X31.1541 Y34.2741
G01 X31.1744 Y34.2639
G01 X31.1844 Y34.2584
G01 X31.2679 Y34.2085
G01 X31.2871 Y34.1964
G01 X31.2965 Y34.1899
G01 X31.3837 Y34.1252
G01 X31.3926 Y34.1181
G01 X31.4098 Y34.1033
G01 X31.4717 Y34.0471
G01 X42.3153 Y34.0471
G01 X42.3772 Y34.1033
G01 X42.3857 Y34.1108
G01 X42.4033 Y34.1252
G01 X42.4905 Y34.1899
G01 X42.5094 Y34.2026
G01 X42.5191 Y34.2085
G01 X42.6026 Y34.2584
G01 X42.6227 Y34.2691
G01 X42.6329 Y34.2741
G01 X42.7105 Y34.3108
G01 X42.7313 Y34.3200
G01 X42.7525 Y34.3282
G01 X42.8231 Y34.3535
G01 X42.7525 Y34.3788
G01 X42.7313 Y34.3870
G01 X42.7105 Y34.3962
G01 X42.6329 Y34.4329
G01 X42.6227 Y34.4379
G01 X42.6026 Y34.4486
G01 X42.5191 Y34.4985
G01 X42.4999 Y34.5106
G01 X42.4905 Y34.5171
G01 X42.4033 Y34.5818
G01 X42.3857 Y34.5962
G01 X42.3772 Y34.6037
G01 X42.3153 Y34.6599
G01 X31.4717 Y34.6599
G01 X31.4098 Y34.6037
G01 X31.4013 Y34.5962
G01 X31.3837 Y34.5818
G01 X31.2965 Y34.5171
G01 X31.2776 Y34.5044
G01 X31.2679 Y34.4985
G01 X31.1844 Y34.4486
G01 X31.1643 Y34.4379
G01 X31.1541 Y34.4329
G01 X31.0765 Y34.3962
G01 X31.0557 Y34.3870
G01 X31.0345 Y34.3788
G01 X30.9639 Y34.3535
G00 Z2.0000
G00 X31.3430 Y34.9578
G01 F60.00
G01 Z-0.2001
G01 F320.00
G01 X42.4440 Y34.9578
G01 X42.5021 Y34.8936
G01 X42.5136 Y34.8821
G01 X42.5834 Y34.8192
G01 X42.6588 Y34.7630
G01 X42.6723 Y34.7540
G01 X42.7530 Y34.7058
G01 X42.8453 Y34.6622
G01 X42.9415 Y34.6278
G01 X43.0326 Y34.6047
G01 X43.0485 Y34.6016
G01 X43.1415 Y34.5880
G01 X43.2354 Y34.5832
G01 X43.2516 Y34.5832
G01 X43.3374 Y34.5874
G01 X43.3536 Y34.5890
G01 X43.4465 Y34.6030
G01 X43.5455 Y34.6278
G01 X43.6417 Y34.6622
G01 X43.7340 Y34.7058
G01 X43.8216 Y34.7583
G01 X43.9036 Y34.8192
G01 X43.9793 Y34.8877
G01 X44.0478 Y34.9634
G01 X44.1087 Y35.0454
G01 X44.1612 Y35.1330
G01 X44.2048 Y35.2253
G01 X44.2392 Y35.3215
G01 X44.2640 Y35.4205
G01 X44.2790 Y35.5215
G01 X44.2840 Y35.6235
G01 X44.2796 Y35.7174
G01 X44.2780 Y35.7336
G01 X44.2640 Y35.8265
G01 X44.2414 Y35.9177
G01 X44.2367 Y35.9333
G01 X44.2077 Y36.0141
G01 X44.2015 Y36.0291
G01 X44.1612 Y36.1140
G01 X44.1087 Y36.2016
G01 X44.0478 Y36.2836
G01 X43.9849 Y36.3534
G01 X43.9734 Y36.3649
G01 X43.9036 Y36.4278
G01 X43.8216 Y36.4887
G01 X43.7340 Y36.5412
G01 X43.6417 Y36.5848
G01 X43.5455 Y36.6192
G01 X43.4465 Y36.6440
G01 X43.3455 Y36.6590
G01 X43.2516 Y36.6638
G01 X43.2354 Y36.6638
G01 X43.1415 Y36.6590
G01 X43.0405 Y36.6440
G01 X42.9415 Y36.6192
G01 X42.8529 Y36.5877
G01 X42.8379 Y36.5815
G01 X42.7530 Y36.5412
G01 X42.6723 Y36.4930
G01 X42.6588 Y36.4840
G01 X42.5898 Y36.4328
G01 X42.5772 Y36.4225
G01 X42.5077 Y36.3593
G01 X42.4440 Y36.2892
G01 X31.3430 Y36.2892
G01 X31.2793 Y36.3593
G01 X31.2098 Y36.4225
G01 X31.1972 Y36.4328
G01 X31.1216 Y36.4887
G01 X31.0411 Y36.5372
G01 X31.0267 Y36.5448
G01 X30.9491 Y36.5815
G01 X30.9341 Y36.5877
G01 X30.8455 Y36.6192
G01 X30.7465 Y36.6440
G01 X30.6455 Y36.6590
G01 X30.5516 Y36.6638
G01 X30.5394 Y36.6640
G01 X30.4415 Y36.6590
G01 X30.3485 Y36.6454
G01 X30.3326 Y36.6423
G01 X30.2493 Y36.6214
G01 X30.2337 Y36.6167
G01 X30.1453 Y36.5848
G01 X30.0603 Y36.5448
G01 X30.0459 Y36.5372
G01 X29.9654 Y36.4887
G01 X29.8834 Y36.4278
G01 X29.8077 Y36.3593
G01 X29.7392 Y36.2836
G01 X29.6783 Y36.2016
G01 X29.6258 Y36.1140
G01 X29.5822 Y36.0217
G01 X29.5478 Y35.9255
G01 X29.5230 Y35.8265
G01 X29.5080 Y35.7255
G01 X29.5030 Y35.6235
G01 X29.5080 Y35.5215
G01 X29.5230 Y35.4205
G01 X29.5478 Y35.3215
G01 X29.5822 Y35.2253
G01 X29.6258 Y35.1330
G01 X29.6783 Y35.0454
G01 X29.7392 Y34.9634
G01 X29.8077 Y34.8877
G01 X29.8834 Y34.8192
G01 X29.9654 Y34.7583
G01 X30.0530 Y34.7058
G01 X30.1453 Y34.6622
G01 X30.2415 Y34.6278
G01 X30.3405 Y34.6030
G01 X30.4415 Y34.5880
G01 X30.5435 Y34.5830
G01 X30.6455 Y34.5880
G01 X30.7465 Y34.6030
G01 X30.8455 Y34.6278
G01 X30.9417 Y34.6622
G01 X31.0340 Y34.7058
G01 X31.1216 Y34.7583
G01 X31.2036 Y34.8192
G01 X31.2793 Y34.8877
G01 X31.3430 Y34.9578
G00 Z2.0000
G00 X31.3430 Y27.3378
G01 F60.00
G01 Z-0.2001
G01 F320.00
G01 X42.4440 Y27.3378
G01 X42.5021 Y27.2736
G01 X42.5136 Y27.2621
G01 X42.5834 Y27.1992
G01 X42.6588 Y27.1430
G01 X42.6723 Y27.1340
G01 X42.7530 Y27.0858
G01 X42.8453 Y27.0422
G01 X42.9415 Y27.0078
G01 X43.0326 Y26.9847
G01 X43.0485 Y26.9816
G01 X43.1415 Y26.9680
G01 X43.2354 Y26.9632
G01 X43.2516 Y26.9632
G01 X43.3374 Y26.9674
G01 X43.3536 Y26.9690
G01 X43.4465 Y26.9830
G01 X43.5455 Y27.0078
G01 X43.6417 Y27.0422
G01 X43.7340 Y27.0858
G01 X43.8216 Y27.1383
G01 X43.9036 Y27.1992
G01 X43.9793 Y27.2677
G01 X44.0478 Y27.3434
G01 X44.1087 Y27.4254
G01 X44.1612 Y27.5130
G01 X44.2048 Y27.6053
G01 X44.2392 Y27.7015
G01 X44.2640 Y27.8005
G01 X44.2790 Y27.9015
G01 X44.2840 Y28.0035
G01 X44.2796 Y28.0974
G01 X44.2780 Y28.1136
G01 X44.2640 Y28.2065
G01 X44.2414 Y28.2977
G01 X44.2367 Y28.3133
G01 X44.2077 Y28.3941
G01 X44.2015 Y28.4091
G01 X44.1612 Y28.4940
G01 X44.1087 Y28.5816
G01 X44.0478 Y28.6636
G01 X43.9849 Y28.7334
G01 X43.9734 Y28.7449
G01 X43.9036 Y28.8078
G01 X43.8216 Y28.8687
G01 X43.7340 Y28.9212
G01 X43.6417 Y28.9648
G01 X43.5455 Y28.9992
G01 X43.4465 Y29.0240
G01 X43.3455 Y29.0390
G01 X43.2516 Y29.0438
G01 X43.2354 Y29.0438
G01 X43.1415 Y29.0390
G01 X43.0405 Y29.0240
G01 X42.9415 Y28.9992
G01 X42.8529 Y28.9677
G01 X42.8379 Y28.9615
G01 X42.7603 Y28.9248
G01 X42.7459 Y28.9172
G01 X42.6654 Y28.8687
G01 X42.5898 Y28.8128
G01 X42.5772 Y28.8025
G01 X42.5077 Y28.7393
G01 X42.4440 Y28.6692
G01 X31.3430 Y28.6692
G01 X31.2793 Y28.7393
G01 X31.2098 Y28.8025
G01 X31.1972 Y28.8128
G01 X31.1216 Y28.8687
G01 X31.0411 Y28.9172
G01 X31.0267 Y28.9248
G01 X30.9491 Y28.9615
G01 X30.9341 Y28.9677
G01 X30.8455 Y28.9992
G01 X30.7465 Y29.0240
G01 X30.6455 Y29.0390
G01 X30.5516 Y29.0438
G01 X30.5394 Y29.0440
G01 X30.4415 Y29.0390
G01 X30.3485 Y29.0254
G01 X30.3326 Y29.0223
G01 X30.2493 Y29.0014
G01 X30.2337 Y28.9967
G01 X30.1453 Y28.9648
G01 X30.0603 Y28.9248
G01 X30.0459 Y28.9172
G01 X29.9654 Y28.8687
G01 X29.8834 Y28.8078
G01 X29.8077 Y28.7393
G01 X29.7392 Y28.6636
G01 X29.6783 Y28.5816
G01 X29.6258 Y28.4940
G01 X29.5822 Y28.4017
G01 X29.5478 Y28.3055
G01 X29.5230 Y28.2065
G01 X29.5080 Y28.1055
G01 X29.5030 Y28.0035
G01 X29.5080 Y27.9015
G01 X29.5230 Y27.8005
G01 X29.5478 Y27.7015
G01 X29.5822 Y27.6053
G01 X29.6258 Y27.5130
G01 X29.6783 Y27.4254
G01 X29.7392 Y27.3434
G01 X29.8077 Y27.2677
G01 X29.8834 Y27.1992
G01 X29.9654 Y27.1383
G01 X30.0530 Y27.0858
G01 X30.1453 Y27.0422
G01 X30.2415 Y27.0078
G01 X30.3405 Y26.9830
G01 X30.4415 Y26.9680
G01 X30.5435 Y26.9630
G01 X30.6455 Y26.9680
G01 X30.7465 Y26.9830
G01 X30.8455 Y27.0078
G01 X30.9417 Y27.0422
G01 X31.0340 Y27.0858
G01 X31.1216 Y27.1383
G01 X31.2036 Y27.1992
G01 X31.2793 Y27.2677
G01 X31.3430 Y27.3378
G00 Z2.0000
G00 X31.5752 Y26.7335
G01 F60.00
G01 Z-0.2001
G01 F320.00
G01 X31.5856 Y26.7250
G01 X42.2014 Y26.7250
G01 X42.2118 Y26.7335
G01 X42.2014 Y26.7420
G01 X31.5856 Y26.7420
G01 X31.5752 Y26.7335
G00 Z2.0000
G00 X30.9639 Y26.7335
G01 F60.00
G01 Z-0.2001
G01 F320.00
G01 X31.0345 Y26.7082
G01 X31.0557 Y26.7000
G01 X31.0765 Y26.6908
G01 X31.1541 Y26.6541
G01 X31.1744 Y26.6439
G01 X31.1844 Y26.6384
G01 X31.2679 Y26.5885
G01 X31.2871 Y26.5764
G01 X31.2965 Y26.5699
G01 X31.3837 Y26.5052
G01 X31.3926 Y26.4981
G01 X31.4098 Y26.4833
G01 X31.4717 Y26.4271
G01 X42.3153 Y26.4271
G01 X42.3772 Y26.4833
G01 X42.3857 Y26.4908
G01 X42.4033 Y26.5052
G01 X42.4905 Y26.5699
G01 X42.5094 Y26.5826
G01 X42.5191 Y26.5885
G01 X42.6026 Y26.6384
G01 X42.6126 Y26.6439
G01 X42.6329 Y26.6541
G01 X42.7105 Y26.6908
G01 X42.7313 Y26.7000
G01 X42.7525 Y26.7082
G01 X42.8231 Y26.7335
G01 X42.7525 Y26.7588
G01 X42.7313 Y26.7670
G01 X42.7105 Y26.7762
G01 X42.6329 Y26.8129
G01 X42.6227 Y26.8179
G01 X42.6026 Y26.8286
G01 X42.5191 Y26.8785
G01 X42.5094 Y26.8844
G01 X42.4905 Y26.8971
G01 X42.4033 Y26.9618
G01 X42.3857 Y26.9762
G01 X42.3772 Y26.9837
G01 X42.3153 Y27.0399
G01 X31.4717 Y27.0399
G01 X31.4098 Y26.9837
G01 X31.3926 Y26.9689
G01 X31.3837 Y26.9618
G01 X31.2965 Y26.8971
G01 X31.2776 Y26.8844
G01 X31.2679 Y26.8785
G01 X31.1844 Y26.8286
G01 X31.1744 Y26.8231
G01 X31.1541 Y26.8129
G01 X31.0765 Y26.7762
G01 X31.0557 Y26.7670
G01 X31.0345 Y26.7588
G01 X30.9639 Y26.7335
G00 Z2.0000
G00 X31.3430 Y24.7978
G01 F60.00
G01 Z-0.2001
G01 F320.00
G01 X42.4440 Y24.7978
G01 X42.5021 Y24.7336
G01 X42.5136 Y24.7221
G01 X42.5834 Y24.6592
G01 X42.6588 Y24.6030
G01 X42.6723 Y24.5940
G01 X42.7530 Y24.5458
G01 X42.8453 Y24.5022
G01 X42.9415 Y24.4678
G01 X43.0326 Y24.4447
G01 X43.0485 Y24.4416
G01 X43.1415 Y24.4280
G01 X43.2354 Y24.4232
G01 X43.2516 Y24.4232
G01 X43.3374 Y24.4274
G01 X43.3536 Y24.4290
G01 X43.4465 Y24.4430
G01 X43.5455 Y24.4678
G01 X43.6417 Y24.5022
G01 X43.7340 Y24.5458
G01 X43.8216 Y24.5983
G01 X43.9036 Y24.6592
G01 X43.9793 Y24.7277
G01 X44.0478 Y24.8034
G01 X44.1087 Y24.8854
G01 X44.1612 Y24.9730
G01 X44.2048 Y25.0653
G01 X44.2392 Y25.1615
G01 X44.2640 Y25.2605
G01 X44.2790 Y25.3615
G01 X44.2840 Y25.4635
G01 X44.2796 Y25.5574
G01 X44.2780 Y25.5736
G01 X44.2640 Y25.6665
G01 X44.2414 Y25.7577
G01 X44.2367 Y25.7733
G01 X44.2077 Y25.8541
G01 X44.2015 Y25.8691
G01 X44.1612 Y25.9540
G01 X44.1087 Y26.0416
G01 X44.0478 Y26.1236
G01 X43.9849 Y26.1934
G01 X43.9734 Y26.2049
G01 X43.9036 Y26.2678
G01 X43.8216 Y26.3287
G01 X43.7340 Y26.3812
G01 X43.6417 Y26.4248
G01 X43.5455 Y26.4592
G01 X43.4465 Y26.4840
G01 X43.3455 Y26.4990
G01 X43.2516 Y26.5038
G01 X43.2354 Y26.5038
G01 X43.1415 Y26.4990
G01 X43.0405 Y26.4840
G01 X42.9415 Y26.4592
G01 X42.8529 Y26.4277
G01 X42.8379 Y26.4215
G01 X42.7603 Y26.3848
G01 X42.7459 Y26.3772
G01 X42.6654 Y26.3287
G01 X42.5898 Y26.2728
G01 X42.5772 Y26.2625
G01 X42.5077 Y26.1993
G01 X42.4440 Y26.1292
G01 X31.3430 Y26.1292
G01 X31.2793 Y26.1993
G01 X31.2098 Y26.2625
G01 X31.1972 Y26.2728
G01 X31.1216 Y26.3287
G01 X31.0411 Y26.3772
G01 X31.0267 Y26.3848
G01 X30.9491 Y26.4215
G01 X30.9341 Y26.4277
G01 X30.8455 Y26.4592
G01 X30.7465 Y26.4840
G01 X30.6455 Y26.4990
G01 X30.5516 Y26.5038
G01 X30.5394 Y26.5040
G01 X30.4415 Y26.4990
G01 X30.3485 Y26.4854
G01 X30.3326 Y26.4823
G01 X30.2493 Y26.4614
G01 X30.2337 Y26.4567
G01 X30.1453 Y26.4248
G01 X30.0603 Y26.3848
G01 X30.0459 Y26.3772
G01 X29.9654 Y26.3287
G01 X29.8834 Y26.2678
G01 X29.8077 Y26.1993
G01 X29.7392 Y26.1236
G01 X29.6783 Y26.0416
G01 X29.6258 Y25.9540
G01 X29.5822 Y25.8617
G01 X29.5478 Y25.7655
G01 X29.5230 Y25.6665
G01 X29.5080 Y25.5655
G01 X29.5030 Y25.4635
G01 X29.5080 Y25.3615
G01 X29.5230 Y25.2605
G01 X29.5478 Y25.1615
G01 X29.5822 Y25.0653
G01 X29.6258 Y24.9730
G01 X29.6783 Y24.8854
G01 X29.7392 Y24.8034
G01 X29.8077 Y24.7277
G01 X29.8834 Y24.6592
G01 X29.9654 Y24.5983
G01 X30.0530 Y24.5458
G01 X30.1453 Y24.5022
G01 X30.2415 Y24.4678
G01 X30.3405 Y24.4430
G01 X30.4415 Y24.4280
G01 X30.5435 Y24.4230
G01 X30.6455 Y24.4280
G01 X30.7465 Y24.4430
G01 X30.8455 Y24.4678
G01 X30.9417 Y24.5022
G01 X31.0340 Y24.5458
G01 X31.1216 Y24.5983
G01 X31.2036 Y24.6592
G01 X31.2793 Y24.7277
G01 X31.3430 Y24.7978
G00 Z2.0000
G00 X31.5752 Y24.1935
G01 F60.00
G01 Z-0.2001
G01 F320.00
G01 X31.5856 Y24.1850
G01 X42.2014 Y24.1850
G01 X42.2118 Y24.1935
G01 X42.2014 Y24.2020
G01 X31.5856 Y24.2020
G01 X31.5752 Y24.1935
G00 Z2.0000
G00 X30.9639 Y24.1935
G01 F60.00
G01 Z-0.2001
G01 F320.00
G01 X31.0345 Y24.1682
G01 X31.0557 Y24.1600
G01 X31.0765 Y24.1508
G01 X31.1541 Y24.1141
G01 X31.1744 Y24.1039
G01 X31.1844 Y24.0984
G01 X31.2679 Y24.0485
G01 X31.2776 Y24.0426
G01 X31.2965 Y24.0299
G01 X31.3837 Y23.9652
G01 X31.3926 Y23.9581
G01 X31.4098 Y23.9433
G01 X31.4717 Y23.8871
G01 X42.3153 Y23.8871
G01 X42.3772 Y23.9433
G01 X42.3944 Y23.9581
G01 X42.4033 Y23.9652
G01 X42.4905 Y24.0299
G01 X42.4999 Y24.0364
G01 X42.5191 Y24.0485
G01 X42.6026 Y24.0984
G01 X42.6126 Y24.1039
G01 X42.6329 Y24.1141
G01 X42.7105 Y24.1508
G01 X42.7313 Y24.1600
G01 X42.7525 Y24.1682
G01 X42.8231 Y24.1935
G01 X42.7525 Y24.2188
G01 X42.7313 Y24.2270
G01 X42.7105 Y24.2362
G01 X42.6329 Y24.2729
G01 X42.6126 Y24.2831
G01 X42.6026 Y24.2886
G01 X42.5191 Y24.3385
G01 X42.4999 Y24.3506
G01 X42.4905 Y24.3571
G01 X42.4033 Y24.4218
G01 X42.3857 Y24.4362
G01 X42.3772 Y24.4437
G01 X42.3153 Y24.4999
G01 X31.4717 Y24.4999
G01 X31.4098 Y24.4437
G01 X31.3926 Y24.4289
G01 X31.3837 Y24.4218
G01 X31.2965 Y24.3571
G01 X31.2871 Y24.3506
G01 X31.2679 Y24.3385
G01 X31.1844 Y24.2886
G01 X31.1744 Y24.2831
G01 X31.1541 Y24.2729
G01 X31.0765 Y24.2362
G01 X31.0557 Y24.2270
G01 X31.0345 Y24.2188
G01 X30.9639 Y24.1935
G00 Z2.0000
G00 X31.3430 Y22.2578
G01 F60.00
G01 Z-0.2001
G01 F320.00
G01 X42.4440 Y22.2578
G01 X42.5021 Y22.1936
G01 X42.5136 Y22.1821
G01 X42.5834 Y22.1192
G01 X42.6588 Y22.0630
G01 X42.6723 Y22.0540
G01 X42.7530 Y22.0058
G01 X42.8453 Y21.9622
G01 X42.9415 Y21.9278
G01 X43.0326 Y21.9047
G01 X43.0485 Y21.9016
G01 X43.1415 Y21.8880
G01 X43.2354 Y21.8832
G01 X43.2516 Y21.8832
G01 X43.3374 Y21.8874
G01 X43.3536 Y21.8890
G01 X43.4465 Y21.9030
G01 X43.5455 Y21.9278
G01 X43.6417 Y21.9622
G01 X43.7340 Y22.0058
G01 X43.8216 Y22.0583
G01 X43.9036 Y22.1192
G01 X43.9793 Y22.1877
G01 X44.0478 Y22.2634
G01 X44.1087 Y22.3454
G01 X44.1612 Y22.4330
G01 X44.2048 Y22.5253
G01 X44.2392 Y22.6215
G01 X44.2640 Y22.7205
G01 X44.2790 Y22.8215
G01 X44.2840 Y22.9235
G01 X44.2796 Y23.0174
G01 X44.2780 Y23.0336
G01 X44.2640 Y23.1265
G01 X44.2414 Y23.2177
G01 X44.2367 Y23.2333
G01 X44.2077 Y23.3141
G01 X44.2015 Y23.3291
G01 X44.1612 Y23.4140
G01 X44.1087 Y23.5016
G01 X44.0478 Y23.5836
G01 X43.9849 Y23.6534
G01 X43.9734 Y23.6649
G01 X43.9036 Y23.7278
G01 X43.8216 Y23.7887
G01 X43.7340 Y23.8412
G01 X43.6417 Y23.8848
G01 X43.5455 Y23.9192
G01 X43.4465 Y23.9440
G01 X43.3455 Y23.9590
G01 X43.2516 Y23.9638
G01 X43.2354 Y23.9638
G01 X43.1415 Y23.9590
G01 X43.0405 Y23.9440
G01 X42.9415 Y23.9192
G01 X42.8529 Y23.8877
G01 X42.8379 Y23.8815
G01 X42.7530 Y23.8412
G01 X42.6723 Y23.7930
G01 X42.6588 Y23.7840
G01 X42.5898 Y23.7328
G01 X42.5772 Y23.7225
G01 X42.5077 Y23.6593
G01 X42.4440 Y23.5892
G01 X31.3430 Y23.5892
G01 X31.2793 Y23.6593
G01 X31.2098 Y23.7225
G01 X31.1972 Y23.7328
G01 X31.1216 Y23.7887
G01 X31.0411 Y23.8372
G01 X31.0267 Y23.8448
G01 X30.9491 Y23.8815
G01 X30.9341 Y23.8877
G01 X30.8455 Y23.9192
G01 X30.7465 Y23.9440
G01 X30.6455 Y23.9590
G01 X30.5516 Y23.9638
G01 X30.5394 Y23.9640
G01 X30.4415 Y23.9590
G01 X30.3485 Y23.9454
G01 X30.3326 Y23.9423
G01 X30.2493 Y23.9214
G01 X30.2337 Y23.9167
G01 X30.1453 Y23.8848
G01 X30.0603 Y23.8448
G01 X30.0459 Y23.8372
G01 X29.9654 Y23.7887
G01 X29.8834 Y23.7278
G01 X29.8077 Y23.6593
G01 X29.7392 Y23.5836
G01 X29.6783 Y23.5016
G01 X29.6258 Y23.4140
G01 X29.5822 Y23.3217
G01 X29.5478 Y23.2255
G01 X29.5230 Y23.1265
G01 X29.5080 Y23.0255
G01 X29.5030 Y22.9235
G01 X29.5080 Y22.8215
G01 X29.5230 Y22.7205
G01 X29.5478 Y22.6215
G01 X29.5822 Y22.5253
G01 X29.6258 Y22.4330
G01 X29.6783 Y22.3454
G01 X29.7392 Y22.2634
G01 X29.8077 Y22.1877
G01 X29.8834 Y22.1192
G01 X29.9654 Y22.0583
G01 X30.0530 Y22.0058
G01 X30.1453 Y21.9622
G01 X30.2415 Y21.9278
G01 X30.3405 Y21.9030
G01 X30.4415 Y21.8880
G01 X30.5435 Y21.8830
G01 X30.6455 Y21.8880
G01 X30.7465 Y21.9030
G01 X30.8455 Y21.9278
G01 X30.9417 Y21.9622
G01 X31.0340 Y22.0058
G01 X31.1216 Y22.0583
G01 X31.2036 Y22.1192
G01 X31.2793 Y22.1877
G01 X31.3430 Y22.2578
G00 Z2.0000
G00 X31.5752 Y21.6535
G01 F60.00
G01 Z-0.2001
G01 F320.00
G01 X31.5856 Y21.6450
G01 X42.2014 Y21.6450
G01 X42.2118 Y21.6535
G01 X42.2014 Y21.6620
G01 X31.5856 Y21.6620
G01 X31.5752 Y21.6535
G00 Z2.0000
G00 X30.9639 Y21.6535
G01 F60.00
G01 Z-0.2001
G01 F320.00
G01 X31.0345 Y21.6282
G01 X31.0557 Y21.6200
G01 X31.0765 Y21.6108
G01 X31.1541 Y21.5741
G01 X31.1744 Y21.5639
G01 X31.1844 Y21.5584
G01 X31.2679 Y21.5085
G01 X31.2776 Y21.5026
G01 X31.2965 Y21.4899
G01 X31.3837 Y21.4252
G01 X31.3926 Y21.4181
G01 X31.4098 Y21.4033
G01 X31.4717 Y21.3471
G01 X42.3153 Y21.3471
G01 X42.3772 Y21.4033
G01 X42.3944 Y21.4181
G01 X42.4033 Y21.4252
G01 X42.4905 Y21.4899
G01 X42.4999 Y21.4964
G01 X42.5191 Y21.5085
G01 X42.6026 Y21.5584
G01 X42.6126 Y21.5639
G01 X42.6329 Y21.5741
G01 X42.7105 Y21.6108
G01 X42.7313 Y21.6200
G01 X42.7525 Y21.6282
G01 X42.8231 Y21.6535
G01 X42.7525 Y21.6788
G01 X42.7313 Y21.6870
G01 X42.7105 Y21.6962
G01 X42.6329 Y21.7329
G01 X42.6126 Y21.7431
G01 X42.6026 Y21.7486
G01 X42.5191 Y21.7985
G01 X42.4999 Y21.8106
G01 X42.4905 Y21.8171
G01 X42.4033 Y21.8818
G01 X42.3857 Y21.8962
G01 X42.3772 Y21.9037
G01 X42.3153 Y21.9599
G01 X31.4717 Y21.9599
G01 X31.4098 Y21.9037
G01 X31.3926 Y21.8889
G01 X31.3837 Y21.8818
G01 X31.2965 Y21.8171
G01 X31.2871 Y21.8106
G01 X31.2679 Y21.7985
G01 X31.1844 Y21.7486
G01 X31.1744 Y21.7431
G01 X31.1541 Y21.7329
G01 X31.0765 Y21.6962
G01 X31.0557 Y21.6870
G01 X31.0345 Y21.6788
G01 X30.9639 Y21.6535
G00 Z2.0000
G00 X31.3430 Y19.7178
G01 F60.00
G01 Z-0.2001
G01 F320.00
G01 X42.4440 Y19.7178
G01 X42.5021 Y19.6536
G01 X42.5136 Y19.6421
G01 X42.5834 Y19.5792
G01 X42.6588 Y19.5230
G01 X42.6723 Y19.5140
G01 X42.7530 Y19.4658
G01 X42.8453 Y19.4222
G01 X42.9415 Y19.3878
G01 X43.0326 Y19.3647
G01 X43.0485 Y19.3616
G01 X43.1415 Y19.3480
G01 X43.2354 Y19.3432
G01 X43.2516 Y19.3432
G01 X43.3374 Y19.3474
G01 X43.3536 Y19.3490
G01 X43.4465 Y19.3630
G01 X43.5455 Y19.3878
G01 X43.6417 Y19.4222
G01 X43.7340 Y19.4658
G01 X43.8216 Y19.5183
G01 X43.9036 Y19.5792
G01 X43.9793 Y19.6477
G01 X44.0478 Y19.7234
G01 X44.1087 Y19.8054
G01 X44.1612 Y19.8930
G01 X44.2048 Y19.9853
G01 X44.2392 Y20.0815
G01 X44.2640 Y20.1805
G01 X44.2790 Y20.2815
G01 X44.2840 Y20.3835
G01 X44.2796 Y20.4774
G01 X44.2780 Y20.4936
G01 X44.2640 Y20.5865
G01 X44.2414 Y20.6777
G01 X44.2367 Y20.6933
G01 X44.2077 Y20.7741
G01 X44.2015 Y20.7891
G01 X44.1612 Y20.8740
G01 X44.1087 Y20.9616
G01 X44.0478 Y21.0436
G01 X43.9849 Y21.1134
G01 X43.9734 Y21.1249
G01 X43.9036 Y21.1878
G01 X43.8216 Y21.2487
G01 X43.7340 Y21.3012
G01 X43.6417 Y21.3448
G01 X43.5455 Y21.3792
G01 X43.4465 Y21.4040
G01 X43.3455 Y21.4190
G01 X43.2516 Y21.4238
G01 X43.2354 Y21.4238
G01 X43.1415 Y21.4190
G01 X43.0405 Y21.4040
G01 X42.9415 Y21.3792
G01 X42.8529 Y21.3477
G01 X42.8379 Y21.3415
G01 X42.7530 Y21.3012
G01 X42.6723 Y21.2530
G01 X42.6588 Y21.2440
G01 X42.5898 Y21.1928
G01 X42.5772 Y21.1825
G01 X42.5077 Y21.1193
G01 X42.4440 Y21.0492
G01 X31.3430 Y21.0492
G01 X31.2793 Y21.1193
G01 X31.2098 Y21.1825
G01 X31.1972 Y21.1928
G01 X31.1216 Y21.2487
G01 X31.0411 Y21.2972
G01 X31.0267 Y21.3048
G01 X30.9491 Y21.3415
G01 X30.9341 Y21.3477
G01 X30.8455 Y21.3792
G01 X30.7465 Y21.4040
G01 X30.6455 Y21.4190
G01 X30.5516 Y21.4238
G01 X30.5394 Y21.4240
G01 X30.4415 Y21.4190
G01 X30.3485 Y21.4054
G01 X30.3326 Y21.4023
G01 X30.2493 Y21.3814
G01 X30.2337 Y21.3767
G01 X30.1453 Y21.3448
G01 X30.0603 Y21.3048
G01 X30.0459 Y21.2972
G01 X29.9654 Y21.2487
G01 X29.8834 Y21.1878
G01 X29.8077 Y21.1193
G01 X29.7392 Y21.0436
G01 X29.6783 Y20.9616
G01 X29.6258 Y20.8740
G01 X29.5822 Y20.7817
G01 X29.5478 Y20.6855
G01 X29.5230 Y20.5865
G01 X29.5080 Y20.4855
G01 X29.5030 Y20.3835
G01 X29.5080 Y20.2815
G01 X29.5230 Y20.1805
G01 X29.5478 Y20.0815
G01 X29.5822 Y19.9853
G01 X29.6258 Y19.8930
G01 X29.6783 Y19.8054
G01 X29.7392 Y19.7234
G01 X29.8077 Y19.6477
G01 X29.8834 Y19.5792
G01 X29.9654 Y19.5183
G01 X30.0530 Y19.4658
G01 X30.1453 Y19.4222
G01 X30.2415 Y19.3878
G01 X30.3405 Y19.3630
G01 X30.4415 Y19.3480
G01 X30.5435 Y19.3430
G01 X30.6455 Y19.3480
G01 X30.7465 Y19.3630
G01 X30.8455 Y19.3878
G01 X30.9417 Y19.4222
G01 X31.0340 Y19.4658
G01 X31.1216 Y19.5183
G01 X31.2036 Y19.5792
G01 X31.2793 Y19.6477
G01 X31.3430 Y19.7178
G00 Z2.0000
G00 X31.5752 Y19.1135
G01 F60.00
G01 Z-0.2001
G01 F320.00
G01 X31.5856 Y19.1050
G01 X42.2014 Y19.1050
G01 X42.2118 Y19.1135
G01 X42.2014 Y19.1220
G01 X31.5856 Y19.1220
G01 X31.5752 Y19.1135
G00 Z2.0000
G00 X30.9639 Y19.1135
G01 F60.00
G01 Z-0.2001
G01 F320.00
G01 X31.0345 Y19.0882
G01 X31.0557 Y19.0800
G01 X31.0765 Y19.0708
G01 X31.1541 Y19.0341
G01 X31.1744 Y19.0239
G01 X31.1844 Y19.0184
G01 X31.2679 Y18.9685
G01 X31.2776 Y18.9626
G01 X31.2965 Y18.9499
G01 X31.3837 Y18.8852
G01 X31.3926 Y18.8781
G01 X31.4098 Y18.8633
G01 X31.4717 Y18.8071
G01 X42.3153 Y18.8071
G01 X42.3772 Y18.8633
G01 X42.3944 Y18.8781
G01 X42.4033 Y18.8852
G01 X42.4905 Y18.9499
G01 X42.4999 Y18.9564
G01 X42.5191 Y18.9685
G01 X42.6026 Y19.0184
G01 X42.6126 Y19.0239
G01 X42.6329 Y19.0341
G01 X42.7105 Y19.0708
G01 X42.7313 Y19.0800
G01 X42.7525 Y19.0882
G01 X42.8231 Y19.1135
G01 X42.7525 Y19.1388
G01 X42.7313 Y19.1470
G01 X42.7105 Y19.1562
G01 X42.6329 Y19.1929
G01 X42.6126 Y19.2031
G01 X42.6026 Y19.2086
G01 X42.5191 Y19.2585
G01 X42.4999 Y19.2706
G01 X42.4905 Y19.2771
G01 X42.4033 Y19.3418
G01 X42.3857 Y19.3562
G01 X42.3772 Y19.3637
G01 X42.3153 Y19.4199
G01 X31.4717 Y19.4199
G01 X31.4098 Y19.3637
G01 X31.4013 Y19.3562
G01 X31.3837 Y19.3418
G01 X31.2965 Y19.2771
G01 X31.2776 Y19.2644
G01 X31.2679 Y19.2585
G01 X31.1844 Y19.2086
G01 X31.1744 Y19.2031
G01 X31.1541 Y19.1929
G01 X31.0765 Y19.1562
G01 X31.0557 Y19.1470
G01 X31.0345 Y19.1388
G01 X30.9639 Y19.1135
G00 Z2.0000
G00 X31.3430 Y17.1778
G01 F60.00
G01 Z-0.2001
G01 F320.00
G01 X42.4440 Y17.1778
G01 X42.5021 Y17.1136
G01 X42.5136 Y17.1021
G01 X42.5834 Y17.0392
G01 X42.6588 Y16.9830
G01 X42.6723 Y16.9740
G01 X42.7530 Y16.9258
G01 X42.8453 Y16.8822
G01 X42.9415 Y16.8478
G01 X43.0326 Y16.8247
G01 X43.0485 Y16.8216
G01 X43.1415 Y16.8080
G01 X43.2354 Y16.8032
G01 X43.2516 Y16.8032
G01 X43.3374 Y16.8074
G01 X43.3536 Y16.8090
G01 X43.4465 Y16.8230
G01 X43.5455 Y16.8478
G01 X43.6417 Y16.8822
G01 X43.7340 Y16.9258
G01 X43.8216 Y16.9783
G01 X43.9036 Y17.0392
G01 X43.9793 Y17.1077
G01 X44.0478 Y17.1834
G01 X44.1087 Y17.2654
G01 X44.1612 Y17.3530
G01 X44.2048 Y17.4453
G01 X44.2392 Y17.5415
G01 X44.2640 Y17.6405
G01 X44.2790 Y17.7415
G01 X44.2840 Y17.8435
G01 X44.2796 Y17.9374
G01 X44.2780 Y17.9536
G01 X44.2640 Y18.0465
G01 X44.2414 Y18.1377
G01 X44.2367 Y18.1533
G01 X44.2077 Y18.2341
G01 X44.2015 Y18.2491
G01 X44.1612 Y18.3340
G01 X44.1087 Y18.4216
G01 X44.0478 Y18.5036
G01 X43.9849 Y18.5734
G01 X43.9734 Y18.5849
G01 X43.9036 Y18.6478
G01 X43.8216 Y18.7087
G01 X43.7340 Y18.7612
G01 X43.6417 Y18.8048
G01 X43.5455 Y18.8392
G01 X43.4465 Y18.8640
G01 X43.3455 Y18.8790
G01 X43.2516 Y18.8838
G01 X43.2354 Y18.8838
G01 X43.1415 Y18.8790
G01 X43.0405 Y18.8640
G01 X42.9415 Y18.8392
G01 X42.8529 Y18.8077
G01 X42.8379 Y18.8015
G01 X42.7530 Y18.7612
G01 X42.6723 Y18.7130
G01 X42.6588 Y18.7040
G01 X42.5898 Y18.6528
G01 X42.5772 Y18.6425
G01 X42.5077 Y18.5793
G01 X42.4440 Y18.5092
G01 X31.3430 Y18.5092
G01 X31.2793 Y18.5793
G01 X31.2098 Y18.6425
G01 X31.1972 Y18.6528
G01 X31.1216 Y18.7087
G01 X31.0411 Y18.7572
G01 X31.0267 Y18.7648
G01 X30.9491 Y18.8015
G01 X30.9341 Y18.8077
G01 X30.8455 Y18.8392
G01 X30.7465 Y18.8640
G01 X30.6455 Y18.8790
G01 X30.5516 Y18.8838
G01 X30.5394 Y18.8840
G01 X30.4415 Y18.8790
G01 X30.3485 Y18.8654
G01 X30.3326 Y18.8623
G01 X30.2493 Y18.8414
G01 X30.2337 Y18.8367
G01 X30.1453 Y18.8048
G01 X30.0603 Y18.7648
G01 X30.0459 Y18.7572
G01 X29.9654 Y18.7087
G01 X29.8834 Y18.6478
G01 X29.8077 Y18.5793
G01 X29.7392 Y18.5036
G01 X29.6783 Y18.4216
G01 X29.6258 Y18.3340
G01 X29.5822 Y18.2417
G01 X29.5478 Y18.1455
G01 X29.5230 Y18.0465
G01 X29.5080 Y17.9455
G01 X29.5030 Y17.8435
G01 X29.5080 Y17.7415
G01 X29.5230 Y17.6405
G01 X29.5478 Y17.5415
G01 X29.5822 Y17.4453
G01 X29.6258 Y17.3530
G01 X29.6783 Y17.2654
G01 X29.7392 Y17.1834
G01 X29.8077 Y17.1077
G01 X29.8834 Y17.0392
G01 X29.9654 Y16.9783
G01 X30.0530 Y16.9258
G01 X30.1453 Y16.8822
G01 X30.2415 Y16.8478
G01 X30.3405 Y16.8230
G01 X30.4415 Y16.8080
G01 X30.5435 Y16.8030
G01 X30.6455 Y16.8080
G01 X30.7465 Y16.8230
G01 X30.8455 Y16.8478
G01 X30.9417 Y16.8822
G01 X31.0340 Y16.9258
G01 X31.1216 Y16.9783
G01 X31.2036 Y17.0392
G01 X31.2793 Y17.1077
G01 X31.3430 Y17.1778
G00 Z2.0000
G00 X31.5752 Y16.5735
G01 F60.00
G01 Z-0.2001
G01 F320.00
G01 X31.5856 Y16.5650
G01 X42.2014 Y16.5650
G01 X42.2118 Y16.5735
G01 X42.2014 Y16.5820
G01 X31.5856 Y16.5820
G01 X31.5752 Y16.5735
G00 Z2.0000
G00 X30.9639 Y16.5735
G01 F60.00
G01 Z-0.2001
G01 F320.00
G01 X31.0345 Y16.5482
G01 X31.0557 Y16.5400
G01 X31.0765 Y16.5308
G01 X31.1541 Y16.4941
G01 X31.1744 Y16.4839
G01 X31.1844 Y16.4784
G01 X31.2679 Y16.4285
G01 X31.2871 Y16.4164
G01 X31.2965 Y16.4099
G01 X31.3837 Y16.3452
G01 X31.4013 Y16.3308
G01 X31.4098 Y16.3233
G01 X31.4717 Y16.2671
G01 X42.3153 Y16.2671
G01 X42.3772 Y16.3233
G01 X42.3944 Y16.3381
G01 X42.4033 Y16.3452
G01 X42.4905 Y16.4099
G01 X42.4999 Y16.4164
G01 X42.5191 Y16.4285
G01 X42.6026 Y16.4784
G01 X42.6126 Y16.4839
G01 X42.6329 Y16.4941
G01 X42.7105 Y16.5308
G01 X42.7313 Y16.5400
G01 X42.7525 Y16.5482
G01 X42.8231 Y16.5735
G01 X42.7525 Y16.5988
G01 X42.7313 Y16.6070
G01 X42.7105 Y16.6162
G01 X42.6329 Y16.6529
G01 X42.6126 Y16.6631
G01 X42.6026 Y16.6686
G01 X42.5191 Y16.7185
G01 X42.4999 Y16.7306
G01 X42.4905 Y16.7371
G01 X42.4033 Y16.8018
G01 X42.3857 Y16.8162
G01 X42.3772 Y16.8237
G01 X42.3153 Y16.8799
G01 X31.4717 Y16.8799
G01 X31.4098 Y16.8237
G01 X31.4013 Y16.8162
G01 X31.3837 Y16.8018
G01 X31.2965 Y16.7371
G01 X31.2776 Y16.7244
G01 X31.2679 Y16.7185
G01 X31.1844 Y16.6686
G01 X31.1744 Y16.6631
G01 X31.1541 Y16.6529
G01 X31.0765 Y16.6162
G01 X31.0557 Y16.6070
G01 X31.0345 Y16.5988
G01 X30.9639 Y16.5735
G00 Z2.0000
G00 X31.3430 Y14.6378
G01 F60.00
G01 Z-0.2001
G01 F320.00
G01 X42.4440 Y14.6378
G01 X42.5021 Y14.5736
G01 X42.5136 Y14.5621
G01 X42.5834 Y14.4992
G01 X42.6588 Y14.4430
G01 X42.6723 Y14.4340
G01 X42.7530 Y14.3858
G01 X42.8453 Y14.3422
G01 X42.9415 Y14.3078
G01 X43.0326 Y14.2847
G01 X43.0485 Y14.2816
G01 X43.1415 Y14.2680
G01 X43.2354 Y14.2632
G01 X43.2516 Y14.2632
G01 X43.3374 Y14.2674
G01 X43.3536 Y14.2690
G01 X43.4465 Y14.2830
G01 X43.5455 Y14.3078
G01 X43.6417 Y14.3422
G01 X43.7340 Y14.3858
G01 X43.8216 Y14.4383
G01 X43.9036 Y14.4992
G01 X43.9793 Y14.5677
G01 X44.0478 Y14.6434
G01 X44.1087 Y14.7254
G01 X44.1612 Y14.8130
G01 X44.2048 Y14.9053
G01 X44.2392 Y15.0015
G01 X44.2640 Y15.1005
G01 X44.2790 Y15.2015
G01 X44.2840 Y15.3035
G01 X44.2796 Y15.3974
G01 X44.2780 Y15.4136
G01 X44.2640 Y15.5065
G01 X44.2414 Y15.5977
G01 X44.2367 Y15.6133
G01 X44.2077 Y15.6941
G01 X44.2015 Y15.7091
G01 X44.1612 Y15.7940
G01 X44.1087 Y15.8816
G01 X44.0478 Y15.9636
G01 X43.9849 Y16.0334
G01 X43.9734 Y16.0449
G01 X43.9036 Y16.1078
G01 X43.8216 Y16.1687
G01 X43.7340 Y16.2212
G01 X43.6417 Y16.2648
G01 X43.5455 Y16.2992
G01 X43.4465 Y16.3240
G01 X43.3455 Y16.3390
G01 X43.2516 Y16.3438
G01 X43.2354 Y16.3438
G01 X43.1415 Y16.3390
G01 X43.0405 Y16.3240
G01 X42.9415 Y16.2992
G01 X42.8529 Y16.2677
G01 X42.8379 Y16.2615
G01 X42.7530 Y16.2212
G01 X42.6723 Y16.1730
G01 X42.6588 Y16.1640
G01 X42.5898 Y16.1128
G01 X42.5772 Y16.1025
G01 X42.5077 Y16.0393
G01 X42.4440 Y15.9692
G01 X31.3430 Y15.9692
G01 X31.2793 Y16.0393
G01 X31.2098 Y16.1025
G01 X31.1972 Y16.1128
G01 X31.1216 Y16.1687
G01 X31.0411 Y16.2172
G01 X31.0267 Y16.2248
G01 X30.9491 Y16.2615
G01 X30.9341 Y16.2677
G01 X30.8455 Y16.2992
G01 X30.7465 Y16.3240
G01 X30.6455 Y16.3390
G01 X30.5516 Y16.3438
G01 X30.5394 Y16.3440
G01 X30.4415 Y16.3390
G01 X30.3485 Y16.3254
G01 X30.3326 Y16.3223
G01 X30.2493 Y16.3014
G01 X30.2337 Y16.2967
G01 X30.1453 Y16.2648
G01 X30.0603 Y16.2248
G01 X30.0459 Y16.2172
G01 X29.9654 Y16.1687
G01 X29.8834 Y16.1078
G01 X29.8077 Y16.0393
G01 X29.7392 Y15.9636
G01 X29.6783 Y15.8816
G01 X29.6258 Y15.7940
G01 X29.5822 Y15.7017
G01 X29.5478 Y15.6055
G01 X29.5230 Y15.5065
G01 X29.5080 Y15.4055
G01 X29.5030 Y15.3035
G01 X29.5080 Y15.2015
G01 X29.5230 Y15.1005
G01 X29.5478 Y15.0015
G01 X29.5822 Y14.9053
G01 X29.6258 Y14.8130
G01 X29.6783 Y14.7254
G01 X29.7392 Y14.6434
G01 X29.8077 Y14.5677
G01 X29.8834 Y14.4992
G01 X29.9654 Y14.4383
G01 X30.0530 Y14.3858
G01 X30.1453 Y14.3422
G01 X30.2415 Y14.3078
G01 X30.3405 Y14.2830
G01 X30.4415 Y14.2680
G01 X30.5435 Y14.2630
G01 X30.6455 Y14.2680
G01 X30.7465 Y14.2830
G01 X30.8455 Y14.3078
G01 X30.9417 Y14.3422
G01 X31.0340 Y14.3858
G01 X31.1216 Y14.4383
G01 X31.2036 Y14.4992
G01 X31.2793 Y14.5677
G01 X31.3430 Y14.6378
G00 Z2.0000
G00 X31.5752 Y14.0335
G01 F60.00
G01 Z-0.2001
G01 F320.00
G01 X31.5856 Y14.0250
G01 X42.2014 Y14.0250
G01 X42.2118 Y14.0335
G01 X42.2014 Y14.0420
G01 X31.5856 Y14.0420
G01 X31.5752 Y14.0335
G00 Z2.0000
G00 X30.9639 Y14.0335
G01 F60.00
G01 Z-0.2001
G01 F320.00
G01 X31.0345 Y14.0082
G01 X31.0557 Y14.0000
G01 X31.0765 Y13.9908
G01 X31.1541 Y13.9541
G01 X31.1643 Y13.9491
G01 X31.1844 Y13.9384
G01 X31.2679 Y13.8885
G01 X31.2871 Y13.8764
G01 X31.2965 Y13.8699
G01 X31.3837 Y13.8052
G01 X31.3926 Y13.7981
G01 X31.4098 Y13.7833
G01 X31.4717 Y13.7271
G01 X42.3153 Y13.7271
G01 X42.3772 Y13.7833
G01 X42.3857 Y13.7908
G01 X42.4033 Y13.8052
G01 X42.4905 Y13.8699
G01 X42.5094 Y13.8826
G01 X42.5191 Y13.8885
G01 X42.6026 Y13.9384
G01 X42.6126 Y13.9439
G01 X42.6329 Y13.9541
G01 X42.7105 Y13.9908
G01 X42.7313 Y14.0000
G01 X42.7525 Y14.0082
G01 X42.8231 Y14.0335
G01 X42.7525 Y14.0588
G01 X42.7313 Y14.0670
G01 X42.7105 Y14.0762
G01 X42.6329 Y14.1129
G01 X42.6227 Y14.1179
G01 X42.6026 Y14.1286
G01 X42.5191 Y14.1785
G01 X42.5094 Y14.1844
G01 X42.4905 Y14.1971
G01 X42.4033 Y14.2618
G01 X42.3857 Y14.2762
G01 X42.3772 Y14.2837
G01 X42.3153 Y14.3399
G01 X31.4717 Y14.3399
G01 X31.4098 Y14.2837
G01 X31.3926 Y14.2689
G01 X31.3837 Y14.2618
G01 X31.2965 Y14.1971
G01 X31.2776 Y14.1844
G01 X31.2679 Y14.1785
G01 X31.1844 Y14.1286
G01 X31.1643 Y14.1179
G01 X31.1541 Y14.1129
G01 X31.0765 Y14.0762
G01 X31.0557 Y14.0670
G01 X31.0345 Y14.0588
G01 X30.9639 Y14.0335
G00 Z2.0000
G00 X31.3430 Y12.0978
G01 F60.00
G01 Z-0.2001
G01 F320.00
G01 X42.4440 Y12.0978
G01 X42.5021 Y12.0336
G01 X42.5136 Y12.0221
G01 X42.5834 Y11.9592
G01 X42.6588 Y11.9030
G01 X42.6723 Y11.8940
G01 X42.7530 Y11.8458
G01 X42.8453 Y11.8022
G01 X42.9415 Y11.7678
G01 X43.0326 Y11.7447
G01 X43.0485 Y11.7416
G01 X43.1415 Y11.7280
G01 X43.2354 Y11.7232
G01 X43.2516 Y11.7232
G01 X43.3374 Y11.7274
G01 X43.3536 Y11.7290
G01 X43.4465 Y11.7430
G01 X43.5455 Y11.7678
G01 X43.6417 Y11.8022
G01 X43.7340 Y11.8458
G01 X43.8216 Y11.8983
G01 X43.9036 Y11.9592
G01 X43.9793 Y12.0277
G01 X44.0478 Y12.1034
G01 X44.1087 Y12.1854
G01 X44.1612 Y12.2730
G01 X44.2048 Y12.3653
G01 X44.2392 Y12.4615
G01 X44.2640 Y12.5605
G01 X44.2790 Y12.6615
G01 X44.2840 Y12.7635
G01 X44.2796 Y12.8574
G01 X44.2780 Y12.8736
G01 X44.2640 Y12.9665
G01 X44.2414 Y13.0577
G01 X44.2367 Y13.0733
G01 X44.2077 Y13.1541
G01 X44.2015 Y13.1691
G01 X44.1612 Y13.2540
G01 X44.1087 Y13.3416
G01 X44.0478 Y13.4236
G01 X43.9849 Y13.4934
G01 X43.9734 Y13.5049
G01 X43.9036 Y13.5678
G01 X43.8216 Y13.6287
G01 X43.7340 Y13.6812
G01 X43.6417 Y13.7248
G01 X43.5455 Y13.7592
G01 X43.4465 Y13.7840
G01 X43.3455 Y13.7990
G01 X43.2516 Y13.8038
G01 X43.2354 Y13.8038
G01 X43.1415 Y13.7990
G01 X43.0405 Y13.7840
G01 X42.9415 Y13.7592
G01 X42.8529 Y13.7277
G01 X42.8379 Y13.7215
G01 X42.7530 Y13.6812
G01 X42.6723 Y13.6330
G01 X42.6588 Y13.6240
G01 X42.5898 Y13.5728
G01 X42.5772 Y13.5625
G01 X42.5077 Y13.4993
G01 X42.4440 Y13.4292
G01 X31.3430 Y13.4292
G01 X31.2793 Y13.4993
G01 X31.2098 Y13.5625
G01 X31.1972 Y13.5728
G01 X31.1216 Y13.6287
G01 X31.0411 Y13.6772
G01 X31.0267 Y13.6848
G01 X30.9491 Y13.7215
G01 X30.9341 Y13.7277
G01 X30.8455 Y13.7592
G01 X30.7465 Y13.7840
G01 X30.6455 Y13.7990
G01 X30.5516 Y13.8038
G01 X30.5394 Y13.8040
G01 X30.4415 Y13.7990
G01 X30.3485 Y13.7854
G01 X30.3326 Y13.7823
G01 X30.2493 Y13.7614
G01 X30.2337 Y13.7567
G01 X30.1453 Y13.7248
G01 X30.0603 Y13.6848
G01 X30.0459 Y13.6772
G01 X29.9654 Y13.6287
G01 X29.8834 Y13.5678
G01 X29.8077 Y13.4993
G01 X29.7392 Y13.4236
G01 X29.6783 Y13.3416
G01 X29.6258 Y13.2540
G01 X29.5822 Y13.1617
G01 X29.5478 Y13.0655
G01 X29.5230 Y12.9665
G01 X29.5080 Y12.8655
G01 X29.5030 Y12.7635
G01 X29.5080 Y12.6615
G01 X29.5230 Y12.5605
G01 X29.5478 Y12.4615
G01 X29.5822 Y12.3653
G01 X29.6258 Y12.2730
G01 X29.6783 Y12.1854
G01 X29.7392 Y12.1034
G01 X29.8077 Y12.0277
G01 X29.8834 Y11.9592
G01 X29.9654 Y11.8983
G01 X30.0530 Y11.8458
G01 X30.1453 Y11.8022
G01 X30.2415 Y11.7678
G01 X30.3405 Y11.7430
G01 X30.4415 Y11.7280
G01 X30.5435 Y11.7230
G01 X30.6455 Y11.7280
G01 X30.7465 Y11.7430
G01 X30.8455 Y11.7678
G01 X30.9417 Y11.8022
G01 X31.0340 Y11.8458
G01 X31.1216 Y11.8983
G01 X31.2036 Y11.9592
G01 X31.2793 Y12.0277
G01 X31.3430 Y12.0978
G00 Z2.0000
G00 X31.5752 Y11.4935
G01 F60.00
G01 Z-0.2001
G01 F320.00
G01 X31.5856 Y11.4850
G01 X42.2014 Y11.4850
G01 X42.2118 Y11.4935
G01 X42.2014 Y11.5020
G01 X31.5856 Y11.5020
G01 X31.5752 Y11.4935
G00 Z2.0000
G00 X30.9639 Y11.4935
G01 F60.00
G01 Z-0.2001
G01 F320.00
G01 X31.0345 Y11.4682
G01 X31.0557 Y11.4600
G01 X31.0765 Y11.4508
G01 X31.1541 Y11.4141
G01 X31.1643 Y11.4091
G01 X31.1844 Y11.3984
G01 X31.2679 Y11.3485
G01 X31.2776 Y11.3426
G01 X31.2965 Y11.3299
G01 X31.3837 Y11.2652
G01 X31.3926 Y11.2581
G01 X31.4098 Y11.2433
G01 X31.4717 Y11.1871
G01 X42.3153 Y11.1871
G01 X42.3772 Y11.2433
G01 X42.3857 Y11.2508
G01 X42.4033 Y11.2652
G01 X42.4905 Y11.3299
G01 X42.4999 Y11.3364
G01 X42.5191 Y11.3485
G01 X42.6026 Y11.3984
G01 X42.6227 Y11.4091
G01 X42.6329 Y11.4141
G01 X42.7105 Y11.4508
G01 X42.7313 Y11.4600
G01 X42.7525 Y11.4682
G01 X42.8231 Y11.4935
G01 X42.7525 Y11.5188
G01 X42.7313 Y11.5270
G01 X42.7105 Y11.5362
G01 X42.6329 Y11.5729
G01 X42.6227 Y11.5779
G01 X42.6026 Y11.5886
G01 X42.5191 Y11.6385
G01 X42.5094 Y11.6444
G01 X42.4905 Y11.6571
G01 X42.4033 Y11.7218
G01 X42.3857 Y11.7362
G01 X42.3772 Y11.7437
G01 X42.3153 Y11.7999
G01 X31.4717 Y11.7999
G01 X31.4098 Y11.7437
G01 X31.3926 Y11.7289
G01 X31.3837 Y11.7218
G01 X31.2965 Y11.6571
G01 X31.2871 Y11.6506
G01 X31.2679 Y11.6385
G01 X31.1844 Y11.5886
G01 X31.1744 Y11.5831
G01 X31.1541 Y11.5729
G01 X31.0765 Y11.5362
G01 X31.0557 Y11.5270
G01 X31.0345 Y11.5188
G01 X30.9639 Y11.4935
G00 Z2.0000
G00 X31.3430 Y9.5578
G01 F60.00
G01 Z-0.2001
G01 F320.00
G01 X42.4440 Y9.5578
G01 X42.5021 Y9.4936
G01 X42.5136 Y9.4821
G01 X42.5834 Y9.4192
G01 X42.6588 Y9.3630
G01 X42.6723 Y9.3540
G01 X42.7530 Y9.3058
G01 X42.8453 Y9.2622
G01 X42.9415 Y9.2278
G01 X43.0326 Y9.2047
G01 X43.0485 Y9.2016
G01 X43.1415 Y9.1880
G01 X43.2354 Y9.1832
G01 X43.2516 Y9.1832
G01 X43.3374 Y9.1874
G01 X43.3536 Y9.1890
G01 X43.4465 Y9.2030
G01 X43.5455 Y9.2278
G01 X43.6417 Y9.2622
G01 X43.7340 Y9.3058
G01 X43.8216 Y9.3583
G01 X43.9036 Y9.4192
G01 X43.9793 Y9.4877
G01 X44.0478 Y9.5634
G01 X44.1087 Y9.6454
G01 X44.1612 Y9.7330
G01 X44.2048 Y9.8253
G01 X44.2392 Y9.9215
G01 X44.2640 Y10.0205
G01 X44.2790 Y10.1215
G01 X44.2840 Y10.2235
G01 X44.2796 Y10.3174
G01 X44.2780 Y10.3336
G01 X44.2640 Y10.4265
G01 X44.2414 Y10.5177
G01 X44.2367 Y10.5333
G01 X44.2077 Y10.6141
G01 X44.2015 Y10.6291
G01 X44.1612 Y10.7140
G01 X44.1087 Y10.8016
G01 X44.0478 Y10.8836
G01 X43.9849 Y10.9534
G01 X43.9734 Y10.9649
G01 X43.9036 Y11.0278
G01 X43.8216 Y11.0887
G01 X43.7340 Y11.1412
G01 X43.6417 Y11.1848
G01 X43.5455 Y11.2192
G01 X43.4465 Y11.2440
G01 X43.3455 Y11.2590
G01 X43.2516 Y11.2638
G01 X43.2354 Y11.2638
G01 X43.1415 Y11.2590
G01 X43.0405 Y11.2440
G01 X42.9415 Y11.2192
G01 X42.8529 Y11.1877
G01 X42.8379 Y11.1815
G01 X42.7530 Y11.1412
G01 X42.6723 Y11.0930
G01 X42.6588 Y11.0840
G01 X42.5898 Y11.0328
G01 X42.5772 Y11.0225
G01 X42.5077 Y10.9593
G01 X42.4440 Y10.8892
G01 X31.3430 Y10.8892
G01 X31.2793 Y10.9593
G01 X31.2098 Y11.0225
G01 X31.1972 Y11.0328
G01 X31.1216 Y11.0887
G01 X31.0411 Y11.1372
G01 X31.0267 Y11.1448
G01 X30.9491 Y11.1815
G01 X30.9341 Y11.1877
G01 X30.8455 Y11.2192
G01 X30.7465 Y11.2440
G01 X30.6455 Y11.2590
G01 X30.5516 Y11.2638
G01 X30.5394 Y11.2640
G01 X30.4415 Y11.2590
G01 X30.3485 Y11.2454
G01 X30.3326 Y11.2423
G01 X30.2415 Y11.2192
G01 X30.1529 Y11.1877
G01 X30.1379 Y11.1815
G01 X30.0603 Y11.1448
G01 X30.0459 Y11.1372
G01 X29.9654 Y11.0887
G01 X29.8834 Y11.0278
G01 X29.8077 Y10.9593
G01 X29.7392 Y10.8836
G01 X29.6783 Y10.8016
G01 X29.6258 Y10.7140
G01 X29.5822 Y10.6217
G01 X29.5478 Y10.5255
G01 X29.5230 Y10.4265
G01 X29.5080 Y10.3255
G01 X29.5030 Y10.2235
G01 X29.5080 Y10.1215
G01 X29.5230 Y10.0205
G01 X29.5478 Y9.9215
G01 X29.5822 Y9.8253
G01 X29.6258 Y9.7330
G01 X29.6783 Y9.6454
G01 X29.7392 Y9.5634
G01 X29.8077 Y9.4877
G01 X29.8834 Y9.4192
G01 X29.9654 Y9.3583
G01 X30.0530 Y9.3058
G01 X30.1453 Y9.2622
G01 X30.2415 Y9.2278
G01 X30.3405 Y9.2030
G01 X30.4415 Y9.1880
G01 X30.5435 Y9.1830
G01 X30.6455 Y9.1880
G01 X30.7465 Y9.2030
G01 X30.8455 Y9.2278
G01 X30.9417 Y9.2622
G01 X31.0340 Y9.3058
G01 X31.1216 Y9.3583
G01 X31.2036 Y9.4192
G01 X31.2793 Y9.4877
G01 X31.3430 Y9.5578
G00 Z2.0000
G00 X31.5752 Y8.9535
G01 F60.00
G01 Z-0.2001
G01 F320.00
G01 X31.5856 Y8.9450
G01 X42.2014 Y8.9450
G01 X42.2118 Y8.9535
G01 X42.2014 Y8.9620
G01 X31.5856 Y8.9620
G01 X31.5752 Y8.9535
G00 Z2.0000
G00 X30.9639 Y8.9535
G01 F60.00
G01 Z-0.2001
G01 F320.00
G01 X31.0345 Y8.9282
G01 X31.0557 Y8.9200
G01 X31.0765 Y8.9108
G01 X31.1541 Y8.8741
G01 X31.1643 Y8.8691
G01 X31.1844 Y8.8584
G01 X31.2679 Y8.8085
G01 X31.2776 Y8.8026
G01 X31.2965 Y8.7899
G01 X31.3837 Y8.7252
G01 X31.3926 Y8.7181
G01 X31.4098 Y8.7033
G01 X31.4717 Y8.6471
G01 X42.3153 Y8.6471
G01 X42.3772 Y8.7033
G01 X42.3857 Y8.7108
G01 X42.4033 Y8.7252
G01 X42.4905 Y8.7899
G01 X42.4999 Y8.7964
G01 X42.5191 Y8.8085
G01 X42.6026 Y8.8584
G01 X42.6227 Y8.8691
G01 X42.6329 Y8.8741
G01 X42.7105 Y8.9108
G01 X42.7313 Y8.9200
G01 X42.7525 Y8.9282
G01 X42.8231 Y8.9535
G01 X42.7525 Y8.9788
G01 X42.7313 Y8.9870
G01 X42.7105 Y8.9962
G01 X42.6329 Y9.0329
G01 X42.6227 Y9.0379
G01 X42.6026 Y9.0486
G01 X42.5191 Y9.0985
G01 X42.5094 Y9.1044
G01 X42.4905 Y9.1171
G01 X42.4033 Y9.1818
G01 X42.3857 Y9.1962
G01 X42.3772 Y9.2037
G01 X42.3153 Y9.2599
G01 X31.4717 Y9.2599
G01 X31.4098 Y9.2037
G01 X31.3926 Y9.1889
G01 X31.3837 Y9.1818
G01 X31.2965 Y9.1171
G01 X31.2871 Y9.1106
G01 X31.2679 Y9.0985
G01 X31.1844 Y9.0486
G01 X31.1744 Y9.0431
G01 X31.1541 Y9.0329
G01 X31.0765 Y8.9962
G01 X31.0557 Y8.9870
G01 X31.0345 Y8.9788
G01 X30.9639 Y8.9535
G00 Z2.0000
G00 X31.3430 Y7.0178
G01 F60.00
G01 Z-0.2001
G01 F320.00
G01 X42.4440 Y7.0178
G01 X42.5021 Y6.9536
G01 X42.5136 Y6.9421
G01 X42.5834 Y6.8792
G01 X42.6588 Y6.8230
G01 X42.6723 Y6.8140
G01 X42.7530 Y6.7658
G01 X42.8453 Y6.7222
G01 X42.9415 Y6.6878
G01 X43.0326 Y6.6647
G01 X43.0485 Y6.6616
G01 X43.1415 Y6.6480
G01 X43.2354 Y6.6432
G01 X43.2516 Y6.6432
G01 X43.3374 Y6.6474
G01 X43.3536 Y6.6490
G01 X43.4465 Y6.6630
G01 X43.5455 Y6.6878
G01 X43.6417 Y6.7222
G01 X43.7340 Y6.7658
G01 X43.8216 Y6.8183
G01 X43.9036 Y6.8792
G01 X43.9793 Y6.9477
G01 X44.0478 Y7.0234
G01 X44.1087 Y7.1054
G01 X44.1612 Y7.1930
G01 X44.2048 Y7.2853
G01 X44.2392 Y7.3815
G01 X44.2640 Y7.4805
G01 X44.2790 Y7.5815
G01 X44.2840 Y7.6835
G01 X44.2796 Y7.7774
G01 X44.2780 Y7.7936
G01 X44.2640 Y7.8865
G01 X44.2414 Y7.9777
G01 X44.2367 Y7.9933
G01 X44.2077 Y8.0741
G01 X44.2015 Y8.0891
G01 X44.1612 Y8.1740
G01 X44.1087 Y8.2616
G01 X44.0478 Y8.3436
G01 X43.9849 Y8.4134
G01 X43.9734 Y8.4249
G01 X43.9036 Y8.4878
G01 X43.8216 Y8.5487
G01 X43.7340 Y8.6012
G01 X43.6417 Y8.6448
G01 X43.5455 Y8.6792
G01 X43.4465 Y8.7040
G01 X43.3455 Y8.7190
G01 X43.2516 Y8.7238
G01 X43.2354 Y8.7238
G01 X43.1415 Y8.7190
G01 X43.0405 Y8.7040
G01 X42.9415 Y8.6792
G01 X42.8529 Y8.6477
G01 X42.8379 Y8.6415
G01 X42.7530 Y8.6012
G01 X42.6723 Y8.5530
G01 X42.6588 Y8.5440
G01 X42.5898 Y8.4928
G01 X42.5772 Y8.4825
G01 X42.5077 Y8.4193
G01 X42.4440 Y8.3492
G01 X31.3430 Y8.3492
G01 X31.2793 Y8.4193
G01 X31.2098 Y8.4825
G01 X31.1972 Y8.4928
G01 X31.1216 Y8.5487
G01 X31.0411 Y8.5972
G01 X31.0267 Y8.6048
G01 X30.9491 Y8.6415
G01 X30.9341 Y8.6477
G01 X30.8455 Y8.6792
G01 X30.7465 Y8.7040
G01 X30.6455 Y8.7190
G01 X30.5516 Y8.7238
G01 X30.5394 Y8.7240
G01 X30.4415 Y8.7190
G01 X30.3485 Y8.7054
G01 X30.3326 Y8.7023
G01 X30.2415 Y8.6792
G01 X30.1529 Y8.6477
G01 X30.1379 Y8.6415
G01 X30.0603 Y8.6048
G01 X30.0459 Y8.5972
G01 X29.9654 Y8.5487
G01 X29.8834 Y8.4878
G01 X29.8077 Y8.4193
G01 X29.7392 Y8.3436
G01 X29.6783 Y8.2616
G01 X29.6258 Y8.1740
G01 X29.5822 Y8.0817
G01 X29.5478 Y7.9855
G01 X29.5230 Y7.8865
G01 X29.5080 Y7.7855
G01 X29.5030 Y7.6835
G01 X29.5080 Y7.5815
G01 X29.5230 Y7.4805
G01 X29.5478 Y7.3815
G01 X29.5822 Y7.2853
G01 X29.6258 Y7.1930
G01 X29.6783 Y7.1054
G01 X29.7392 Y7.0234
G01 X29.8077 Y6.9477
G01 X29.8834 Y6.8792
G01 X29.9654 Y6.8183
G01 X30.0530 Y6.7658
G01 X30.1453 Y6.7222
G01 X30.2415 Y6.6878
G01 X30.3405 Y6.6630
G01 X30.4415 Y6.6480
G01 X30.5435 Y6.6430
G01 X30.6455 Y6.6480
G01 X30.7465 Y6.6630
G01 X30.8455 Y6.6878
G01 X30.9417 Y6.7222
G01 X31.0340 Y6.7658
G01 X31.1216 Y6.8183
G01 X31.2036 Y6.8792
G01 X31.2793 Y6.9477
G01 X31.3430 Y7.0178
G00 Z2.0000
G00 X31.5752 Y6.4135
G01 F60.00
G01 Z-0.2001
G01 F320.00
G01 X31.5856 Y6.4050
G01 X42.2014 Y6.4050
G01 X42.2118 Y6.4135
G01 X42.2014 Y6.4220
G01 X31.5856 Y6.4220
G01 X31.5752 Y6.4135
G00 Z2.0000
G00 X30.9639 Y6.4135
G01 F60.00
G01 Z-0.2001
G01 F320.00
G01 X31.0345 Y6.3882
G01 X31.0557 Y6.3800
G01 X31.0765 Y6.3708
G01 X31.1541 Y6.3341
G01 X31.1744 Y6.3239
G01 X31.1844 Y6.3184
G01 X31.2679 Y6.2685
G01 X31.2871 Y6.2564
G01 X31.2965 Y6.2499
G01 X31.3837 Y6.1852
G01 X31.4013 Y6.1708
G01 X31.4098 Y6.1633
G01 X31.4717 Y6.1071
G01 X42.3153 Y6.1071
G01 X42.3772 Y6.1633
G01 X42.3857 Y6.1708
G01 X42.4033 Y6.1852
G01 X42.4905 Y6.2499
G01 X42.5094 Y6.2626
G01 X42.5191 Y6.2685
G01 X42.6026 Y6.3184
G01 X42.6227 Y6.3291
G01 X42.6329 Y6.3341
G01 X42.7105 Y6.3708
G01 X42.7313 Y6.3800
G01 X42.7525 Y6.3882
G01 X42.8231 Y6.4135
G01 X42.7525 Y6.4388
G01 X42.7313 Y6.4470
G01 X42.7105 Y6.4562
G01 X42.6329 Y6.4929
G01 X42.6126 Y6.5031
G01 X42.6026 Y6.5086
G01 X42.5191 Y6.5585
G01 X42.4999 Y6.5706
G01 X42.4905 Y6.5771
G01 X42.4033 Y6.6418
G01 X42.3857 Y6.6562
G01 X42.3772 Y6.6637
G01 X42.3153 Y6.7199
G01 X31.4717 Y6.7199
G01 X31.4098 Y6.6637
G01 X31.3926 Y6.6489
G01 X31.3837 Y6.6418
G01 X31.2965 Y6.5771
G01 X31.2776 Y6.5644
G01 X31.2679 Y6.5585
G01 X31.1844 Y6.5086
G01 X31.1643 Y6.4979
G01 X31.1541 Y6.4929
G01 X31.0765 Y6.4562
G01 X31.0557 Y6.4470
G01 X31.0345 Y6.4388
G01 X30.9639 Y6.4135
G00 Z2.0000
G00 X31.3430 Y4.4778
G01 F60.00
G01 Z-0.2001
G01 F320.00
G01 X42.4440 Y4.4778
G01 X42.5021 Y4.4136
G01 X42.5136 Y4.4021
G01 X42.5834 Y4.3392
G01 X42.6588 Y4.2830
G01 X42.6723 Y4.2740
G01 X42.7530 Y4.2258
G01 X42.8453 Y4.1822
G01 X42.9415 Y4.1478
G01 X43.0326 Y4.1247
G01 X43.0485 Y4.1216
G01 X43.1334 Y4.1090
G01 X43.1496 Y4.1074
G01 X43.2435 Y4.1030
G01 X43.3374 Y4.1074
G01 X43.3536 Y4.1090
G01 X43.4465 Y4.1230
G01 X43.5455 Y4.1478
G01 X43.6417 Y4.1822
G01 X43.7340 Y4.2258
G01 X43.8216 Y4.2783
G01 X43.9036 Y4.3392
G01 X43.9793 Y4.4077
G01 X44.0478 Y4.4834
G01 X44.1087 Y4.5654
G01 X44.1612 Y4.6530
G01 X44.2048 Y4.7453
G01 X44.2392 Y4.8415
G01 X44.2640 Y4.9405
G01 X44.2790 Y5.0415
G01 X44.2840 Y5.1435
G01 X44.2796 Y5.2374
G01 X44.2780 Y5.2536
G01 X44.2640 Y5.3465
G01 X44.2414 Y5.4377
G01 X44.2367 Y5.4533
G01 X44.2077 Y5.5341
G01 X44.2015 Y5.5491
G01 X44.1612 Y5.6340
G01 X44.1087 Y5.7216
G01 X44.0478 Y5.8036
G01 X43.9849 Y5.8734
G01 X43.9734 Y5.8849
G01 X43.9036 Y5.9478
G01 X43.8216 Y6.0087
G01 X43.7340 Y6.0612
G01 X43.6417 Y6.1048
G01 X43.5455 Y6.1392
G01 X43.4465 Y6.1640
G01 X43.3455 Y6.1790
G01 X43.2516 Y6.1838
G01 X43.2354 Y6.1838
G01 X43.1415 Y6.1790
G01 X43.0405 Y6.1640
G01 X42.9415 Y6.1392
G01 X42.8529 Y6.1077
G01 X42.8379 Y6.1015
G01 X42.7530 Y6.0612
G01 X42.6723 Y6.0130
G01 X42.6588 Y6.0040
G01 X42.5898 Y5.9528
G01 X42.5772 Y5.9425
G01 X42.5077 Y5.8793
G01 X42.4440 Y5.8092
G01 X31.3430 Y5.8092
G01 X31.2793 Y5.8793
G01 X31.2098 Y5.9425
G01 X31.1972 Y5.9528
G01 X31.1216 Y6.0087
G01 X31.0411 Y6.0572
G01 X31.0267 Y6.0648
G01 X30.9491 Y6.1015
G01 X30.9341 Y6.1077
G01 X30.8455 Y6.1392
G01 X30.7465 Y6.1640
G01 X30.6455 Y6.1790
G01 X30.5516 Y6.1838
G01 X30.5394 Y6.1840
G01 X30.4415 Y6.1790
G01 X30.3485 Y6.1654
G01 X30.3326 Y6.1623
G01 X30.2415 Y6.1392
G01 X30.1529 Y6.1077
G01 X30.1379 Y6.1015
G01 X30.0603 Y6.0648
G01 X30.0459 Y6.0572
G01 X29.9654 Y6.0087
G01 X29.8834 Y5.9478
G01 X29.8077 Y5.8793
G01 X29.7392 Y5.8036
G01 X29.6783 Y5.7216
G01 X29.6258 Y5.6340
G01 X29.5822 Y5.5417
G01 X29.5478 Y5.4455
G01 X29.5230 Y5.3465
G01 X29.5080 Y5.2455
G01 X29.5030 Y5.1435
G01 X29.5080 Y5.0415
G01 X29.5230 Y4.9405
G01 X29.5478 Y4.8415
G01 X29.5822 Y4.7453
G01 X29.6258 Y4.6530
G01 X29.6783 Y4.5654
G01 X29.7392 Y4.4834
G01 X29.8077 Y4.4077
G01 X29.8834 Y4.3392
G01 X29.9654 Y4.2783
G01 X30.0530 Y4.2258
G01 X30.1453 Y4.1822
G01 X30.2415 Y4.1478
G01 X30.3405 Y4.1230
G01 X30.4415 Y4.1080
G01 X30.5435 Y4.1030
G01 X30.6455 Y4.1080
G01 X30.7465 Y4.1230
G01 X30.8455 Y4.1478
G01 X30.9417 Y4.1822
G01 X31.0340 Y4.2258
G01 X31.1216 Y4.2783
G01 X31.2036 Y4.3392
G01 X31.2793 Y4.4077
G01 X31.3430 Y4.4778
G00 Z2.0000
G00 X31.4717 Y4.1799
G01 F60.00
G01 Z-0.2001
G01 F320.00
G01 X42.3153 Y4.1799
G01 X42.3772 Y4.1237
G01 X42.3944 Y4.1089
G01 X42.4123 Y4.0949
G01 X42.4813 Y4.0437
G01 X42.4999 Y4.0306
G01 X42.5094 Y4.0244
G01 X42.5928 Y3.9743
G01 X42.6126 Y3.9631
G01 X42.6329 Y3.9529
G01 X42.7105 Y3.9162
G01 X42.7209 Y3.9114
G01 X42.7419 Y3.9027
G01 X42.8334 Y3.8698
G01 X42.8550 Y3.8627
G01 X42.8769 Y3.8566
G01 X42.9602 Y3.8358
G01 X42.9824 Y3.8308
G01 X43.0048 Y3.8269
G01 X43.0897 Y3.8143
G01 X43.1123 Y3.8115
G01 X43.1350 Y3.8098
G01 X43.2208 Y3.8056
G01 X43.2435 Y3.8051
G01 X43.2549 Y3.8052
G01 X43.3520 Y3.8098
G01 X43.3747 Y3.8115
G01 X43.3973 Y3.8143
G01 X43.4822 Y3.8269
G01 X43.5046 Y3.8308
G01 X43.5268 Y3.8358
G01 X43.6101 Y3.8566
G01 X43.6320 Y3.8627
G01 X43.6536 Y3.8698
G01 X43.7345 Y3.8988
G01 X43.7557 Y3.9070
G01 X43.7765 Y3.9162
G01 X43.8541 Y3.9529
G01 X43.8744 Y3.9631
G01 X43.8942 Y3.9743
G01 X43.9679 Y4.0185
G01 X43.9871 Y4.0306
G01 X44.0057 Y4.0437
G01 X44.0747 Y4.0949
G01 X44.0926 Y4.1089
G01 X44.1098 Y4.1237
G01 X44.1734 Y4.1814
G01 X44.1899 Y4.1971
G01 X44.2056 Y4.2136
G01 X44.2633 Y4.2772
G01 X44.2781 Y4.2944
G01 X44.2921 Y4.3123
G01 X44.3433 Y4.3813
G01 X44.3564 Y4.3999
G01 X44.3685 Y4.4191
G01 X44.4127 Y4.4928
G01 X44.4239 Y4.5126
G01 X44.4341 Y4.5329
G01 X44.4708 Y4.6105
G01 X44.4800 Y4.6313
G01 X44.4843 Y4.6419
G01 X44.5172 Y4.7334
G01 X44.5243 Y4.7550
G01 X44.5304 Y4.7769
G01 X44.5512 Y4.8602
G01 X44.5562 Y4.8824
G01 X44.5601 Y4.9048
G01 X44.5727 Y4.9897
G01 X44.5755 Y5.0123
G01 X44.5772 Y5.0350
G01 X44.5814 Y5.1208
G01 X44.5818 Y5.1321
G01 X44.5818 Y5.1549
G01 X44.5772 Y5.2520
G01 X44.5755 Y5.2747
G01 X44.5727 Y5.2973
G01 X44.5601 Y5.3822
G01 X44.5583 Y5.3934
G01 X44.5539 Y5.4157
G01 X44.5304 Y5.5101
G01 X44.5275 Y5.5211
G01 X44.5209 Y5.5429
G01 X44.4843 Y5.6451
G01 X44.4800 Y5.6557
G01 X44.4708 Y5.6765
G01 X44.4341 Y5.7541
G01 X44.4239 Y5.7744
G01 X44.4127 Y5.7942
G01 X44.3685 Y5.8679
G01 X44.3626 Y5.8776
G01 X44.3499 Y5.8965
G01 X44.2921 Y5.9747
G01 X44.2781 Y5.9926
G01 X44.2708 Y6.0013
G01 X44.1979 Y6.0818
G01 X44.1818 Y6.0979
G01 X44.1734 Y6.1056
G01 X44.1098 Y6.1633
G01 X44.0926 Y6.1781
G01 X44.0837 Y6.1852
G01 X43.9965 Y6.2499
G01 X43.9776 Y6.2626
G01 X43.9679 Y6.2685
G01 X43.8844 Y6.3184
G01 X43.8744 Y6.3239
G01 X43.8541 Y6.3341
G01 X43.7765 Y6.3708
G01 X43.7557 Y6.3800
G01 X43.7345 Y6.3882
G01 X43.6639 Y6.4135
G01 X43.7345 Y6.4388
G01 X43.7557 Y6.4470
G01 X43.7765 Y6.4562
G01 X43.8541 Y6.4929
G01 X43.8744 Y6.5031
G01 X43.8942 Y6.5143
G01 X43.9679 Y6.5585
G01 X43.9871 Y6.5706
G01 X44.0057 Y6.5837
G01 X44.0747 Y6.6349
G01 X44.0926 Y6.6489
G01 X44.1098 Y6.6637
G01 X44.1734 Y6.7214
G01 X44.1899 Y6.7371
G01 X44.2056 Y6.7536
G01 X44.2633 Y6.8172
G01 X44.2781 Y6.8344
G01 X44.2921 Y6.8523
G01 X44.3433 Y6.9213
G01 X44.3564 Y6.9399
G01 X44.3685 Y6.9591
G01 X44.4184 Y7.0426
G01 X44.4291 Y7.0627
G01 X44.4341 Y7.0729
G01 X44.4708 Y7.1505
G01 X44.4800 Y7.1713
G01 X44.4882 Y7.1925
G01 X44.5172 Y7.2734
G01 X44.5243 Y7.2950
G01 X44.5304 Y7.3169
G01 X44.5539 Y7.4113
G01 X44.5562 Y7.4224
G01 X44.5601 Y7.4448
G01 X44.5727 Y7.5297
G01 X44.5755 Y7.5523
G01 X44.5772 Y7.5750
G01 X44.5814 Y7.6608
G01 X44.5819 Y7.6835
G01 X44.5814 Y7.7062
G01 X44.5772 Y7.7920
G01 X44.5755 Y7.8147
G01 X44.5727 Y7.8373
G01 X44.5601 Y7.9222
G01 X44.5562 Y7.9446
G01 X44.5512 Y7.9668
G01 X44.5304 Y8.0501
G01 X44.5243 Y8.0720
G01 X44.5172 Y8.0936
G01 X44.4882 Y8.1745
G01 X44.4800 Y8.1957
G01 X44.4708 Y8.2165
G01 X44.4341 Y8.2941
G01 X44.4239 Y8.3144
G01 X44.4127 Y8.3342
G01 X44.3685 Y8.4079
G01 X44.3564 Y8.4271
G01 X44.3433 Y8.4457
G01 X44.2921 Y8.5147
G01 X44.2781 Y8.5326
G01 X44.2633 Y8.5498
G01 X44.2056 Y8.6134
G01 X44.1899 Y8.6299
G01 X44.1734 Y8.6456
G01 X44.1098 Y8.7033
G01 X44.0926 Y8.7181
G01 X44.0747 Y8.7321
G01 X44.0057 Y8.7833
G01 X43.9871 Y8.7964
G01 X43.9679 Y8.8085
G01 X43.8942 Y8.8527
G01 X43.8744 Y8.8639
G01 X43.8541 Y8.8741
G01 X43.7765 Y8.9108
G01 X43.7557 Y8.9200
G01 X43.7345 Y8.9282
G01 X43.6639 Y8.9535
G01 X43.7345 Y8.9788
G01 X43.7557 Y8.9870
G01 X43.7765 Y8.9962
G01 X43.8541 Y9.0329
G01 X43.8744 Y9.0431
G01 X43.8942 Y9.0543
G01 X43.9679 Y9.0985
G01 X43.9871 Y9.1106
G01 X44.0057 Y9.1237
G01 X44.0837 Y9.1818
G01 X44.1013 Y9.1962
G01 X44.1098 Y9.2037
G01 X44.1734 Y9.2614
G01 X44.1899 Y9.2771
G01 X44.2056 Y9.2936
G01 X44.2633 Y9.3572
G01 X44.2781 Y9.3744
G01 X44.2921 Y9.3923
G01 X44.3433 Y9.4613
G01 X44.3564 Y9.4799
G01 X44.3626 Y9.4894
G01 X44.4127 Y9.5728
G01 X44.4239 Y9.5926
G01 X44.4341 Y9.6129
G01 X44.4708 Y9.6905
G01 X44.4800 Y9.7113
G01 X44.4882 Y9.7325
G01 X44.5172 Y9.8134
G01 X44.5243 Y9.8350
G01 X44.5304 Y9.8569
G01 X44.5512 Y9.9402
G01 X44.5562 Y9.9624
G01 X44.5583 Y9.9736
G01 X44.5727 Y10.0697
G01 X44.5755 Y10.0923
G01 X44.5772 Y10.1150
G01 X44.5814 Y10.2008
G01 X44.5819 Y10.2235
G01 X44.5814 Y10.2462
G01 X44.5772 Y10.3320
G01 X44.5755 Y10.3547
G01 X44.5742 Y10.3660
G01 X44.5601 Y10.4622
G01 X44.5562 Y10.4846
G01 X44.5512 Y10.5068
G01 X44.5304 Y10.5901
G01 X44.5243 Y10.6120
G01 X44.5172 Y10.6336
G01 X44.4882 Y10.7145
G01 X44.4800 Y10.7357
G01 X44.4708 Y10.7565
G01 X44.4341 Y10.8341
G01 X44.4239 Y10.8544
G01 X44.4127 Y10.8742
G01 X44.3685 Y10.9479
G01 X44.3564 Y10.9671
G01 X44.3433 Y10.9857
G01 X44.2921 Y11.0547
G01 X44.2781 Y11.0726
G01 X44.2633 Y11.0898
G01 X44.2056 Y11.1534
G01 X44.1899 Y11.1699
G01 X44.1734 Y11.1856
G01 X44.1098 Y11.2433
G01 X44.0926 Y11.2581
G01 X44.0747 Y11.2721
G01 X44.0057 Y11.3233
G01 X43.9871 Y11.3364
G01 X43.9679 Y11.3485
G01 X43.8942 Y11.3927
G01 X43.8744 Y11.4039
G01 X43.8541 Y11.4141
G01 X43.7765 Y11.4508
G01 X43.7557 Y11.4600
G01 X43.7345 Y11.4682
G01 X43.6639 Y11.4935
G01 X43.7345 Y11.5188
G01 X43.7557 Y11.5270
G01 X43.7765 Y11.5362
G01 X43.8541 Y11.5729
G01 X43.8744 Y11.5831
G01 X43.8942 Y11.5943
G01 X43.9679 Y11.6385
G01 X43.9871 Y11.6506
G01 X44.0057 Y11.6637
G01 X44.0747 Y11.7149
G01 X44.0926 Y11.7289
G01 X44.1098 Y11.7437
G01 X44.1818 Y11.8091
G01 X44.1899 Y11.8171
G01 X44.2056 Y11.8336
G01 X44.2633 Y11.8972
G01 X44.2781 Y11.9144
G01 X44.2921 Y11.9323
G01 X44.3433 Y12.0013
G01 X44.3564 Y12.0199
G01 X44.3685 Y12.0391
G01 X44.4127 Y12.1128
G01 X44.4239 Y12.1326
G01 X44.4341 Y12.1529
G01 X44.4708 Y12.2305
G01 X44.4800 Y12.2513
G01 X44.4882 Y12.2725
G01 X44.5209 Y12.3641
G01 X44.5243 Y12.3750
G01 X44.5304 Y12.3969
G01 X44.5512 Y12.4802
G01 X44.5562 Y12.5024
G01 X44.5601 Y12.5248
G01 X44.5727 Y12.6097
G01 X44.5755 Y12.6323
G01 X44.5772 Y12.6550
G01 X44.5814 Y12.7408
G01 X44.5819 Y12.7635
G01 X44.5814 Y12.7862
G01 X44.5772 Y12.8720
G01 X44.5755 Y12.8947
G01 X44.5727 Y12.9173
G01 X44.5601 Y13.0022
G01 X44.5562 Y13.0246
G01 X44.5512 Y13.0468
G01 X44.5304 Y13.1301
G01 X44.5243 Y13.1520
G01 X44.5172 Y13.1736
G01 X44.4882 Y13.2545
G01 X44.4800 Y13.2757
G01 X44.4708 Y13.2965
G01 X44.4341 Y13.3741
G01 X44.4239 Y13.3944
G01 X44.4127 Y13.4142
G01 X44.3685 Y13.4879
G01 X44.3564 Y13.5071
G01 X44.3433 Y13.5257
G01 X44.2921 Y13.5947
G01 X44.2781 Y13.6126
G01 X44.2633 Y13.6298
G01 X44.2056 Y13.6934
G01 X44.1899 Y13.7099
G01 X44.1734 Y13.7256
G01 X44.1098 Y13.7833
G01 X44.0926 Y13.7981
G01 X44.0747 Y13.8121
G01 X44.0057 Y13.8633
G01 X43.9871 Y13.8764
G01 X43.9679 Y13.8885
G01 X43.8942 Y13.9327
G01 X43.8744 Y13.9439
G01 X43.8541 Y13.9541
G01 X43.7765 Y13.9908
G01 X43.7557 Y14.0000
G01 X43.7345 Y14.0082
G01 X43.6639 Y14.0335
G01 X43.7345 Y14.0588
G01 X43.7557 Y14.0670
G01 X43.7765 Y14.0762
G01 X43.8541 Y14.1129
G01 X43.8744 Y14.1231
G01 X43.8942 Y14.1343
G01 X43.9679 Y14.1785
G01 X43.9871 Y14.1906
G01 X44.0057 Y14.2037
G01 X44.0747 Y14.2549
G01 X44.0926 Y14.2689
G01 X44.1098 Y14.2837
G01 X44.1818 Y14.3491
G01 X44.1899 Y14.3571
G01 X44.2056 Y14.3736
G01 X44.2633 Y14.4372
G01 X44.2781 Y14.4544
G01 X44.2921 Y14.4723
G01 X44.3433 Y14.5413
G01 X44.3564 Y14.5599
G01 X44.3685 Y14.5791
G01 X44.4127 Y14.6528
G01 X44.4239 Y14.6726
G01 X44.4341 Y14.6929
G01 X44.4708 Y14.7705
G01 X44.4800 Y14.7913
G01 X44.4843 Y14.8019
G01 X44.5172 Y14.8934
G01 X44.5243 Y14.9150
G01 X44.5304 Y14.9369
G01 X44.5512 Y15.0202
G01 X44.5562 Y15.0424
G01 X44.5601 Y15.0648
G01 X44.5727 Y15.1497
G01 X44.5755 Y15.1723
G01 X44.5772 Y15.1950
G01 X44.5814 Y15.2808
G01 X44.5819 Y15.3035
G01 X44.5814 Y15.3262
G01 X44.5765 Y15.4234
G01 X44.5742 Y15.4460
G01 X44.5727 Y15.4573
G01 X44.5601 Y15.5422
G01 X44.5562 Y15.5646
G01 X44.5512 Y15.5868
G01 X44.5304 Y15.6701
G01 X44.5243 Y15.6920
G01 X44.5172 Y15.7136
G01 X44.4882 Y15.7945
G01 X44.4800 Y15.8157
G01 X44.4708 Y15.8365
G01 X44.4341 Y15.9141
G01 X44.4239 Y15.9344
G01 X44.4127 Y15.9542
G01 X44.3685 Y16.0279
G01 X44.3564 Y16.0471
G01 X44.3433 Y16.0657
G01 X44.2852 Y16.1437
G01 X44.2708 Y16.1613
G01 X44.2633 Y16.1698
G01 X44.2056 Y16.2334
G01 X44.1899 Y16.2499
G01 X44.1734 Y16.2656
G01 X44.1098 Y16.3233
G01 X44.0926 Y16.3381
G01 X44.0747 Y16.3521
G01 X43.9965 Y16.4099
G01 X43.9776 Y16.4226
G01 X43.9679 Y16.4285
G01 X43.8942 Y16.4727
G01 X43.8844 Y16.4784
G01 X43.8643 Y16.4891
G01 X43.7765 Y16.5308
G01 X43.7557 Y16.5400
G01 X43.7345 Y16.5482
G01 X43.6639 Y16.5735
G01 X43.7345 Y16.5988
G01 X43.7557 Y16.6070
G01 X43.7765 Y16.6162
G01 X43.8541 Y16.6529
G01 X43.8744 Y16.6631
G01 X43.8942 Y16.6743
G01 X43.9679 Y16.7185
G01 X43.9871 Y16.7306
G01 X44.0057 Y16.7437
G01 X44.0747 Y16.7949
G01 X44.0926 Y16.8089
G01 X44.1098 Y16.8237
G01 X44.1818 Y16.8891
G01 X44.1979 Y16.9052
G01 X44.2056 Y16.9136
G01 X44.2633 Y16.9772
G01 X44.2781 Y16.9944
G01 X44.2921 Y17.0123
G01 X44.3433 Y17.0813
G01 X44.3564 Y17.0999
G01 X44.3685 Y17.1191
G01 X44.4127 Y17.1928
G01 X44.4239 Y17.2126
G01 X44.4341 Y17.2329
G01 X44.4708 Y17.3105
G01 X44.4800 Y17.3313
G01 X44.4843 Y17.3419
G01 X44.5172 Y17.4334
G01 X44.5243 Y17.4550
G01 X44.5304 Y17.4769
G01 X44.5512 Y17.5602
G01 X44.5562 Y17.5824
G01 X44.5601 Y17.6048
G01 X44.5727 Y17.6897
G01 X44.5755 Y17.7123
G01 X44.5772 Y17.7350
G01 X44.5814 Y17.8208
G01 X44.5819 Y17.8435
G01 X44.5814 Y17.8662
G01 X44.5772 Y17.9520
G01 X44.5755 Y17.9747
G01 X44.5727 Y17.9973
G01 X44.5601 Y18.0822
G01 X44.5583 Y18.0934
G01 X44.5539 Y18.1157
G01 X44.5304 Y18.2101
G01 X44.5243 Y18.2320
G01 X44.5172 Y18.2536
G01 X44.4843 Y18.3451
G01 X44.4800 Y18.3557
G01 X44.4708 Y18.3765
G01 X44.4341 Y18.4541
G01 X44.4239 Y18.4744
G01 X44.4127 Y18.4942
G01 X44.3685 Y18.5679
G01 X44.3564 Y18.5871
G01 X44.3433 Y18.6057
G01 X44.2852 Y18.6837
G01 X44.2708 Y18.7013
G01 X44.2633 Y18.7098
G01 X44.2056 Y18.7734
G01 X44.1899 Y18.7899
G01 X44.1734 Y18.8056
G01 X44.1098 Y18.8633
G01 X44.0926 Y18.8781
G01 X44.0747 Y18.8921
G01 X43.9965 Y18.9499
G01 X43.9871 Y18.9564
G01 X43.9679 Y18.9685
G01 X43.8942 Y19.0127
G01 X43.8844 Y19.0184
G01 X43.8643 Y19.0291
G01 X43.7765 Y19.0708
G01 X43.7557 Y19.0800
G01 X43.7345 Y19.0882
G01 X43.6639 Y19.1135
G01 X43.7345 Y19.1388
G01 X43.7557 Y19.1470
G01 X43.7765 Y19.1562
G01 X43.8541 Y19.1929
G01 X43.8744 Y19.2031
G01 X43.8942 Y19.2143
G01 X43.9679 Y19.2585
G01 X43.9871 Y19.2706
G01 X44.0057 Y19.2837
G01 X44.0747 Y19.3349
G01 X44.0926 Y19.3489
G01 X44.1098 Y19.3637
G01 X44.1734 Y19.4214
G01 X44.1818 Y19.4291
G01 X44.1979 Y19.4452
G01 X44.2633 Y19.5172
G01 X44.2781 Y19.5344
G01 X44.2921 Y19.5523
G01 X44.3499 Y19.6305
G01 X44.3626 Y19.6494
G01 X44.3685 Y19.6591
G01 X44.4127 Y19.7328
G01 X44.4239 Y19.7526
G01 X44.4341 Y19.7729
G01 X44.4708 Y19.8505
G01 X44.4800 Y19.8713
G01 X44.4882 Y19.8925
G01 X44.5172 Y19.9734
G01 X44.5243 Y19.9950
G01 X44.5304 Y20.0169
G01 X44.5512 Y20.1002
G01 X44.5562 Y20.1224
G01 X44.5601 Y20.1448
G01 X44.5727 Y20.2297
G01 X44.5742 Y20.2410
G01 X44.5765 Y20.2636
G01 X44.5814 Y20.3608
G01 X44.5819 Y20.3835
G01 X44.5814 Y20.4062
G01 X44.5772 Y20.4920
G01 X44.5755 Y20.5147
G01 X44.5727 Y20.5373
G01 X44.5601 Y20.6222
G01 X44.5562 Y20.6446
G01 X44.5512 Y20.6668
G01 X44.5304 Y20.7501
G01 X44.5275 Y20.7611
G01 X44.5209 Y20.7829
G01 X44.4882 Y20.8745
G01 X44.4800 Y20.8957
G01 X44.4708 Y20.9165
G01 X44.4291 Y21.0043
G01 X44.4239 Y21.0144
G01 X44.4127 Y21.0342
G01 X44.3685 Y21.1079
