(G-CODE GENERATED BY FLATCAM v8.994 - www.flatcam.org - Version Date: 2020/11/7)

(Name: Conn - NC Drill Data - [Through Hole].drl_cnc)
(Type: G-code from Geometry)
(Units: MM)

(Created on Monday, 02 December 2024 at 12:29)

(This preprocessor is the default preprocessor used by FlatCAM.)
(It is made to work with MACH3 compatible motion controllers.)


(TOOLS DIAMETER: )
(Tool: 1 -> Dia: 0.889)

(FEEDRATE Z: )
(Tool: 1 -> Feedrate: 300)

(FEEDRATE RAPIDS: )
(Tool: 1 -> Feedrate Rapids: 1500)

(Z_CUT: )
(Tool: 1 -> Z_Cut: -2.0)

(Tools Offset: )
(Tool: 1 -> Offset Z: 0.0)

(Z_MOVE: )
(Tool: 1 -> Z_Move: 2)

(Z Toolchange: 15 mm)
(X,Y Toolchange: 0.0000, 0.0000 mm)
(Z Start: None mm)
(Z End: 0.5 mm)
(X,Y End: None mm)
(Steps per circle: 64)
(Preprocessor Excellon: default)

(X range:    4.6990 ...  140.2080  mm)
(Y range:    4.6990 ...   94.4880  mm)

(Spindle Speed: 0 RPM)
G21
G90
G94

G01 F300.00
G00 Z15.0000

G01 F300.00
M03
G00 X139.7635 Y38.1635
G01 Z-2.0000
G01 Z0
G00 Z2.0000
G00 X139.7635 Y40.7035
G01 Z-2.0000
G01 Z0
G00 Z2.0000
G00 X139.7635 Y43.2435
G01 Z-2.0000
G01 Z0
G00 Z2.0000
G00 X139.7635 Y73.7235
G01 Z-2.0000
G01 Z0
G00 Z2.0000
G00 X139.7635 Y76.2635
G01 Z-2.0000
G01 Z0
G00 Z2.0000
G00 X139.7635 Y78.8035
G01 Z-2.0000
G01 Z0
G00 Z2.0000
G00 X139.7635 Y81.3435
G01 Z-2.0000
G01 Z0
G00 Z2.0000
G00 X139.7635 Y83.8835
G01 Z-2.0000
G01 Z0
G00 Z2.0000
G00 X139.7635 Y86.4235
G01 Z-2.0000
G01 Z0
G00 Z2.0000
G00 X139.7635 Y88.9635
G01 Z-2.0000
G01 Z0
G00 Z2.0000
G00 X139.7635 Y91.5035
G01 Z-2.0000
G01 Z0
G00 Z2.0000
G00 X139.7635 Y94.0435
G01 Z-2.0000
G01 Z0
G00 Z2.0000
G00 X127.0635 Y94.0435
G01 Z-2.0000
G01 Z0
G00 Z2.0000
G00 X127.0635 Y91.5035
G01 Z-2.0000
G01 Z0
G00 Z2.0000
G00 X127.0635 Y88.9635
G01 Z-2.0000
G01 Z0
G00 Z2.0000
G00 X127.0635 Y86.4235
G01 Z-2.0000
G01 Z0
G00 Z2.0000
G00 X127.0635 Y83.8835
G01 Z-2.0000
G01 Z0
G00 Z2.0000
G00 X127.0635 Y81.3435
G01 Z-2.0000
G01 Z0
G00 Z2.0000
G00 X127.0635 Y78.8035
G01 Z-2.0000
G01 Z0
G00 Z2.0000
G00 X127.0635 Y76.2635
G01 Z-2.0000
G01 Z0
G00 Z2.0000
G00 X127.0635 Y73.7235
G01 Z-2.0000
G01 Z0
G00 Z2.0000
G00 X119.4435 Y61.0235
G01 Z-2.0000
G01 Z0
G00 Z2.0000
G00 X119.4435 Y58.4835
G01 Z-2.0000
G01 Z0
G00 Z2.0000
G00 X119.4435 Y55.9435
G01 Z-2.0000
G01 Z0
G00 Z2.0000
G00 X99.1235 Y81.3435
G01 Z-2.0000
G01 Z0
G00 Z2.0000
G00 X101.6635 Y81.3435
G01 Z-2.0000
G01 Z0
G00 Z2.0000
G00 X104.2035 Y81.3435
G01 Z-2.0000
G01 Z0
G00 Z2.0000
G00 X106.7435 Y81.2838
G01 Z-2.0000
G01 Z0
G00 Z2.0000
G00 X109.2835 Y81.2838
G01 Z-2.0000
G01 Z0
G00 Z2.0000
G00 X111.8235 Y81.2838
G01 Z-2.0000
G01 Z0
G00 Z2.0000
G00 X114.3635 Y81.2838
G01 Z-2.0000
G01 Z0
G00 Z2.0000
G00 X114.3635 Y94.0435
G01 Z-2.0000
G01 Z0
G00 Z2.0000
G00 X111.8235 Y94.0435
G01 Z-2.0000
G01 Z0
G00 Z2.0000
G00 X109.2835 Y94.0435
G01 Z-2.0000
G01 Z0
G00 Z2.0000
G00 X106.7435 Y94.0435
G01 Z-2.0000
G01 Z0
G00 Z2.0000
G00 X104.2035 Y94.0435
G01 Z-2.0000
G01 Z0
G00 Z2.0000
G00 X101.6635 Y94.0435
G01 Z-2.0000
G01 Z0
G00 Z2.0000
G00 X99.1235 Y94.0435
G01 Z-2.0000
G01 Z0
G00 Z2.0000
G00 X96.5835 Y94.0435
G01 Z-2.0000
G01 Z0
G00 Z2.0000
G00 X94.0435 Y94.0435
G01 Z-2.0000
G01 Z0
G00 Z2.0000
G00 X91.5035 Y94.0435
G01 Z-2.0000
G01 Z0
G00 Z2.0000
G00 X88.9635 Y94.0435
G01 Z-2.0000
G01 Z0
G00 Z2.0000
G00 X86.4235 Y94.0435
G01 Z-2.0000
G01 Z0
G00 Z2.0000
G00 X83.8835 Y94.0435
G01 Z-2.0000
G01 Z0
G00 Z2.0000
G00 X81.3435 Y94.0435
G01 Z-2.0000
G01 Z0
G00 Z2.0000
G00 X78.8035 Y94.0435
G01 Z-2.0000
G01 Z0
G00 Z2.0000
G00 X76.2635 Y94.0435
G01 Z-2.0000
G01 Z0
G00 Z2.0000
G00 X73.7235 Y94.0435
G01 Z-2.0000
G01 Z0
G00 Z2.0000
G00 X71.1835 Y94.0435
G01 Z-2.0000
G01 Z0
G00 Z2.0000
G00 X68.6435 Y94.0435
G01 Z-2.0000
G01 Z0
G00 Z2.0000
G00 X66.1035 Y94.0435
G01 Z-2.0000
G01 Z0
G00 Z2.0000
G00 X63.5635 Y94.0435
G01 Z-2.0000
G01 Z0
G00 Z2.0000
G00 X61.0235 Y94.0435
G01 Z-2.0000
G01 Z0
G00 Z2.0000
G00 X58.4835 Y94.0435
G01 Z-2.0000
G01 Z0
G00 Z2.0000
G00 X55.9435 Y94.0435
G01 Z-2.0000
G01 Z0
G00 Z2.0000
G00 X96.5835 Y81.3435
G01 Z-2.0000
G01 Z0
G00 Z2.0000
G00 X94.0435 Y81.3435
G01 Z-2.0000
G01 Z0
G00 Z2.0000
G00 X91.5035 Y81.3435
G01 Z-2.0000
G01 Z0
G00 Z2.0000
G00 X88.9635 Y81.3435
G01 Z-2.0000
G01 Z0
G00 Z2.0000
G00 X86.4235 Y81.3435
G01 Z-2.0000
G01 Z0
G00 Z2.0000
G00 X83.8835 Y81.3435
G01 Z-2.0000
G01 Z0
G00 Z2.0000
G00 X81.3435 Y81.3435
G01 Z-2.0000
G01 Z0
G00 Z2.0000
G00 X78.8035 Y81.3435
G01 Z-2.0000
G01 Z0
G00 Z2.0000
G00 X76.2635 Y81.3435
G01 Z-2.0000
G01 Z0
G00 Z2.0000
G00 X73.7235 Y81.3435
G01 Z-2.0000
G01 Z0
G00 Z2.0000
G00 X71.1835 Y81.3435
G01 Z-2.0000
G01 Z0
G00 Z2.0000
G00 X68.6435 Y81.3435
G01 Z-2.0000
G01 Z0
G00 Z2.0000
G00 X66.1035 Y81.3435
G01 Z-2.0000
G01 Z0
G00 Z2.0000
G00 X63.5635 Y81.3435
G01 Z-2.0000
G01 Z0
G00 Z2.0000
G00 X61.0235 Y81.3435
G01 Z-2.0000
G01 Z0
G00 Z2.0000
G00 X58.4835 Y81.3435
G01 Z-2.0000
G01 Z0
G00 Z2.0000
G00 X55.9435 Y81.3435
G01 Z-2.0000
G01 Z0
G00 Z2.0000
G00 X43.2435 Y73.7235
G01 Z-2.0000
G01 Z0
G00 Z2.0000
G00 X30.5435 Y71.1835
G01 Z-2.0000
G01 Z0
G00 Z2.0000
G00 X30.5435 Y68.6435
G01 Z-2.0000
G01 Z0
G00 Z2.0000
G00 X17.8435 Y71.1835
G01 Z-2.0000
G01 Z0
G00 Z2.0000
G00 X17.8435 Y68.6435
G01 Z-2.0000
G01 Z0
G00 Z2.0000
G00 X17.8435 Y66.1035
G01 Z-2.0000
G01 Z0
G00 Z2.0000
G00 X17.8435 Y63.5635
G01 Z-2.0000
G01 Z0
G00 Z2.0000
G00 X5.1435 Y63.5635
G01 Z-2.0000
G01 Z0
G00 Z2.0000
G00 X5.1435 Y66.1035
G01 Z-2.0000
G01 Z0
G00 Z2.0000
G00 X5.1435 Y68.6435
G01 Z-2.0000
G01 Z0
G00 Z2.0000
G00 X5.1435 Y71.1835
G01 Z-2.0000
G01 Z0
G00 Z2.0000
G00 X5.1435 Y73.7235
G01 Z-2.0000
G01 Z0
G00 Z2.0000
G00 X5.1435 Y76.2635
G01 Z-2.0000
G01 Z0
G00 Z2.0000
G00 X5.1435 Y78.8035
G01 Z-2.0000
G01 Z0
G00 Z2.0000
G00 X5.1435 Y81.3435
G01 Z-2.0000
G01 Z0
G00 Z2.0000
G00 X5.1435 Y83.8835
G01 Z-2.0000
G01 Z0
G00 Z2.0000
G00 X5.1435 Y86.4235
G01 Z-2.0000
G01 Z0
G00 Z2.0000
G00 X5.1435 Y88.9635
G01 Z-2.0000
G01 Z0
G00 Z2.0000
G00 X5.1435 Y91.5035
G01 Z-2.0000
G01 Z0
G00 Z2.0000
G00 X5.1435 Y94.0435
G01 Z-2.0000
G01 Z0
G00 Z2.0000
G00 X17.8435 Y94.0435
G01 Z-2.0000
G01 Z0
G00 Z2.0000
G00 X17.8435 Y91.5035
G01 Z-2.0000
G01 Z0
G00 Z2.0000
G00 X17.8435 Y88.9635
G01 Z-2.0000
G01 Z0
G00 Z2.0000
G00 X17.8435 Y86.4235
G01 Z-2.0000
G01 Z0
G00 Z2.0000
G00 X17.8435 Y83.8835
G01 Z-2.0000
G01 Z0
G00 Z2.0000
G00 X17.8435 Y81.3435
G01 Z-2.0000
G01 Z0
G00 Z2.0000
G00 X17.8435 Y78.8035
G01 Z-2.0000
G01 Z0
G00 Z2.0000
G00 X17.8435 Y76.2635
G01 Z-2.0000
G01 Z0
G00 Z2.0000
G00 X17.8435 Y73.7235
G01 Z-2.0000
G01 Z0
G00 Z2.0000
G00 X30.5435 Y73.7235
G01 Z-2.0000
G01 Z0
G00 Z2.0000
G00 X43.2435 Y71.1835
G01 Z-2.0000
G01 Z0
G00 Z2.0000
G00 X43.2435 Y68.6435
G01 Z-2.0000
G01 Z0
G00 Z2.0000
G00 X55.9435 Y63.5635
G01 Z-2.0000
G01 Z0
G00 Z2.0000
G00 X55.9435 Y61.0235
G01 Z-2.0000
G01 Z0
G00 Z2.0000
G00 X55.9435 Y58.4835
G01 Z-2.0000
G01 Z0
G00 Z2.0000
G00 X68.6435 Y58.4835
G01 Z-2.0000
G01 Z0
G00 Z2.0000
G00 X68.6435 Y61.0235
G01 Z-2.0000
G01 Z0
G00 Z2.0000
G00 X68.6435 Y63.5635
G01 Z-2.0000
G01 Z0
G00 Z2.0000
G00 X81.3435 Y63.5635
G01 Z-2.0000
G01 Z0
G00 Z2.0000
G00 X81.3435 Y61.0235
G01 Z-2.0000
G01 Z0
G00 Z2.0000
G00 X81.3435 Y58.4835
G01 Z-2.0000
G01 Z0
G00 Z2.0000
G00 X94.0435 Y58.4835
G01 Z-2.0000
G01 Z0
G00 Z2.0000
G00 X94.0435 Y61.0235
G01 Z-2.0000
G01 Z0
G00 Z2.0000
G00 X94.0435 Y63.5635
G01 Z-2.0000
G01 Z0
G00 Z2.0000
G00 X106.7435 Y61.0235
G01 Z-2.0000
G01 Z0
G00 Z2.0000
G00 X106.7435 Y58.4835
G01 Z-2.0000
G01 Z0
G00 Z2.0000
G00 X106.7435 Y55.9435
G01 Z-2.0000
G01 Z0
G00 Z2.0000
G00 X94.0435 Y25.4635
G01 Z-2.0000
G01 Z0
G00 Z2.0000
G00 X94.0435 Y22.9235
G01 Z-2.0000
G01 Z0
G00 Z2.0000
G00 X81.3435 Y15.3035
G01 Z-2.0000
G01 Z0
G00 Z2.0000
G00 X81.3435 Y17.8435
G01 Z-2.0000
G01 Z0
G00 Z2.0000
G00 X81.3435 Y20.3835
G01 Z-2.0000
G01 Z0
G00 Z2.0000
G00 X81.3435 Y22.9235
G01 Z-2.0000
G01 Z0
G00 Z2.0000
G00 X81.3435 Y25.4635
G01 Z-2.0000
G01 Z0
G00 Z2.0000
G00 X68.6435 Y25.4635
G01 Z-2.0000
G01 Z0
G00 Z2.0000
G00 X68.6435 Y22.9235
G01 Z-2.0000
G01 Z0
G00 Z2.0000
G00 X68.6435 Y20.3835
G01 Z-2.0000
G01 Z0
G00 Z2.0000
G00 X68.6435 Y17.8435
G01 Z-2.0000
G01 Z0
G00 Z2.0000
G00 X68.6435 Y15.3035
G01 Z-2.0000
G01 Z0
G00 Z2.0000
G00 X68.6435 Y12.7635
G01 Z-2.0000
G01 Z0
G00 Z2.0000
G00 X68.6435 Y10.2235
G01 Z-2.0000
G01 Z0
G00 Z2.0000
G00 X68.6435 Y7.6835
G01 Z-2.0000
G01 Z0
G00 Z2.0000
G00 X55.9435 Y5.1435
G01 Z-2.0000
G01 Z0
G00 Z2.0000
G00 X43.2435 Y7.6835
G01 Z-2.0000
G01 Z0
G00 Z2.0000
G00 X43.2435 Y5.1435
G01 Z-2.0000
G01 Z0
G00 Z2.0000
G00 X30.5435 Y5.1435
G01 Z-2.0000
G01 Z0
G00 Z2.0000
G00 X30.5435 Y7.6835
G01 Z-2.0000
G01 Z0
G00 Z2.0000
G00 X30.5435 Y10.2235
G01 Z-2.0000
G01 Z0
G00 Z2.0000
G00 X30.5435 Y12.7635
G01 Z-2.0000
G01 Z0
G00 Z2.0000
G00 X17.8435 Y25.4635
G01 Z-2.0000
G01 Z0
G00 Z2.0000
G00 X5.1435 Y25.4635
G01 Z-2.0000
G01 Z0
G00 Z2.0000
G00 X5.1435 Y28.0035
G01 Z-2.0000
G01 Z0
G00 Z2.0000
G00 X5.1435 Y30.5435
G01 Z-2.0000
G01 Z0
G00 Z2.0000
G00 X17.8435 Y28.0035
G01 Z-2.0000
G01 Z0
G00 Z2.0000
G00 X17.8435 Y30.5435
G01 Z-2.0000
G01 Z0
G00 Z2.0000
G00 X30.5435 Y35.6235
G01 Z-2.0000
G01 Z0
G00 Z2.0000
G00 X30.5435 Y33.0835
G01 Z-2.0000
G01 Z0
G00 Z2.0000
G00 X30.5435 Y30.5435
G01 Z-2.0000
G01 Z0
G00 Z2.0000
G00 X30.5435 Y28.0035
G01 Z-2.0000
G01 Z0
G00 Z2.0000
G00 X30.5435 Y25.4635
G01 Z-2.0000
G01 Z0
G00 Z2.0000
G00 X30.5435 Y22.9235
G01 Z-2.0000
G01 Z0
G00 Z2.0000
G00 X30.5435 Y20.3835
G01 Z-2.0000
G01 Z0
G00 Z2.0000
G00 X30.5435 Y17.8435
G01 Z-2.0000
G01 Z0
G00 Z2.0000
G00 X30.5435 Y15.3035
G01 Z-2.0000
G01 Z0
G00 Z2.0000
G00 X43.2435 Y10.2235
G01 Z-2.0000
G01 Z0
G00 Z2.0000
G00 X43.2435 Y12.7635
G01 Z-2.0000
G01 Z0
G00 Z2.0000
G00 X43.2435 Y15.3035
G01 Z-2.0000
G01 Z0
G00 Z2.0000
G00 X43.2435 Y17.8435
G01 Z-2.0000
G01 Z0
G00 Z2.0000
G00 X43.2435 Y20.3835
G01 Z-2.0000
G01 Z0
G00 Z2.0000
G00 X43.2435 Y22.9235
G01 Z-2.0000
G01 Z0
G00 Z2.0000
G00 X43.2435 Y25.4635
G01 Z-2.0000
G01 Z0
G00 Z2.0000
G00 X43.2435 Y28.0035
G01 Z-2.0000
G01 Z0
G00 Z2.0000
G00 X43.2435 Y30.5435
G01 Z-2.0000
G01 Z0
G00 Z2.0000
G00 X43.2435 Y33.0835
G01 Z-2.0000
G01 Z0
G00 Z2.0000
G00 X43.2435 Y35.6235
G01 Z-2.0000
G01 Z0
G00 Z2.0000
G00 X55.9435 Y25.4635
G01 Z-2.0000
G01 Z0
G00 Z2.0000
G00 X55.9435 Y22.9235
G01 Z-2.0000
G01 Z0
G00 Z2.0000
G00 X55.9435 Y20.3835
G01 Z-2.0000
G01 Z0
G00 Z2.0000
G00 X55.9435 Y17.8435
G01 Z-2.0000
G01 Z0
G00 Z2.0000
G00 X55.9435 Y15.3035
G01 Z-2.0000
G01 Z0
G00 Z2.0000
G00 X55.9435 Y12.7635
G01 Z-2.0000
G01 Z0
G00 Z2.0000
G00 X55.9435 Y10.2235
G01 Z-2.0000
G01 Z0
G00 Z2.0000
G00 X55.9435 Y7.6835
G01 Z-2.0000
G01 Z0
G00 Z2.0000
G00 X68.6435 Y5.1435
G01 Z-2.0000
G01 Z0
G00 Z2.0000
G00 X81.3435 Y5.1435
G01 Z-2.0000
G01 Z0
G00 Z2.0000
G00 X81.3435 Y7.6835
G01 Z-2.0000
G01 Z0
G00 Z2.0000
G00 X81.3435 Y10.2235
G01 Z-2.0000
G01 Z0
G00 Z2.0000
G00 X81.3435 Y12.7635
G01 Z-2.0000
G01 Z0
G00 Z2.0000
G00 X94.0435 Y5.1435
G01 Z-2.0000
G01 Z0
G00 Z2.0000
G00 X94.0435 Y7.6835
G01 Z-2.0000
G01 Z0
G00 Z2.0000
G00 X94.0435 Y10.2235
G01 Z-2.0000
G01 Z0
G00 Z2.0000
G00 X94.0435 Y12.7635
G01 Z-2.0000
G01 Z0
G00 Z2.0000
G00 X94.0435 Y15.3035
G01 Z-2.0000
G01 Z0
G00 Z2.0000
G00 X94.0435 Y17.8435
G01 Z-2.0000
G01 Z0
G00 Z2.0000
G00 X94.0435 Y20.3835
G01 Z-2.0000
G01 Z0
G00 Z2.0000
G00 X106.7435 Y25.4635
G01 Z-2.0000
G01 Z0
G00 Z2.0000
G00 X106.7435 Y22.9235
G01 Z-2.0000
G01 Z0
G00 Z2.0000
G00 X106.7435 Y20.3835
G01 Z-2.0000
G01 Z0
G00 Z2.0000
G00 X106.7435 Y17.8435
G01 Z-2.0000
G01 Z0
G00 Z2.0000
G00 X106.7435 Y15.3035
G01 Z-2.0000
G01 Z0
G00 Z2.0000
G00 X106.7435 Y12.7635
G01 Z-2.0000
G01 Z0
G00 Z2.0000
G00 X106.7435 Y10.2235
G01 Z-2.0000
G01 Z0
G00 Z2.0000
G00 X106.7435 Y7.6835
G01 Z-2.0000
G01 Z0
G00 Z2.0000
G00 X106.7435 Y5.1435
G01 Z-2.0000
G01 Z0
G00 Z2.0000
G00 X119.4435 Y5.1435
G01 Z-2.0000
G01 Z0
G00 Z2.0000
G00 X119.4435 Y7.6835
G01 Z-2.0000
G01 Z0
G00 Z2.0000
G00 X119.4435 Y10.2235
G01 Z-2.0000
G01 Z0
G00 Z2.0000
G00 X119.4435 Y12.7635
G01 Z-2.0000
G01 Z0
G00 Z2.0000
G00 X119.4435 Y15.3035
G01 Z-2.0000
G01 Z0
G00 Z2.0000
G00 X119.4435 Y17.8435
G01 Z-2.0000
G01 Z0
G00 Z2.0000
G00 X119.4435 Y20.3835
G01 Z-2.0000
G01 Z0
G00 Z2.0000
G00 X119.4435 Y22.9235
G01 Z-2.0000
G01 Z0
G00 Z2.0000
G00 X119.4435 Y25.4635
G01 Z-2.0000
G01 Z0
G00 Z2.0000
G00 X127.0635 Y38.1635
G01 Z-2.0000
G01 Z0
G00 Z2.0000
G00 X127.0635 Y40.7035
G01 Z-2.0000
G01 Z0
G00 Z2.0000
G00 X127.0635 Y43.2435
G01 Z-2.0000
G01 Z0
G00 Z2.0000
M05
G00 Z0.50


