(G-CODE GENERATED BY FLATCAM v8.994 - www.flatcam.org - Version Date: 2020/11/7)

(Name: Conn - Cut.gbr_iso_combined_cnc)
(Type: G-code from Geometry)
(Units: MM)

(Created on Monday, 02 December 2024 at 12:28)

(This preprocessor is the default preprocessor used by FlatCAM.)
(It is made to work with MACH3 compatible motion controllers.)

(TOOL DIAMETER: 1.5 mm)
(Feedrate_XY: 120.0 mm/min)
(Feedrate_Z: 60.0 mm/min)
(Feedrate rapids 1500.0 mm/min)

(Z_Cut: -2.4 mm)
(Z_Move: 2.0 mm)
(Z Start: None mm)
(Z End: 15.0 mm)
(X,Y End: None mm)
(Steps per circle: 64)
(Preprocessor Geometry: default)

(X range:   -0.7500 ...  145.6570  mm)
(Y range:   -0.7500 ...   99.9370  mm)

(Spindle Speed: 0.0 RPM)
G21
G90
G94

G01 F120.00
G00 Z15.0000

M03
G01 F120.00
G00 X0.0267 Y19.5709
G01 F60.00
G01 Z-2.4000
G01 F120.00
G01 X0.0635 Y19.5700
G01 X22.9419 Y19.5702
G01 X22.9665 Y19.5712
G01 X23.0032 Y19.5739
G01 X23.0215 Y19.5759
G01 X23.0459 Y19.5793
G01 X23.0822 Y19.5856
G01 X23.1181 Y19.5937
G01 X23.1420 Y19.5999
G01 X23.1772 Y19.6106
G01 X23.2005 Y19.6186
G01 X23.2348 Y19.6319
G01 X23.2685 Y19.6468
G01 X23.2907 Y19.6576
G01 X23.3231 Y19.6749
G01 X23.3444 Y19.6874
G01 X23.3755 Y19.7071
G01 X23.4056 Y19.7283
G01 X23.4252 Y19.7431
G01 X23.4537 Y19.7665
G01 X23.4721 Y19.7829
G01 X23.4988 Y19.8082
G01 X23.5241 Y19.8349
G01 X23.5405 Y19.8533
G01 X23.5639 Y19.8818
G01 X23.5787 Y19.9014
G01 X23.5999 Y19.9315
G01 X23.6196 Y19.9626
G01 X23.6321 Y19.9839
G01 X23.6494 Y20.0163
G01 X23.6602 Y20.0385
G01 X23.6751 Y20.0722
G01 X23.6884 Y20.1065
G01 X23.6964 Y20.1298
G01 X23.7071 Y20.1650
G01 X23.7133 Y20.1889
G01 X23.7214 Y20.2248
G01 X23.7248 Y20.2429
G01 X23.7286 Y20.2672
G01 X23.7331 Y20.3038
G01 X23.7347 Y20.3221
G01 X23.7361 Y20.3467
G01 X23.7370 Y20.3835
G01 X23.7368 Y33.1019
G01 X23.7360 Y33.1234
G01 X23.7238 Y33.3724
G01 X23.7227 Y33.3908
G01 X23.7205 Y33.4153
G01 X23.7160 Y33.4518
G01 X23.6794 Y33.6984
G01 X23.6765 Y33.7166
G01 X23.6719 Y33.7408
G01 X23.6638 Y33.7767
G01 X23.6033 Y34.0185
G01 X23.5986 Y34.0363
G01 X23.5916 Y34.0599
G01 X23.5801 Y34.0949
G01 X23.4961 Y34.3296
G01 X23.4897 Y34.3468
G01 X23.4805 Y34.3697
G01 X23.4656 Y34.4033
G01 X23.3590 Y34.6287
G01 X23.3509 Y34.6452
G01 X23.3395 Y34.6671
G01 X23.3214 Y34.6991
G01 X23.1932 Y34.9129
G01 X23.1836 Y34.9286
G01 X23.1701 Y34.9492
G01 X23.1489 Y34.9793
G01 X23.0004 Y35.1795
G01 X22.9892 Y35.1941
G01 X22.9738 Y35.2133
G01 X22.9497 Y35.2412
G01 X22.7823 Y35.4259
G01 X22.7698 Y35.4394
G01 X22.7525 Y35.4570
G01 X22.7259 Y35.4823
G01 X22.5412 Y35.6497
G01 X22.5274 Y35.6619
G01 X22.5085 Y35.6777
G01 X22.4795 Y35.7004
G01 X22.2793 Y35.8489
G01 X22.2643 Y35.8596
G01 X22.2440 Y35.8735
G01 X22.2129 Y35.8932
G01 X21.9991 Y36.0214
G01 X21.9832 Y36.0306
G01 X21.9616 Y36.0425
G01 X21.9287 Y36.0590
G01 X21.7033 Y36.1656
G01 X21.6866 Y36.1732
G01 X21.6639 Y36.1829
G01 X21.6296 Y36.1961
G01 X21.3949 Y36.2801
G01 X21.3775 Y36.2861
G01 X21.3540 Y36.2935
G01 X21.3185 Y36.3033
G01 X21.0767 Y36.3638
G01 X21.0588 Y36.3681
G01 X21.0347 Y36.3731
G01 X20.9984 Y36.3794
G01 X20.7518 Y36.4160
G01 X20.7336 Y36.4185
G01 X20.7091 Y36.4211
G01 X20.6724 Y36.4238
G01 X20.4234 Y36.4360
G01 X20.3835 Y36.4370
G01 X17.8635 Y36.4370
G01 X17.6744 Y36.4463
G01 X17.5069 Y36.4712
G01 X17.3426 Y36.5123
G01 X17.1832 Y36.5694
G01 X17.0301 Y36.6418
G01 X16.8849 Y36.7288
G01 X16.7489 Y36.8297
G01 X16.6234 Y36.9434
G01 X16.5097 Y37.0689
G01 X16.4088 Y37.2049
G01 X16.3218 Y37.3501
G01 X16.2494 Y37.5032
G01 X16.1923 Y37.6626
G01 X16.1512 Y37.8269
G01 X16.1263 Y37.9944
G01 X16.1170 Y38.1835
G01 X16.1170 Y55.9235
G01 X16.1263 Y56.1126
G01 X16.1512 Y56.2801
G01 X16.1923 Y56.4444
G01 X16.2494 Y56.6038
G01 X16.3218 Y56.7569
G01 X16.4088 Y56.9021
G01 X16.5097 Y57.0381
G01 X16.6234 Y57.1636
G01 X16.7489 Y57.2773
G01 X16.8849 Y57.3782
G01 X17.0301 Y57.4652
G01 X17.1832 Y57.5376
G01 X17.3426 Y57.5947
G01 X17.5069 Y57.6358
G01 X17.6744 Y57.6607
G01 X17.8635 Y57.6700
G01 X20.3835 Y57.6700
G01 X20.4211 Y57.6708
G01 X20.6554 Y57.6817
G01 X20.6900 Y57.6841
G01 X20.7131 Y57.6864
G01 X20.9626 Y57.7210
G01 X20.9797 Y57.7236
G01 X21.0026 Y57.7277
G01 X21.0365 Y57.7348
G01 X21.2649 Y57.7885
G01 X21.2817 Y57.7927
G01 X21.3040 Y57.7989
G01 X21.3371 Y57.8091
G01 X21.5596 Y57.8837
G01 X21.5759 Y57.8894
G01 X21.5976 Y57.8976
G01 X21.6297 Y57.9108
G01 X21.8443 Y58.0056
G01 X21.8600 Y58.0128
G01 X21.8809 Y58.0229
G01 X21.9115 Y58.0391
G01 X22.1165 Y58.1532
G01 X22.1315 Y58.1618
G01 X22.1514 Y58.1739
G01 X22.1804 Y58.1928
G01 X22.3739 Y58.3254
G01 X22.3881 Y58.3353
G01 X22.4068 Y58.3491
G01 X22.4339 Y58.3707
G01 X22.6144 Y58.5205
G01 X22.6276 Y58.5318
G01 X22.6449 Y58.5472
G01 X22.6699 Y58.5712
G01 X22.8358 Y58.7371
G01 X22.8479 Y58.7495
G01 X22.8637 Y58.7665
G01 X22.8865 Y58.7926
G01 X23.0363 Y58.9731
G01 X23.0473 Y58.9865
G01 X23.0614 Y59.0049
G01 X23.0816 Y59.0331
G01 X23.2142 Y59.2266
G01 X23.2331 Y59.2556
G01 X23.2452 Y59.2755
G01 X23.2538 Y59.2905
G01 X23.3679 Y59.4955
G01 X23.3762 Y59.5107
G01 X23.3867 Y59.5314
G01 X23.4014 Y59.5627
G01 X23.4962 Y59.7773
G01 X23.5030 Y59.7933
G01 X23.5116 Y59.8148
G01 X23.5233 Y59.8474
G01 X23.5979 Y60.0699
G01 X23.6032 Y60.0864
G01 X23.6097 Y60.1086
G01 X23.6185 Y60.1421
G01 X23.6722 Y60.3705
G01 X23.6759 Y60.3874
G01 X23.6804 Y60.4102
G01 X23.6860 Y60.4444
G01 X23.7206 Y60.6939
G01 X23.7229 Y60.7170
G01 X23.7253 Y60.7516
G01 X23.7362 Y60.9859
G01 X23.7370 Y61.0235
G01 X23.7368 Y99.1419
G01 X23.7358 Y99.1665
G01 X23.7331 Y99.2032
G01 X23.7311 Y99.2215
G01 X23.7277 Y99.2459
G01 X23.7214 Y99.2822
G01 X23.7133 Y99.3181
G01 X23.7071 Y99.3420
G01 X23.6964 Y99.3772
G01 X23.6884 Y99.4005
G01 X23.6751 Y99.4348
G01 X23.6602 Y99.4685
G01 X23.6494 Y99.4907
G01 X23.6321 Y99.5231
G01 X23.6196 Y99.5444
G01 X23.5999 Y99.5755
G01 X23.5787 Y99.6056
G01 X23.5639 Y99.6252
G01 X23.5405 Y99.6537
G01 X23.5241 Y99.6721
G01 X23.4988 Y99.6988
G01 X23.4721 Y99.7241
G01 X23.4537 Y99.7405
G01 X23.4252 Y99.7639
G01 X23.4056 Y99.7787
G01 X23.3755 Y99.7999
G01 X23.3444 Y99.8196
G01 X23.3231 Y99.8321
G01 X23.2907 Y99.8494
G01 X23.2685 Y99.8602
G01 X23.2348 Y99.8751
G01 X23.2005 Y99.8884
G01 X23.1772 Y99.8964
G01 X23.1420 Y99.9071
G01 X23.1181 Y99.9133
G01 X23.0822 Y99.9214
G01 X23.0641 Y99.9248
G01 X23.0398 Y99.9286
G01 X23.0032 Y99.9331
G01 X22.9849 Y99.9347
G01 X22.9603 Y99.9361
G01 X22.9235 Y99.9370
G01 X0.0451 Y99.9368
G01 X0.0205 Y99.9358
G01 X-0.0162 Y99.9331
G01 X-0.0345 Y99.9311
G01 X-0.0589 Y99.9277
G01 X-0.0952 Y99.9214
G01 X-0.1311 Y99.9133
G01 X-0.1550 Y99.9071
G01 X-0.1902 Y99.8964
G01 X-0.2135 Y99.8884
G01 X-0.2478 Y99.8751
G01 X-0.2815 Y99.8602
G01 X-0.3037 Y99.8494
G01 X-0.3361 Y99.8321
G01 X-0.3574 Y99.8196
G01 X-0.3885 Y99.7999
G01 X-0.4186 Y99.7787
G01 X-0.4382 Y99.7639
G01 X-0.4667 Y99.7405
G01 X-0.4851 Y99.7241
G01 X-0.5118 Y99.6988
G01 X-0.5371 Y99.6721
G01 X-0.5535 Y99.6537
G01 X-0.5769 Y99.6252
G01 X-0.5917 Y99.6056
G01 X-0.6129 Y99.5755
G01 X-0.6326 Y99.5444
G01 X-0.6451 Y99.5231
G01 X-0.6624 Y99.4907
G01 X-0.6732 Y99.4685
G01 X-0.6881 Y99.4348
G01 X-0.7014 Y99.4005
G01 X-0.7094 Y99.3772
G01 X-0.7201 Y99.3420
G01 X-0.7263 Y99.3181
G01 X-0.7344 Y99.2822
G01 X-0.7378 Y99.2641
G01 X-0.7416 Y99.2398
G01 X-0.7461 Y99.2032
G01 X-0.7477 Y99.1849
G01 X-0.7491 Y99.1603
G01 X-0.7500 Y99.1235
G01 X-0.7500 Y61.0235
G01 X-0.7490 Y60.9836
G01 X-0.7368 Y60.7346
G01 X-0.7341 Y60.6979
G01 X-0.7315 Y60.6734
G01 X-0.7290 Y60.6552
G01 X-0.6895 Y60.3904
G01 X-0.6849 Y60.3662
G01 X-0.6768 Y60.3303
G01 X-0.6163 Y60.0885
G01 X-0.6065 Y60.0530
G01 X-0.5991 Y60.0295
G01 X-0.5931 Y60.0121
G01 X-0.5091 Y59.7774
G01 X-0.5027 Y59.7602
G01 X-0.4935 Y59.7373
G01 X-0.4786 Y59.7037
G01 X-0.3720 Y59.4783
G01 X-0.3639 Y59.4618
G01 X-0.3525 Y59.4399
G01 X-0.3344 Y59.4079
G01 X-0.2062 Y59.1941
G01 X-0.1966 Y59.1784
G01 X-0.1831 Y59.1578
G01 X-0.1619 Y59.1277
G01 X-0.0134 Y58.9275
G01 X-0.0022 Y58.9129
G01 X0.0132 Y58.8937
G01 X0.0373 Y58.8658
G01 X0.2047 Y58.6811
G01 X0.2172 Y58.6676
G01 X0.2345 Y58.6500
G01 X0.2611 Y58.6247
G01 X0.4458 Y58.4573
G01 X0.4596 Y58.4451
G01 X0.4785 Y58.4293
G01 X0.5075 Y58.4066
G01 X0.7077 Y58.2581
G01 X0.7227 Y58.2474
G01 X0.7430 Y58.2335
G01 X0.7741 Y58.2138
G01 X0.9879 Y58.0856
G01 X1.0038 Y58.0764
G01 X1.0254 Y58.0645
G01 X1.0583 Y58.0480
G01 X1.2837 Y57.9414
G01 X1.3173 Y57.9265
G01 X1.3402 Y57.9173
G01 X1.3574 Y57.9109
G01 X1.5921 Y57.8269
G01 X1.6271 Y57.8154
G01 X1.6507 Y57.8084
G01 X1.6685 Y57.8037
G01 X1.9103 Y57.7432
G01 X1.9462 Y57.7351
G01 X1.9704 Y57.7305
G01 X1.9886 Y57.7276
G01 X2.2534 Y57.6885
G01 X2.2779 Y57.6859
G01 X2.3146 Y57.6832
G01 X2.5636 Y57.6710
G01 X2.6035 Y57.6700
G01 X5.1235 Y57.6700
G01 X5.3126 Y57.6607
G01 X5.4801 Y57.6358
G01 X5.6444 Y57.5947
G01 X5.8038 Y57.5376
G01 X5.9569 Y57.4652
G01 X6.1021 Y57.3782
G01 X6.2381 Y57.2773
G01 X6.3636 Y57.1636
G01 X6.4773 Y57.0381
G01 X6.5782 Y56.9021
G01 X6.6652 Y56.7569
G01 X6.7376 Y56.6038
G01 X6.7947 Y56.4444
G01 X6.8358 Y56.2801
G01 X6.8607 Y56.1126
G01 X6.8700 Y55.9235
G01 X6.8700 Y38.1835
G01 X6.8607 Y37.9944
G01 X6.8358 Y37.8269
G01 X6.7947 Y37.6626
G01 X6.7376 Y37.5032
G01 X6.6652 Y37.3501
G01 X6.5782 Y37.2049
G01 X6.4773 Y37.0689
G01 X6.3636 Y36.9434
G01 X6.2381 Y36.8297
G01 X6.1021 Y36.7288
G01 X5.9569 Y36.6418
G01 X5.8038 Y36.5694
G01 X5.6444 Y36.5123
G01 X5.4801 Y36.4712
G01 X5.3126 Y36.4463
G01 X5.1235 Y36.4370
G01 X2.6035 Y36.4370
G01 X2.5659 Y36.4362
G01 X2.3316 Y36.4253
G01 X2.3143 Y36.4243
G01 X2.2912 Y36.4224
G01 X2.2567 Y36.4184
G01 X2.0244 Y36.3860
G01 X2.0073 Y36.3834
G01 X1.9844 Y36.3793
G01 X1.9505 Y36.3722
G01 X1.7221 Y36.3185
G01 X1.7053 Y36.3143
G01 X1.6830 Y36.3081
G01 X1.6499 Y36.2979
G01 X1.4274 Y36.2233
G01 X1.4111 Y36.2176
G01 X1.3894 Y36.2094
G01 X1.3573 Y36.1962
G01 X1.1427 Y36.1014
G01 X1.1114 Y36.0867
G01 X1.0907 Y36.0762
G01 X0.8705 Y35.9538
G01 X0.8555 Y35.9452
G01 X0.8356 Y35.9331
G01 X0.8066 Y35.9142
G01 X0.6131 Y35.7816
G01 X0.5989 Y35.7717
G01 X0.5802 Y35.7579
G01 X0.5531 Y35.7363
G01 X0.3726 Y35.5865
G01 X0.3594 Y35.5752
G01 X0.3421 Y35.5598
G01 X0.3171 Y35.5358
G01 X0.1512 Y35.3699
G01 X0.1272 Y35.3449
G01 X0.1118 Y35.3276
G01 X0.1005 Y35.3144
G01 X-0.0493 Y35.1339
G01 X-0.0603 Y35.1205
G01 X-0.0744 Y35.1021
G01 X-0.0946 Y35.0739
G01 X-0.2272 Y34.8804
G01 X-0.2368 Y34.8660
G01 X-0.2492 Y34.8464
G01 X-0.2668 Y34.8165
G01 X-0.3809 Y34.6115
G01 X-0.3892 Y34.5963
G01 X-0.3997 Y34.5756
G01 X-0.4144 Y34.5443
G01 X-0.5092 Y34.3297
G01 X-0.5160 Y34.3137
G01 X-0.5246 Y34.2922
G01 X-0.5363 Y34.2596
G01 X-0.6109 Y34.0371
G01 X-0.6162 Y34.0206
G01 X-0.6227 Y33.9984
G01 X-0.6315 Y33.9649
G01 X-0.6852 Y33.7365
G01 X-0.6923 Y33.7026
G01 X-0.6964 Y33.6797
G01 X-0.6990 Y33.6626
G01 X-0.7314 Y33.4303
G01 X-0.7354 Y33.3958
G01 X-0.7373 Y33.3727
G01 X-0.7383 Y33.3554
G01 X-0.7492 Y33.1211
G01 X-0.7500 Y33.0835
G01 X-0.7500 Y20.3835
G01 X-0.7498 Y20.3651
G01 X-0.7488 Y20.3405
G01 X-0.7461 Y20.3038
G01 X-0.7441 Y20.2855
G01 X-0.7407 Y20.2611
G01 X-0.7344 Y20.2248
G01 X-0.7263 Y20.1889
G01 X-0.7201 Y20.1650
G01 X-0.7094 Y20.1298
G01 X-0.6949 Y20.0893
G01 X-0.6809 Y20.0553
G01 X-0.6705 Y20.0329
G01 X-0.6540 Y20.0000
G01 X-0.6451 Y19.9839
G01 X-0.6326 Y19.9626
G01 X-0.6129 Y19.9315
G01 X-0.5917 Y19.9014
G01 X-0.5769 Y19.8818
G01 X-0.5654 Y19.8674
G01 X-0.5413 Y19.8395
G01 X-0.5246 Y19.8214
G01 X-0.5118 Y19.8082
G01 X-0.4986 Y19.7954
G01 X-0.4805 Y19.7787
G01 X-0.4526 Y19.7546
G01 X-0.4236 Y19.7320
G01 X-0.4037 Y19.7175
G01 X-0.3885 Y19.7071
G01 X-0.3730 Y19.6970
G01 X-0.3520 Y19.6842
G01 X-0.3200 Y19.6660
G01 X-0.2871 Y19.6495
G01 X-0.2647 Y19.6391
G01 X-0.2307 Y19.6251
G01 X-0.1902 Y19.6106
G01 X-0.1550 Y19.5999
G01 X-0.1132 Y19.5894
G01 X-0.0771 Y19.5822
G01 X-0.0345 Y19.5759
G01 X0.0021 Y19.5723
G01 X0.0267 Y19.5709
G00 Z2.0000
G00 X49.1370 Y78.8035
G01 F60.00
G01 Z-2.4000
G01 F120.00
G01 X49.1361 Y78.8403
G01 X49.1347 Y78.8649
G01 X49.1331 Y78.8832
G01 X49.1311 Y78.9015
G01 X49.1277 Y78.9259
G01 X49.1214 Y78.9622
G01 X49.1176 Y78.9802
G01 X49.1118 Y79.0042
G01 X49.1020 Y79.0397
G01 X49.0905 Y79.0746
G01 X49.0819 Y79.0977
G01 X49.0751 Y79.1148
G01 X49.0602 Y79.1485
G01 X49.0494 Y79.1707
G01 X49.0410 Y79.1870
G01 X49.0321 Y79.2031
G01 X49.0196 Y79.2244
G01 X48.9999 Y79.2555
G01 X48.9895 Y79.2707
G01 X48.9750 Y79.2906
G01 X48.9524 Y79.3196
G01 X48.9283 Y79.3475
G01 X48.9116 Y79.3656
G01 X48.8988 Y79.3788
G01 X48.8856 Y79.3916
G01 X48.8675 Y79.4083
G01 X48.8396 Y79.4324
G01 X48.8106 Y79.4550
G01 X48.7907 Y79.4695
G01 X48.7755 Y79.4799
G01 X48.7600 Y79.4900
G01 X48.7390 Y79.5028
G01 X48.7070 Y79.5210
G01 X48.6741 Y79.5375
G01 X48.6517 Y79.5479
G01 X48.6348 Y79.5551
G01 X48.6005 Y79.5684
G01 X48.5772 Y79.5764
G01 X48.5597 Y79.5820
G01 X48.5420 Y79.5871
G01 X48.5181 Y79.5933
G01 X48.4822 Y79.6014
G01 X48.4459 Y79.6077
G01 X48.4215 Y79.6111
G01 X48.4032 Y79.6131
G01 X48.3849 Y79.6147
G01 X48.3603 Y79.6161
G01 X48.3235 Y79.6170
G01 X25.4451 Y79.6168
G01 X25.4205 Y79.6158
G01 X25.3838 Y79.6131
G01 X25.3472 Y79.6086
G01 X25.3229 Y79.6048
G01 X25.2868 Y79.5976
G01 X25.2628 Y79.5918
G01 X25.2273 Y79.5820
G01 X25.1924 Y79.5705
G01 X25.1693 Y79.5619
G01 X25.1353 Y79.5479
G01 X25.1129 Y79.5375
G01 X25.0800 Y79.5210
G01 X25.0480 Y79.5028
G01 X25.0270 Y79.4900
G01 X24.9963 Y79.4695
G01 X24.9764 Y79.4550
G01 X24.9474 Y79.4324
G01 X24.9195 Y79.4083
G01 X24.9014 Y79.3916
G01 X24.8754 Y79.3656
G01 X24.8587 Y79.3475
G01 X24.8346 Y79.3196
G01 X24.8120 Y79.2906
G01 X24.7975 Y79.2707
G01 X24.7770 Y79.2400
G01 X24.7642 Y79.2190
G01 X24.7460 Y79.1870
G01 X24.7295 Y79.1541
G01 X24.7191 Y79.1317
G01 X24.7051 Y79.0977
G01 X24.6965 Y79.0746
G01 X24.6850 Y79.0397
G01 X24.6752 Y79.0042
G01 X24.6694 Y78.9802
G01 X24.6622 Y78.9441
G01 X24.6584 Y78.9198
G01 X24.6559 Y78.9015
G01 X24.6523 Y78.8649
G01 X24.6509 Y78.8403
G01 X24.6500 Y78.8035
G01 X24.6502 Y66.0851
G01 X24.6510 Y66.0636
G01 X24.6632 Y65.8146
G01 X24.6643 Y65.7962
G01 X24.6665 Y65.7717
G01 X24.6710 Y65.7352
G01 X24.7076 Y65.4886
G01 X24.7105 Y65.4704
G01 X24.7151 Y65.4462
G01 X24.7232 Y65.4103
G01 X24.7837 Y65.1685
G01 X24.7884 Y65.1507
G01 X24.7954 Y65.1271
G01 X24.8069 Y65.0921
G01 X24.8909 Y64.8574
G01 X24.8973 Y64.8402
G01 X24.9065 Y64.8173
G01 X24.9214 Y64.7837
G01 X25.0280 Y64.5583
G01 X25.0361 Y64.5418
G01 X25.0475 Y64.5199
G01 X25.0656 Y64.4879
G01 X25.1938 Y64.2741
G01 X25.2034 Y64.2584
G01 X25.2169 Y64.2378
G01 X25.2381 Y64.2077
G01 X25.3866 Y64.0075
G01 X25.3978 Y63.9929
G01 X25.4132 Y63.9737
G01 X25.4373 Y63.9458
G01 X25.6047 Y63.7611
G01 X25.6172 Y63.7476
G01 X25.6345 Y63.7300
G01 X25.6611 Y63.7047
G01 X25.8458 Y63.5373
G01 X25.8596 Y63.5251
G01 X25.8785 Y63.5093
G01 X25.9075 Y63.4866
G01 X26.1077 Y63.3381
G01 X26.1227 Y63.3274
G01 X26.1430 Y63.3135
G01 X26.1741 Y63.2938
G01 X26.3879 Y63.1656
G01 X26.4038 Y63.1564
G01 X26.4254 Y63.1445
G01 X26.4583 Y63.1280
G01 X26.6837 Y63.0214
G01 X26.7004 Y63.0138
G01 X26.7231 Y63.0041
G01 X26.7574 Y62.9909
G01 X26.9921 Y62.9069
G01 X27.0095 Y62.9009
G01 X27.0330 Y62.8935
G01 X27.0685 Y62.8837
G01 X27.3103 Y62.8232
G01 X27.3282 Y62.8189
G01 X27.3523 Y62.8139
G01 X27.3886 Y62.8076
G01 X27.6352 Y62.7710
G01 X27.6534 Y62.7685
G01 X27.6779 Y62.7659
G01 X27.7146 Y62.7632
G01 X27.9636 Y62.7510
G01 X28.0035 Y62.7500
G01 X30.5235 Y62.7500
G01 X30.7126 Y62.7407
G01 X30.8801 Y62.7158
G01 X31.0444 Y62.6747
G01 X31.2038 Y62.6176
G01 X31.3569 Y62.5452
G01 X31.5021 Y62.4582
G01 X31.6381 Y62.3573
G01 X31.7636 Y62.2436
G01 X31.8773 Y62.1181
G01 X31.9782 Y61.9821
G01 X32.0652 Y61.8369
G01 X32.1376 Y61.6838
G01 X32.1947 Y61.5244
G01 X32.2358 Y61.3601
G01 X32.2607 Y61.1926
G01 X32.2700 Y61.0035
G01 X32.2700 Y43.2635
G01 X32.2607 Y43.0744
G01 X32.2358 Y42.9069
G01 X32.1947 Y42.7426
G01 X32.1376 Y42.5832
G01 X32.0652 Y42.4301
G01 X31.9782 Y42.2849
G01 X31.8773 Y42.1489
G01 X31.7636 Y42.0234
G01 X31.6381 Y41.9097
G01 X31.5021 Y41.8088
G01 X31.3569 Y41.7218
G01 X31.2038 Y41.6494
G01 X31.0444 Y41.5923
G01 X30.8801 Y41.5512
G01 X30.7126 Y41.5263
G01 X30.5235 Y41.5170
G01 X28.0035 Y41.5170
G01 X27.9659 Y41.5162
G01 X27.7316 Y41.5053
G01 X27.6970 Y41.5029
G01 X27.6739 Y41.5006
G01 X27.4244 Y41.4660
G01 X27.4073 Y41.4634
G01 X27.3844 Y41.4593
G01 X27.3505 Y41.4522
G01 X27.1221 Y41.3985
G01 X27.1053 Y41.3943
G01 X27.0830 Y41.3881
G01 X27.0499 Y41.3779
G01 X26.8274 Y41.3033
G01 X26.8111 Y41.2976
G01 X26.7894 Y41.2894
G01 X26.7573 Y41.2762
G01 X26.5427 Y41.1814
G01 X26.5270 Y41.1742
G01 X26.5061 Y41.1641
G01 X26.4755 Y41.1479
G01 X26.2705 Y41.0338
G01 X26.2555 Y41.0252
G01 X26.2356 Y41.0131
G01 X26.2066 Y40.9942
G01 X26.0131 Y40.8616
G01 X25.9989 Y40.8517
G01 X25.9802 Y40.8379
G01 X25.9531 Y40.8163
G01 X25.7726 Y40.6665
G01 X25.7594 Y40.6552
G01 X25.7421 Y40.6398
G01 X25.7171 Y40.6158
G01 X25.5512 Y40.4499
G01 X25.5391 Y40.4375
G01 X25.5233 Y40.4205
G01 X25.5005 Y40.3944
G01 X25.3507 Y40.2139
G01 X25.3397 Y40.2005
G01 X25.3256 Y40.1821
G01 X25.3054 Y40.1539
G01 X25.1728 Y39.9604
G01 X25.1539 Y39.9314
G01 X25.1418 Y39.9115
G01 X25.1332 Y39.8965
G01 X25.0191 Y39.6915
G01 X25.0108 Y39.6763
G01 X25.0003 Y39.6556
G01 X24.9856 Y39.6243
G01 X24.8908 Y39.4097
G01 X24.8840 Y39.3937
G01 X24.8754 Y39.3722
G01 X24.8637 Y39.3396
G01 X24.7891 Y39.1171
G01 X24.7838 Y39.1006
G01 X24.7773 Y39.0784
G01 X24.7685 Y39.0449
G01 X24.7148 Y38.8165
G01 X24.7111 Y38.7996
G01 X24.7066 Y38.7768
G01 X24.7010 Y38.7426
G01 X24.6664 Y38.4931
G01 X24.6641 Y38.4700
G01 X24.6617 Y38.4354
G01 X24.6508 Y38.2011
G01 X24.6500 Y38.1635
G01 X24.6502 Y0.0451
G01 X24.6512 Y0.0205
G01 X24.6539 Y-0.0162
G01 X24.6584 Y-0.0528
G01 X24.6622 Y-0.0771
G01 X24.6694 Y-0.1132
G01 X24.6752 Y-0.1372
G01 X24.6850 Y-0.1727
G01 X24.6965 Y-0.2076
G01 X24.7051 Y-0.2307
G01 X24.7191 Y-0.2647
G01 X24.7295 Y-0.2871
G01 X24.7460 Y-0.3200
G01 X24.7642 Y-0.3520
G01 X24.7770 Y-0.3730
G01 X24.7975 Y-0.4037
G01 X24.8120 Y-0.4236
G01 X24.8346 Y-0.4526
G01 X24.8587 Y-0.4805
G01 X24.8754 Y-0.4986
G01 X24.9014 Y-0.5246
G01 X24.9195 Y-0.5413
G01 X24.9474 Y-0.5654
G01 X24.9764 Y-0.5880
G01 X24.9963 Y-0.6025
G01 X25.0270 Y-0.6230
G01 X25.0480 Y-0.6358
G01 X25.0800 Y-0.6540
G01 X25.1129 Y-0.6705
G01 X25.1353 Y-0.6809
G01 X25.1693 Y-0.6949
G01 X25.1924 Y-0.7035
G01 X25.2273 Y-0.7150
G01 X25.2628 Y-0.7248
G01 X25.2868 Y-0.7306
G01 X25.3229 Y-0.7378
G01 X25.3472 Y-0.7416
G01 X25.3838 Y-0.7461
G01 X25.4021 Y-0.7477
G01 X25.4267 Y-0.7491
G01 X25.4635 Y-0.7500
G01 X48.3419 Y-0.7498
G01 X48.3665 Y-0.7488
G01 X48.4032 Y-0.7461
G01 X48.4398 Y-0.7416
G01 X48.4641 Y-0.7378
G01 X48.5002 Y-0.7306
G01 X48.5242 Y-0.7248
G01 X48.5597 Y-0.7150
G01 X48.5946 Y-0.7035
G01 X48.6177 Y-0.6949
G01 X48.6517 Y-0.6809
G01 X48.6741 Y-0.6705
G01 X48.7070 Y-0.6540
G01 X48.7390 Y-0.6358
G01 X48.7600 Y-0.6230
G01 X48.7907 Y-0.6025
G01 X48.8106 Y-0.5880
G01 X48.8396 Y-0.5654
G01 X48.8675 Y-0.5413
G01 X48.8856 Y-0.5246
G01 X48.9116 Y-0.4986
G01 X48.9283 Y-0.4805
G01 X48.9524 Y-0.4526
G01 X48.9750 Y-0.4236
G01 X48.9895 Y-0.4037
G01 X49.0100 Y-0.3730
G01 X49.0228 Y-0.3520
G01 X49.0410 Y-0.3200
G01 X49.0575 Y-0.2871
G01 X49.0679 Y-0.2647
G01 X49.0819 Y-0.2307
G01 X49.0905 Y-0.2076
G01 X49.1020 Y-0.1727
G01 X49.1118 Y-0.1372
G01 X49.1176 Y-0.1132
G01 X49.1248 Y-0.0771
G01 X49.1286 Y-0.0528
G01 X49.1331 Y-0.0162
G01 X49.1347 Y0.0021
G01 X49.1361 Y0.0267
G01 X49.1370 Y0.0635
G01 X49.1370 Y38.1635
G01 X49.1360 Y38.2034
G01 X49.1238 Y38.4524
G01 X49.1211 Y38.4891
G01 X49.1185 Y38.5136
G01 X49.0794 Y38.7784
G01 X49.0765 Y38.7966
G01 X49.0719 Y38.8208
G01 X49.0638 Y38.8567
G01 X49.0033 Y39.0985
G01 X48.9986 Y39.1163
G01 X48.9916 Y39.1399
G01 X48.9801 Y39.1749
G01 X48.8961 Y39.4096
G01 X48.8897 Y39.4268
G01 X48.8805 Y39.4497
G01 X48.8656 Y39.4833
G01 X48.7590 Y39.7087
G01 X48.7425 Y39.7416
G01 X48.7306 Y39.7632
G01 X48.7214 Y39.7791
G01 X48.5932 Y39.9929
G01 X48.5836 Y40.0086
G01 X48.5701 Y40.0292
G01 X48.5489 Y40.0593
G01 X48.4004 Y40.2595
G01 X48.3892 Y40.2741
G01 X48.3738 Y40.2933
G01 X48.3497 Y40.3212
G01 X48.1823 Y40.5059
G01 X48.1698 Y40.5194
G01 X48.1525 Y40.5370
G01 X48.1259 Y40.5623
G01 X47.9412 Y40.7297
G01 X47.9274 Y40.7419
G01 X47.9085 Y40.7577
G01 X47.8795 Y40.7804
G01 X47.6793 Y40.9289
G01 X47.6643 Y40.9396
G01 X47.6440 Y40.9535
G01 X47.6129 Y40.9732
G01 X47.3832 Y41.1106
G01 X47.3616 Y41.1225
G01 X47.3287 Y41.1390
G01 X47.1033 Y41.2456
G01 X47.0697 Y41.2605
G01 X47.0468 Y41.2697
G01 X47.0296 Y41.2761
G01 X46.7949 Y41.3601
G01 X46.7599 Y41.3716
G01 X46.7363 Y41.3786
G01 X46.7185 Y41.3833
G01 X46.4767 Y41.4438
G01 X46.4408 Y41.4519
G01 X46.4166 Y41.4565
G01 X46.3984 Y41.4594
G01 X46.1518 Y41.4960
G01 X46.1153 Y41.5005
G01 X46.0908 Y41.5027
G01 X46.0724 Y41.5038
G01 X45.8234 Y41.5160
G01 X45.7835 Y41.5170
G01 X43.2635 Y41.5170
G01 X43.0744 Y41.5263
G01 X42.9069 Y41.5512
G01 X42.7426 Y41.5923
G01 X42.5832 Y41.6494
G01 X42.4301 Y41.7218
G01 X42.2849 Y41.8088
G01 X42.1489 Y41.9097
G01 X42.0234 Y42.0234
G01 X41.9097 Y42.1489
G01 X41.8088 Y42.2849
G01 X41.7218 Y42.4301
G01 X41.6494 Y42.5832
G01 X41.5923 Y42.7426
G01 X41.5512 Y42.9069
G01 X41.5263 Y43.0744
G01 X41.5170 Y43.2635
G01 X41.5170 Y61.0035
G01 X41.5263 Y61.1926
G01 X41.5512 Y61.3601
G01 X41.5923 Y61.5244
G01 X41.6494 Y61.6838
G01 X41.7218 Y61.8369
G01 X41.8088 Y61.9821
G01 X41.9097 Y62.1181
G01 X42.0234 Y62.2436
G01 X42.1489 Y62.3573
G01 X42.2849 Y62.4582
G01 X42.4301 Y62.5452
G01 X42.5832 Y62.6176
G01 X42.7426 Y62.6747
G01 X42.9069 Y62.7158
G01 X43.0744 Y62.7407
G01 X43.2635 Y62.7500
G01 X45.7835 Y62.7500
G01 X45.8234 Y62.7510
G01 X46.0724 Y62.7632
G01 X46.0908 Y62.7643
G01 X46.1153 Y62.7665
G01 X46.1518 Y62.7710
G01 X46.3984 Y62.8076
G01 X46.4166 Y62.8105
G01 X46.4408 Y62.8151
G01 X46.4767 Y62.8232
G01 X46.7185 Y62.8837
G01 X46.7363 Y62.8884
G01 X46.7599 Y62.8954
G01 X46.7949 Y62.9069
G01 X47.0296 Y62.9909
G01 X47.0468 Y62.9973
G01 X47.0697 Y63.0065
G01 X47.1033 Y63.0214
G01 X47.3287 Y63.1280
G01 X47.3452 Y63.1361
G01 X47.3671 Y63.1475
G01 X47.3991 Y63.1656
G01 X47.6129 Y63.2938
G01 X47.6286 Y63.3034
G01 X47.6492 Y63.3169
G01 X47.6793 Y63.3381
G01 X47.8795 Y63.4866
G01 X47.8941 Y63.4978
G01 X47.9133 Y63.5132
G01 X47.9412 Y63.5373
G01 X48.1259 Y63.7047
G01 X48.1394 Y63.7172
G01 X48.1570 Y63.7345
G01 X48.1823 Y63.7611
G01 X48.3497 Y63.9458
G01 X48.3738 Y63.9737
G01 X48.3892 Y63.9929
G01 X48.4004 Y64.0075
G01 X48.5489 Y64.2077
G01 X48.5701 Y64.2378
G01 X48.5836 Y64.2584
G01 X48.5932 Y64.2741
G01 X48.7214 Y64.4879
G01 X48.7395 Y64.5199
G01 X48.7509 Y64.5418
G01 X48.7590 Y64.5583
G01 X48.8656 Y64.7837
G01 X48.8805 Y64.8173
G01 X48.8897 Y64.8402
G01 X48.8961 Y64.8574
G01 X48.9801 Y65.0921
G01 X48.9916 Y65.1271
G01 X48.9986 Y65.1507
G01 X49.0033 Y65.1685
G01 X49.0638 Y65.4103
G01 X49.0719 Y65.4462
G01 X49.0765 Y65.4704
G01 X49.0794 Y65.4886
G01 X49.1160 Y65.7352
G01 X49.1205 Y65.7717
G01 X49.1227 Y65.7962
G01 X49.1238 Y65.8146
G01 X49.1360 Y66.0636
G01 X49.1368 Y66.0851
G01 X49.1370 Y78.8035
G00 Z2.0000
G00 X50.8635 Y99.9370
G01 F60.00
G01 Z-2.4000
G01 F120.00
G01 X50.8267 Y99.9361
G01 X50.8021 Y99.9347
G01 X50.7838 Y99.9331
G01 X50.7655 Y99.9311
G01 X50.7411 Y99.9277
G01 X50.7048 Y99.9214
G01 X50.6868 Y99.9176
G01 X50.6628 Y99.9118
G01 X50.6273 Y99.9020
G01 X50.5924 Y99.8905
G01 X50.5693 Y99.8819
G01 X50.5522 Y99.8751
G01 X50.5185 Y99.8602
G01 X50.4963 Y99.8494
G01 X50.4800 Y99.8410
G01 X50.4480 Y99.8228
G01 X50.4270 Y99.8100
G01 X50.4115 Y99.7999
G01 X50.3963 Y99.7895
G01 X50.3764 Y99.7750
G01 X50.3474 Y99.7524
G01 X50.3195 Y99.7283
G01 X50.3014 Y99.7116
G01 X50.2882 Y99.6988
G01 X50.2754 Y99.6856
G01 X50.2587 Y99.6675
G01 X50.2346 Y99.6396
G01 X50.2120 Y99.6106
G01 X50.1975 Y99.5907
G01 X50.1871 Y99.5755
G01 X50.1770 Y99.5600
G01 X50.1642 Y99.5390
G01 X50.1460 Y99.5070
G01 X50.1376 Y99.4907
G01 X50.1268 Y99.4685
G01 X50.1119 Y99.4348
G01 X50.0986 Y99.4005
G01 X50.0906 Y99.3772
G01 X50.0850 Y99.3597
G01 X50.0799 Y99.3420
G01 X50.0737 Y99.3181
G01 X50.0656 Y99.2822
G01 X50.0593 Y99.2459
G01 X50.0559 Y99.2215
G01 X50.0539 Y99.2032
G01 X50.0523 Y99.1849
G01 X50.0509 Y99.1603
G01 X50.0500 Y99.1235
G01 X50.0502 Y76.2451
G01 X50.0512 Y76.2205
G01 X50.0539 Y76.1838
G01 X50.0584 Y76.1472
G01 X50.0622 Y76.1229
G01 X50.0694 Y76.0868
G01 X50.0752 Y76.0628
G01 X50.0850 Y76.0273
G01 X50.0906 Y76.0098
G01 X50.0986 Y75.9865
G01 X50.1119 Y75.9522
G01 X50.1268 Y75.9185
G01 X50.1376 Y75.8963
G01 X50.1549 Y75.8639
G01 X50.1674 Y75.8426
G01 X50.1871 Y75.8115
G01 X50.2083 Y75.7814
G01 X50.2231 Y75.7618
G01 X50.2465 Y75.7333
G01 X50.2629 Y75.7149
G01 X50.2882 Y75.6882
G01 X50.3149 Y75.6629
G01 X50.3333 Y75.6465
G01 X50.3474 Y75.6346
G01 X50.3764 Y75.6120
G01 X50.3963 Y75.5975
G01 X50.4270 Y75.5770
G01 X50.4480 Y75.5642
G01 X50.4800 Y75.5460
G01 X50.5129 Y75.5295
G01 X50.5353 Y75.5191
G01 X50.5693 Y75.5051
G01 X50.5924 Y75.4965
G01 X50.6273 Y75.4850
G01 X50.6628 Y75.4752
G01 X50.6868 Y75.4694
G01 X50.7229 Y75.4622
G01 X50.7472 Y75.4584
G01 X50.7838 Y75.4539
G01 X50.8021 Y75.4523
G01 X50.8267 Y75.4509
G01 X50.8635 Y75.4500
G01 X119.4435 Y75.4500
G01 X119.4803 Y75.4509
G01 X119.5049 Y75.4523
G01 X119.5415 Y75.4559
G01 X119.5659 Y75.4593
G01 X119.6022 Y75.4656
G01 X119.6202 Y75.4694
G01 X119.6442 Y75.4752
G01 X119.6797 Y75.4850
G01 X119.7146 Y75.4965
G01 X119.7377 Y75.5051
G01 X119.7717 Y75.5191
G01 X119.7941 Y75.5295
G01 X119.8270 Y75.5460
G01 X119.8590 Y75.5642
G01 X119.8800 Y75.5770
G01 X119.9107 Y75.5975
G01 X119.9306 Y75.6120
G01 X119.9596 Y75.6346
G01 X119.9875 Y75.6587
G01 X120.0056 Y75.6754
G01 X120.0316 Y75.7014
G01 X120.0483 Y75.7195
G01 X120.0724 Y75.7474
G01 X120.0950 Y75.7764
G01 X120.1095 Y75.7963
G01 X120.1300 Y75.8270
G01 X120.1428 Y75.8480
G01 X120.1610 Y75.8800
G01 X120.1775 Y75.9129
G01 X120.1879 Y75.9353
G01 X120.2019 Y75.9693
G01 X120.2105 Y75.9924
G01 X120.2220 Y76.0273
G01 X120.2318 Y76.0628
G01 X120.2376 Y76.0868
G01 X120.2448 Y76.1229
G01 X120.2486 Y76.1472
G01 X120.2531 Y76.1838
G01 X120.2547 Y76.2021
G01 X120.2561 Y76.2267
G01 X120.2570 Y76.2635
G01 X120.2568 Y99.1419
G01 X120.2558 Y99.1665
G01 X120.2531 Y99.2032
G01 X120.2486 Y99.2398
G01 X120.2448 Y99.2641
G01 X120.2376 Y99.3002
G01 X120.2318 Y99.3242
G01 X120.2271 Y99.3420
G01 X120.2164 Y99.3772
G01 X120.2084 Y99.4005
G01 X120.1951 Y99.4348
G01 X120.1802 Y99.4685
G01 X120.1694 Y99.4907
G01 X120.1521 Y99.5231
G01 X120.1396 Y99.5444
G01 X120.1199 Y99.5755
G01 X120.0987 Y99.6056
G01 X120.0839 Y99.6252
G01 X120.0605 Y99.6537
G01 X120.0441 Y99.6721
G01 X120.0188 Y99.6988
G01 X119.9921 Y99.7241
G01 X119.9737 Y99.7405
G01 X119.9452 Y99.7639
G01 X119.9256 Y99.7787
G01 X119.8955 Y99.7999
G01 X119.8800 Y99.8100
G01 X119.8590 Y99.8228
G01 X119.8270 Y99.8410
G01 X119.7941 Y99.8575
G01 X119.7717 Y99.8679
G01 X119.7377 Y99.8819
G01 X119.7146 Y99.8905
G01 X119.6797 Y99.9020
G01 X119.6442 Y99.9118
G01 X119.6202 Y99.9176
G01 X119.5841 Y99.9248
G01 X119.5598 Y99.9286
G01 X119.5232 Y99.9331
G01 X119.5049 Y99.9347
G01 X119.4803 Y99.9361
G01 X119.4435 Y99.9370
G01 X50.8635 Y99.9370
G00 Z2.0000
G00 X74.5370 Y68.6435
G01 F60.00
G01 Z-2.4000
G01 F120.00
G01 X74.5361 Y68.6803
G01 X74.5347 Y68.7049
G01 X74.5331 Y68.7232
G01 X74.5311 Y68.7415
G01 X74.5277 Y68.7659
G01 X74.5214 Y68.8022
G01 X74.5176 Y68.8202
G01 X74.5118 Y68.8442
G01 X74.5020 Y68.8797
G01 X74.4905 Y68.9146
G01 X74.4819 Y68.9377
G01 X74.4751 Y68.9548
G01 X74.4679 Y68.9717
G01 X74.4575 Y68.9941
G01 X74.4410 Y69.0270
G01 X74.4228 Y69.0590
G01 X74.4100 Y69.0800
G01 X74.3999 Y69.0955
G01 X74.3895 Y69.1107
G01 X74.3750 Y69.1306
G01 X74.3524 Y69.1596
G01 X74.3283 Y69.1875
G01 X74.3116 Y69.2056
G01 X74.2988 Y69.2188
G01 X74.2856 Y69.2316
G01 X74.2675 Y69.2483
G01 X74.2396 Y69.2724
G01 X74.2106 Y69.2950
G01 X74.1907 Y69.3095
G01 X74.1755 Y69.3199
G01 X74.1600 Y69.3300
G01 X74.1390 Y69.3428
G01 X74.1070 Y69.3610
G01 X74.0741 Y69.3775
G01 X74.0517 Y69.3879
G01 X74.0348 Y69.3951
G01 X74.0005 Y69.4084
G01 X73.9772 Y69.4164
G01 X73.9597 Y69.4220
G01 X73.9420 Y69.4271
G01 X73.9181 Y69.4333
G01 X73.8822 Y69.4414
G01 X73.8459 Y69.4477
G01 X73.8215 Y69.4511
G01 X73.8032 Y69.4531
G01 X73.7849 Y69.4547
G01 X73.7603 Y69.4561
G01 X73.7235 Y69.4570
G01 X50.8451 Y69.4568
G01 X50.8205 Y69.4558
G01 X50.7838 Y69.4531
G01 X50.7472 Y69.4486
G01 X50.7229 Y69.4448
G01 X50.6868 Y69.4376
G01 X50.6628 Y69.4318
G01 X50.6273 Y69.4220
G01 X50.6098 Y69.4164
G01 X50.5865 Y69.4084
G01 X50.5522 Y69.3951
G01 X50.5185 Y69.3802
G01 X50.4963 Y69.3694
G01 X50.4639 Y69.3521
G01 X50.4426 Y69.3396
G01 X50.4115 Y69.3199
G01 X50.3814 Y69.2987
G01 X50.3618 Y69.2839
G01 X50.3333 Y69.2605
G01 X50.3149 Y69.2441
G01 X50.2882 Y69.2188
G01 X50.2629 Y69.1921
G01 X50.2465 Y69.1737
G01 X50.2231 Y69.1452
G01 X50.2120 Y69.1306
G01 X50.1975 Y69.1107
G01 X50.1770 Y69.0800
G01 X50.1642 Y69.0590
G01 X50.1460 Y69.0270
G01 X50.1295 Y68.9941
G01 X50.1191 Y68.9717
G01 X50.1051 Y68.9377
G01 X50.0965 Y68.9146
G01 X50.0850 Y68.8797
G01 X50.0752 Y68.8442
G01 X50.0694 Y68.8202
G01 X50.0622 Y68.7841
G01 X50.0584 Y68.7598
G01 X50.0539 Y68.7232
G01 X50.0523 Y68.7049
G01 X50.0509 Y68.6803
G01 X50.0500 Y68.6435
G01 X50.0502 Y55.9251
G01 X50.0510 Y55.9036
G01 X50.0632 Y55.6546
G01 X50.0643 Y55.6362
G01 X50.0665 Y55.6117
G01 X50.0710 Y55.5752
G01 X50.1076 Y55.3286
G01 X50.1105 Y55.3104
G01 X50.1151 Y55.2862
G01 X50.1232 Y55.2503
G01 X50.1837 Y55.0085
G01 X50.1884 Y54.9907
G01 X50.1954 Y54.9671
G01 X50.2069 Y54.9321
G01 X50.2909 Y54.6974
G01 X50.2973 Y54.6802
G01 X50.3065 Y54.6573
G01 X50.3214 Y54.6237
G01 X50.4280 Y54.3983
G01 X50.4361 Y54.3818
G01 X50.4475 Y54.3599
G01 X50.4656 Y54.3279
G01 X50.5938 Y54.1141
G01 X50.6034 Y54.0984
G01 X50.6169 Y54.0778
G01 X50.6381 Y54.0477
G01 X50.7866 Y53.8475
G01 X50.7978 Y53.8329
G01 X50.8132 Y53.8137
G01 X50.8373 Y53.7858
G01 X51.0047 Y53.6011
G01 X51.0172 Y53.5876
G01 X51.0345 Y53.5700
G01 X51.0611 Y53.5447
G01 X51.2458 Y53.3773
G01 X51.2596 Y53.3651
G01 X51.2785 Y53.3493
G01 X51.3075 Y53.3266
G01 X51.5077 Y53.1781
G01 X51.5227 Y53.1674
G01 X51.5430 Y53.1535
G01 X51.5741 Y53.1338
G01 X51.7879 Y53.0056
G01 X51.8038 Y52.9964
G01 X51.8254 Y52.9845
G01 X51.8583 Y52.9680
G01 X52.0837 Y52.8614
G01 X52.1004 Y52.8538
G01 X52.1231 Y52.8441
G01 X52.1574 Y52.8309
G01 X52.3921 Y52.7469
G01 X52.4095 Y52.7409
G01 X52.4330 Y52.7335
G01 X52.4685 Y52.7237
G01 X52.7103 Y52.6632
G01 X52.7282 Y52.6589
G01 X52.7523 Y52.6539
G01 X52.7886 Y52.6476
G01 X53.0352 Y52.6110
G01 X53.0534 Y52.6085
G01 X53.0779 Y52.6059
G01 X53.1146 Y52.6032
G01 X53.3636 Y52.5910
G01 X53.4035 Y52.5900
G01 X55.9235 Y52.5900
G01 X56.1126 Y52.5807
G01 X56.2801 Y52.5558
G01 X56.4444 Y52.5147
G01 X56.6038 Y52.4576
G01 X56.7569 Y52.3852
G01 X56.9021 Y52.2982
G01 X57.0381 Y52.1973
G01 X57.1636 Y52.0836
G01 X57.2773 Y51.9581
G01 X57.3782 Y51.8221
G01 X57.4652 Y51.6769
G01 X57.5376 Y51.5238
G01 X57.5947 Y51.3644
G01 X57.6358 Y51.2001
G01 X57.6607 Y51.0326
G01 X57.6700 Y50.8435
G01 X57.6700 Y33.1035
G01 X57.6607 Y32.9144
G01 X57.6358 Y32.7469
G01 X57.5947 Y32.5826
G01 X57.5376 Y32.4232
G01 X57.4652 Y32.2701
G01 X57.3782 Y32.1249
G01 X57.2773 Y31.9889
G01 X57.1636 Y31.8634
G01 X57.0381 Y31.7497
G01 X56.9021 Y31.6488
G01 X56.7569 Y31.5618
G01 X56.6038 Y31.4894
G01 X56.4444 Y31.4323
G01 X56.2801 Y31.3912
G01 X56.1126 Y31.3663
G01 X55.9235 Y31.3570
G01 X53.4035 Y31.3570
G01 X53.3636 Y31.3560
G01 X53.1146 Y31.3438
G01 X53.0962 Y31.3427
G01 X53.0717 Y31.3405
G01 X53.0352 Y31.3360
G01 X52.7886 Y31.2994
G01 X52.7704 Y31.2965
G01 X52.7462 Y31.2919
G01 X52.7103 Y31.2838
G01 X52.4685 Y31.2233
G01 X52.4507 Y31.2186
G01 X52.4271 Y31.2116
G01 X52.3921 Y31.2001
G01 X52.1574 Y31.1161
G01 X52.1402 Y31.1097
G01 X52.1173 Y31.1005
G01 X52.0837 Y31.0856
G01 X51.8583 Y30.9790
G01 X51.8254 Y30.9625
G01 X51.8038 Y30.9506
G01 X51.5741 Y30.8132
G01 X51.5584 Y30.8036
G01 X51.5378 Y30.7901
G01 X51.5077 Y30.7689
G01 X51.3075 Y30.6204
G01 X51.2929 Y30.6092
G01 X51.2737 Y30.5938
G01 X51.2458 Y30.5697
G01 X51.0611 Y30.4023
G01 X51.0476 Y30.3898
G01 X51.0300 Y30.3725
G01 X51.0047 Y30.3459
G01 X50.8373 Y30.1612
G01 X50.8132 Y30.1333
G01 X50.7978 Y30.1141
G01 X50.7866 Y30.0995
G01 X50.6381 Y29.8993
G01 X50.6169 Y29.8692
G01 X50.6034 Y29.8486
G01 X50.5938 Y29.8329
G01 X50.4656 Y29.6191
G01 X50.4564 Y29.6032
G01 X50.4445 Y29.5816
G01 X50.4280 Y29.5487
G01 X50.3214 Y29.3233
G01 X50.3138 Y29.3066
G01 X50.3041 Y29.2839
G01 X50.2909 Y29.2496
G01 X50.2069 Y29.0149
G01 X50.2009 Y28.9975
G01 X50.1935 Y28.9740
G01 X50.1837 Y28.9385
G01 X50.1232 Y28.6967
G01 X50.1189 Y28.6788
G01 X50.1139 Y28.6547
G01 X50.1076 Y28.6184
G01 X50.0710 Y28.3718
G01 X50.0685 Y28.3536
G01 X50.0659 Y28.3291
G01 X50.0632 Y28.2924
G01 X50.0510 Y28.0434
G01 X50.0500 Y28.0035
G01 X50.0502 Y0.0451
G01 X50.0512 Y0.0205
G01 X50.0539 Y-0.0162
G01 X50.0584 Y-0.0528
G01 X50.0622 Y-0.0771
G01 X50.0694 Y-0.1132
G01 X50.0737 Y-0.1311
G01 X50.0799 Y-0.1550
G01 X50.0906 Y-0.1902
G01 X50.0986 Y-0.2135
G01 X50.1119 Y-0.2478
G01 X50.1268 Y-0.2815
G01 X50.1376 Y-0.3037
G01 X50.1549 Y-0.3361
G01 X50.1674 Y-0.3574
G01 X50.1871 Y-0.3885
G01 X50.2083 Y-0.4186
G01 X50.2231 Y-0.4382
G01 X50.2465 Y-0.4667
G01 X50.2629 Y-0.4851
G01 X50.2882 Y-0.5118
G01 X50.3149 Y-0.5371
G01 X50.3333 Y-0.5535
G01 X50.3474 Y-0.5654
G01 X50.3764 Y-0.5880
G01 X50.3963 Y-0.6025
G01 X50.4270 Y-0.6230
G01 X50.4480 Y-0.6358
G01 X50.4800 Y-0.6540
G01 X50.5129 Y-0.6705
G01 X50.5353 Y-0.6809
G01 X50.5693 Y-0.6949
G01 X50.5924 Y-0.7035
G01 X50.6273 Y-0.7150
G01 X50.6628 Y-0.7248
G01 X50.6868 Y-0.7306
G01 X50.7229 Y-0.7378
G01 X50.7472 Y-0.7416
G01 X50.7838 Y-0.7461
G01 X50.8021 Y-0.7477
G01 X50.8267 Y-0.7491
G01 X50.8635 Y-0.7500
G01 X73.7419 Y-0.7498
G01 X73.7665 Y-0.7488
G01 X73.8032 Y-0.7461
G01 X73.8398 Y-0.7416
G01 X73.8641 Y-0.7378
G01 X73.9002 Y-0.7306
G01 X73.9242 Y-0.7248
G01 X73.9420 Y-0.7201
G01 X73.9772 Y-0.7094
G01 X74.0005 Y-0.7014
G01 X74.0348 Y-0.6881
G01 X74.0685 Y-0.6732
G01 X74.0907 Y-0.6624
G01 X74.1231 Y-0.6451
G01 X74.1444 Y-0.6326
G01 X74.1755 Y-0.6129
G01 X74.2056 Y-0.5917
G01 X74.2252 Y-0.5769
G01 X74.2537 Y-0.5535
G01 X74.2721 Y-0.5371
G01 X74.2988 Y-0.5118
G01 X74.3241 Y-0.4851
G01 X74.3405 Y-0.4667
G01 X74.3639 Y-0.4382
G01 X74.3750 Y-0.4236
G01 X74.3895 Y-0.4037
G01 X74.4100 Y-0.3730
G01 X74.4228 Y-0.3520
G01 X74.4410 Y-0.3200
G01 X74.4575 Y-0.2871
G01 X74.4679 Y-0.2647
G01 X74.4819 Y-0.2307
G01 X74.4905 Y-0.2076
G01 X74.5020 Y-0.1727
G01 X74.5118 Y-0.1372
G01 X74.5176 Y-0.1132
G01 X74.5248 Y-0.0771
G01 X74.5286 Y-0.0528
G01 X74.5331 Y-0.0162
G01 X74.5347 Y0.0021
G01 X74.5361 Y0.0267
G01 X74.5370 Y0.0635
G01 X74.5370 Y28.0035
G01 X74.5360 Y28.0434
G01 X74.5238 Y28.2924
G01 X74.5211 Y28.3291
G01 X74.5185 Y28.3536
G01 X74.5160 Y28.3718
G01 X74.4794 Y28.6184
G01 X74.4765 Y28.6366
G01 X74.4719 Y28.6608
G01 X74.4638 Y28.6967
G01 X74.4033 Y28.9385
G01 X74.3935 Y28.9740
G01 X74.3861 Y28.9975
G01 X74.3801 Y29.0149
G01 X74.2961 Y29.2496
G01 X74.2897 Y29.2668
G01 X74.2805 Y29.2897
G01 X74.2656 Y29.3233
G01 X74.1590 Y29.5487
G01 X74.1509 Y29.5652
G01 X74.1395 Y29.5871
G01 X74.1214 Y29.6191
G01 X73.9932 Y29.8329
G01 X73.9836 Y29.8486
G01 X73.9701 Y29.8692
G01 X73.9489 Y29.8993
G01 X73.8004 Y30.0995
G01 X73.7892 Y30.1141
G01 X73.7738 Y30.1333
G01 X73.7497 Y30.1612
G01 X73.5823 Y30.3459
G01 X73.5698 Y30.3594
G01 X73.5525 Y30.3770
G01 X73.5259 Y30.4023
G01 X73.3412 Y30.5697
G01 X73.3274 Y30.5819
G01 X73.3085 Y30.5977
G01 X73.2795 Y30.6204
G01 X73.0793 Y30.7689
G01 X73.0492 Y30.7901
G01 X73.0286 Y30.8036
G01 X73.0129 Y30.8132
G01 X72.7991 Y30.9414
G01 X72.7832 Y30.9506
G01 X72.7616 Y30.9625
G01 X72.7287 Y30.9790
G01 X72.5033 Y31.0856
G01 X72.4866 Y31.0932
G01 X72.4639 Y31.1029
G01 X72.4296 Y31.1161
G01 X72.1949 Y31.2001
G01 X72.1775 Y31.2061
G01 X72.1540 Y31.2135
G01 X72.1185 Y31.2233
G01 X71.8767 Y31.2838
G01 X71.8588 Y31.2881
G01 X71.8347 Y31.2931
G01 X71.7984 Y31.2994
G01 X71.5518 Y31.3360
G01 X71.5153 Y31.3405
G01 X71.4908 Y31.3427
G01 X71.4724 Y31.3438
G01 X71.2234 Y31.3560
G01 X71.1835 Y31.3570
G01 X68.6635 Y31.3570
G01 X68.4744 Y31.3663
G01 X68.3069 Y31.3912
G01 X68.1426 Y31.4323
G01 X67.9832 Y31.4894
G01 X67.8301 Y31.5618
G01 X67.6849 Y31.6488
G01 X67.5489 Y31.7497
G01 X67.4234 Y31.8634
G01 X67.3097 Y31.9889
G01 X67.2088 Y32.1249
G01 X67.1218 Y32.2701
G01 X67.0494 Y32.4232
G01 X66.9923 Y32.5826
G01 X66.9512 Y32.7469
G01 X66.9263 Y32.9144
G01 X66.9170 Y33.1035
G01 X66.9170 Y50.8435
G01 X66.9263 Y51.0326
G01 X66.9512 Y51.2001
G01 X66.9923 Y51.3644
G01 X67.0494 Y51.5238
G01 X67.1218 Y51.6769
G01 X67.2088 Y51.8221
G01 X67.3097 Y51.9581
G01 X67.4234 Y52.0836
G01 X67.5489 Y52.1973
G01 X67.6849 Y52.2982
G01 X67.8301 Y52.3852
G01 X67.9832 Y52.4576
G01 X68.1426 Y52.5147
G01 X68.3069 Y52.5558
G01 X68.4744 Y52.5807
G01 X68.6635 Y52.5900
G01 X71.1835 Y52.5900
G01 X71.2234 Y52.5910
G01 X71.4724 Y52.6032
G01 X71.4908 Y52.6043
G01 X71.5153 Y52.6065
G01 X71.5518 Y52.6110
G01 X71.7984 Y52.6476
G01 X71.8166 Y52.6505
G01 X71.8408 Y52.6551
G01 X71.8767 Y52.6632
G01 X72.1185 Y52.7237
G01 X72.1363 Y52.7284
G01 X72.1599 Y52.7354
G01 X72.1949 Y52.7469
G01 X72.4296 Y52.8309
G01 X72.4468 Y52.8373
G01 X72.4697 Y52.8465
G01 X72.5033 Y52.8614
G01 X72.7287 Y52.9680
G01 X72.7452 Y52.9761
G01 X72.7671 Y52.9875
G01 X72.7991 Y53.0056
G01 X73.0129 Y53.1338
G01 X73.0286 Y53.1434
G01 X73.0492 Y53.1569
G01 X73.0793 Y53.1781
G01 X73.2795 Y53.3266
G01 X73.2941 Y53.3378
G01 X73.3133 Y53.3532
G01 X73.3412 Y53.3773
G01 X73.5259 Y53.5447
G01 X73.5394 Y53.5572
G01 X73.5570 Y53.5745
G01 X73.5823 Y53.6011
G01 X73.7497 Y53.7858
G01 X73.7738 Y53.8137
G01 X73.7892 Y53.8329
G01 X73.8004 Y53.8475
G01 X73.9489 Y54.0477
G01 X73.9701 Y54.0778
G01 X73.9836 Y54.0984
G01 X73.9932 Y54.1141
G01 X74.1214 Y54.3279
G01 X74.1395 Y54.3599
G01 X74.1509 Y54.3818
G01 X74.1590 Y54.3983
G01 X74.2656 Y54.6237
G01 X74.2805 Y54.6573
G01 X74.2897 Y54.6802
G01 X74.2961 Y54.6974
G01 X74.3801 Y54.9321
G01 X74.3916 Y54.9671
G01 X74.3986 Y54.9907
G01 X74.4033 Y55.0085
G01 X74.4638 Y55.2503
G01 X74.4719 Y55.2862
G01 X74.4765 Y55.3104
G01 X74.4794 Y55.3286
G01 X74.5160 Y55.5752
G01 X74.5205 Y55.6117
G01 X74.5227 Y55.6362
G01 X74.5238 Y55.6546
G01 X74.5360 Y55.9036
G01 X74.5368 Y55.9251
G01 X74.5370 Y68.6435
G00 Z2.0000
G00 X99.9370 Y68.6435
G01 F60.00
G01 Z-2.4000
G01 F120.00
G01 X99.9361 Y68.6803
G01 X99.9347 Y68.7049
G01 X99.9331 Y68.7232
G01 X99.9311 Y68.7415
G01 X99.9277 Y68.7659
G01 X99.9214 Y68.8022
G01 X99.9133 Y68.8381
G01 X99.9071 Y68.8620
G01 X99.9020 Y68.8797
G01 X99.8905 Y68.9146
G01 X99.8819 Y68.9377
G01 X99.8751 Y68.9548
G01 X99.8679 Y68.9717
G01 X99.8575 Y68.9941
G01 X99.8410 Y69.0270
G01 X99.8228 Y69.0590
G01 X99.8100 Y69.0800
G01 X99.7999 Y69.0955
G01 X99.7895 Y69.1107
G01 X99.7750 Y69.1306
G01 X99.7524 Y69.1596
G01 X99.7283 Y69.1875
G01 X99.7116 Y69.2056
G01 X99.6988 Y69.2188
G01 X99.6856 Y69.2316
G01 X99.6675 Y69.2483
G01 X99.6396 Y69.2724
G01 X99.6252 Y69.2839
G01 X99.6056 Y69.2987
G01 X99.5755 Y69.3199
G01 X99.5444 Y69.3396
G01 X99.5231 Y69.3521
G01 X99.5070 Y69.3610
G01 X99.4907 Y69.3694
G01 X99.4685 Y69.3802
G01 X99.4348 Y69.3951
G01 X99.4005 Y69.4084
G01 X99.3772 Y69.4164
G01 X99.3597 Y69.4220
G01 X99.3242 Y69.4318
G01 X99.3002 Y69.4376
G01 X99.2822 Y69.4414
G01 X99.2641 Y69.4448
G01 X99.2398 Y69.4486
G01 X99.2032 Y69.4531
G01 X99.1849 Y69.4547
G01 X99.1603 Y69.4561
G01 X99.1235 Y69.4570
G01 X76.2451 Y69.4568
G01 X76.2205 Y69.4558
G01 X76.1838 Y69.4531
G01 X76.1472 Y69.4486
G01 X76.1229 Y69.4448
G01 X76.0868 Y69.4376
G01 X76.0628 Y69.4318
G01 X76.0450 Y69.4271
G01 X76.0098 Y69.4164
G01 X75.9865 Y69.4084
G01 X75.9522 Y69.3951
G01 X75.9185 Y69.3802
G01 X75.8963 Y69.3694
G01 X75.8639 Y69.3521
G01 X75.8426 Y69.3396
G01 X75.8115 Y69.3199
G01 X75.7814 Y69.2987
G01 X75.7618 Y69.2839
G01 X75.7333 Y69.2605
G01 X75.7149 Y69.2441
G01 X75.6882 Y69.2188
G01 X75.6629 Y69.1921
G01 X75.6465 Y69.1737
G01 X75.6346 Y69.1596
G01 X75.6120 Y69.1306
G01 X75.5975 Y69.1107
G01 X75.5770 Y69.0800
G01 X75.5642 Y69.0590
G01 X75.5460 Y69.0270
G01 X75.5295 Y68.9941
G01 X75.5191 Y68.9717
G01 X75.5051 Y68.9377
G01 X75.4965 Y68.9146
G01 X75.4850 Y68.8797
G01 X75.4752 Y68.8442
G01 X75.4694 Y68.8202
G01 X75.4622 Y68.7841
G01 X75.4584 Y68.7598
G01 X75.4539 Y68.7232
G01 X75.4523 Y68.7049
G01 X75.4509 Y68.6803
G01 X75.4500 Y68.6435
G01 X75.4502 Y55.9251
G01 X75.4510 Y55.9036
G01 X75.4632 Y55.6546
G01 X75.4643 Y55.6362
G01 X75.4665 Y55.6117
G01 X75.4710 Y55.5752
G01 X75.5076 Y55.3286
G01 X75.5105 Y55.3104
G01 X75.5151 Y55.2862
G01 X75.5232 Y55.2503
G01 X75.5837 Y55.0085
G01 X75.5884 Y54.9907
G01 X75.5954 Y54.9671
G01 X75.6069 Y54.9321
G01 X75.6909 Y54.6974
G01 X75.6973 Y54.6802
G01 X75.7065 Y54.6573
G01 X75.7214 Y54.6237
G01 X75.8280 Y54.3983
G01 X75.8361 Y54.3818
G01 X75.8475 Y54.3599
G01 X75.8656 Y54.3279
G01 X75.9938 Y54.1141
G01 X76.0034 Y54.0984
G01 X76.0169 Y54.0778
G01 X76.0381 Y54.0477
G01 X76.1866 Y53.8475
G01 X76.1978 Y53.8329
G01 X76.2132 Y53.8137
G01 X76.2373 Y53.7858
G01 X76.4047 Y53.6011
G01 X76.4172 Y53.5876
G01 X76.4345 Y53.5700
G01 X76.4611 Y53.5447
G01 X76.6458 Y53.3773
G01 X76.6596 Y53.3651
G01 X76.6785 Y53.3493
G01 X76.7075 Y53.3266
G01 X76.9077 Y53.1781
G01 X76.9227 Y53.1674
G01 X76.9430 Y53.1535
G01 X76.9741 Y53.1338
G01 X77.1879 Y53.0056
G01 X77.2038 Y52.9964
G01 X77.2254 Y52.9845
G01 X77.2583 Y52.9680
G01 X77.4837 Y52.8614
G01 X77.5004 Y52.8538
G01 X77.5231 Y52.8441
G01 X77.5574 Y52.8309
G01 X77.7921 Y52.7469
G01 X77.8095 Y52.7409
G01 X77.8330 Y52.7335
G01 X77.8685 Y52.7237
G01 X78.1103 Y52.6632
G01 X78.1282 Y52.6589
G01 X78.1523 Y52.6539
G01 X78.1886 Y52.6476
G01 X78.4352 Y52.6110
G01 X78.4534 Y52.6085
G01 X78.4779 Y52.6059
G01 X78.5146 Y52.6032
G01 X78.7636 Y52.5910
G01 X78.8035 Y52.5900
G01 X81.3235 Y52.5900
G01 X81.5126 Y52.5807
G01 X81.6801 Y52.5558
G01 X81.8444 Y52.5147
G01 X82.0038 Y52.4576
G01 X82.1569 Y52.3852
G01 X82.3021 Y52.2982
G01 X82.4381 Y52.1973
G01 X82.5636 Y52.0836
G01 X82.6773 Y51.9581
G01 X82.7782 Y51.8221
G01 X82.8652 Y51.6769
G01 X82.9376 Y51.5238
G01 X82.9947 Y51.3644
G01 X83.0358 Y51.2001
G01 X83.0607 Y51.0326
G01 X83.0700 Y50.8435
G01 X83.0700 Y33.1035
G01 X83.0607 Y32.9144
G01 X83.0358 Y32.7469
G01 X82.9947 Y32.5826
G01 X82.9376 Y32.4232
G01 X82.8652 Y32.2701
G01 X82.7782 Y32.1249
G01 X82.6773 Y31.9889
G01 X82.5636 Y31.8634
G01 X82.4381 Y31.7497
G01 X82.3021 Y31.6488
G01 X82.1569 Y31.5618
G01 X82.0038 Y31.4894
G01 X81.8444 Y31.4323
G01 X81.6801 Y31.3912
G01 X81.5126 Y31.3663
G01 X81.3235 Y31.3570
G01 X78.8035 Y31.3570
G01 X78.7636 Y31.3560
G01 X78.5146 Y31.3438
G01 X78.4962 Y31.3427
G01 X78.4717 Y31.3405
G01 X78.4352 Y31.3360
G01 X78.1886 Y31.2994
G01 X78.1704 Y31.2965
G01 X78.1462 Y31.2919
G01 X78.1103 Y31.2838
G01 X77.8685 Y31.2233
G01 X77.8507 Y31.2186
G01 X77.8271 Y31.2116
G01 X77.7921 Y31.2001
G01 X77.5574 Y31.1161
G01 X77.5402 Y31.1097
G01 X77.5173 Y31.1005
G01 X77.4837 Y31.0856
G01 X77.2583 Y30.9790
G01 X77.2254 Y30.9625
G01 X77.2038 Y30.9506
G01 X76.9741 Y30.8132
G01 X76.9584 Y30.8036
G01 X76.9378 Y30.7901
G01 X76.9077 Y30.7689
G01 X76.7075 Y30.6204
G01 X76.6929 Y30.6092
G01 X76.6737 Y30.5938
G01 X76.6458 Y30.5697
G01 X76.4611 Y30.4023
G01 X76.4476 Y30.3898
G01 X76.4300 Y30.3725
G01 X76.4047 Y30.3459
G01 X76.2373 Y30.1612
G01 X76.2132 Y30.1333
G01 X76.1978 Y30.1141
G01 X76.1866 Y30.0995
G01 X76.0381 Y29.8993
G01 X76.0169 Y29.8692
G01 X76.0034 Y29.8486
G01 X75.9938 Y29.8329
G01 X75.8656 Y29.6191
G01 X75.8564 Y29.6032
G01 X75.8445 Y29.5816
G01 X75.8280 Y29.5487
G01 X75.7214 Y29.3233
G01 X75.7138 Y29.3066
G01 X75.7041 Y29.2839
G01 X75.6909 Y29.2496
G01 X75.6069 Y29.0149
G01 X75.6009 Y28.9975
G01 X75.5935 Y28.9740
G01 X75.5837 Y28.9385
G01 X75.5232 Y28.6967
G01 X75.5189 Y28.6788
G01 X75.5139 Y28.6547
G01 X75.5076 Y28.6184
G01 X75.4710 Y28.3718
G01 X75.4685 Y28.3536
G01 X75.4659 Y28.3291
G01 X75.4632 Y28.2924
G01 X75.4510 Y28.0434
G01 X75.4500 Y28.0035
G01 X75.4502 Y0.0451
G01 X75.4512 Y0.0205
G01 X75.4539 Y-0.0162
G01 X75.4584 Y-0.0528
G01 X75.4622 Y-0.0771
G01 X75.4694 Y-0.1132
G01 X75.4737 Y-0.1311
G01 X75.4799 Y-0.1550
G01 X75.4906 Y-0.1902
G01 X75.4986 Y-0.2135
G01 X75.5119 Y-0.2478
G01 X75.5268 Y-0.2815
G01 X75.5376 Y-0.3037
G01 X75.5549 Y-0.3361
G01 X75.5674 Y-0.3574
G01 X75.5871 Y-0.3885
G01 X75.6083 Y-0.4186
G01 X75.6231 Y-0.4382
G01 X75.6465 Y-0.4667
G01 X75.6629 Y-0.4851
G01 X75.6882 Y-0.5118
G01 X75.7149 Y-0.5371
G01 X75.7333 Y-0.5535
G01 X75.7618 Y-0.5769
G01 X75.7764 Y-0.5880
G01 X75.7963 Y-0.6025
G01 X75.8270 Y-0.6230
G01 X75.8480 Y-0.6358
G01 X75.8800 Y-0.6540
G01 X75.9129 Y-0.6705
G01 X75.9353 Y-0.6809
G01 X75.9693 Y-0.6949
G01 X75.9924 Y-0.7035
G01 X76.0273 Y-0.7150
G01 X76.0628 Y-0.7248
G01 X76.0868 Y-0.7306
G01 X76.1229 Y-0.7378
G01 X76.1472 Y-0.7416
G01 X76.1838 Y-0.7461
G01 X76.2021 Y-0.7477
G01 X76.2267 Y-0.7491
G01 X76.2635 Y-0.7500
G01 X99.1419 Y-0.7498
G01 X99.1665 Y-0.7488
G01 X99.2032 Y-0.7461
G01 X99.2398 Y-0.7416
G01 X99.2641 Y-0.7378
G01 X99.3002 Y-0.7306
G01 X99.3181 Y-0.7263
G01 X99.3420 Y-0.7201
G01 X99.3772 Y-0.7094
G01 X99.4005 Y-0.7014
G01 X99.4348 Y-0.6881
G01 X99.4685 Y-0.6732
G01 X99.4907 Y-0.6624
G01 X99.5231 Y-0.6451
G01 X99.5444 Y-0.6326
G01 X99.5755 Y-0.6129
G01 X99.6056 Y-0.5917
G01 X99.6252 Y-0.5769
G01 X99.6537 Y-0.5535
G01 X99.6721 Y-0.5371
G01 X99.6988 Y-0.5118
G01 X99.7241 Y-0.4851
G01 X99.7405 Y-0.4667
G01 X99.7639 Y-0.4382
G01 X99.7750 Y-0.4236
G01 X99.7895 Y-0.4037
G01 X99.8100 Y-0.3730
G01 X99.8228 Y-0.3520
G01 X99.8410 Y-0.3200
G01 X99.8575 Y-0.2871
G01 X99.8679 Y-0.2647
G01 X99.8819 Y-0.2307
G01 X99.8905 Y-0.2076
G01 X99.9020 Y-0.1727
G01 X99.9118 Y-0.1372
G01 X99.9176 Y-0.1132
G01 X99.9248 Y-0.0771
G01 X99.9286 Y-0.0528
G01 X99.9331 Y-0.0162
G01 X99.9347 Y0.0021
G01 X99.9361 Y0.0267
G01 X99.9370 Y0.0635
G01 X99.9370 Y28.0035
G01 X99.9360 Y28.0434
G01 X99.9238 Y28.2924
G01 X99.9211 Y28.3291
G01 X99.9185 Y28.3536
G01 X99.9160 Y28.3718
G01 X99.8794 Y28.6184
G01 X99.8765 Y28.6366
G01 X99.8719 Y28.6608
G01 X99.8638 Y28.6967
G01 X99.8033 Y28.9385
G01 X99.7935 Y28.9740
G01 X99.7861 Y28.9975
G01 X99.7801 Y29.0149
G01 X99.6961 Y29.2496
G01 X99.6897 Y29.2668
G01 X99.6805 Y29.2897
G01 X99.6656 Y29.3233
G01 X99.5590 Y29.5487
G01 X99.5509 Y29.5652
G01 X99.5395 Y29.5871
G01 X99.5214 Y29.6191
G01 X99.3932 Y29.8329
G01 X99.3836 Y29.8486
G01 X99.3701 Y29.8692
G01 X99.3489 Y29.8993
G01 X99.2004 Y30.0995
G01 X99.1892 Y30.1141
G01 X99.1738 Y30.1333
G01 X99.1497 Y30.1612
G01 X98.9823 Y30.3459
G01 X98.9698 Y30.3594
G01 X98.9525 Y30.3770
G01 X98.9259 Y30.4023
G01 X98.7412 Y30.5697
G01 X98.7274 Y30.5819
G01 X98.7085 Y30.5977
G01 X98.6795 Y30.6204
G01 X98.4793 Y30.7689
G01 X98.4492 Y30.7901
G01 X98.4286 Y30.8036
G01 X98.4129 Y30.8132
G01 X98.1991 Y30.9414
G01 X98.1832 Y30.9506
G01 X98.1616 Y30.9625
G01 X98.1287 Y30.9790
G01 X97.9033 Y31.0856
G01 X97.8866 Y31.0932
G01 X97.8639 Y31.1029
G01 X97.8296 Y31.1161
G01 X97.5949 Y31.2001
G01 X97.5775 Y31.2061
G01 X97.5540 Y31.2135
G01 X97.5185 Y31.2233
G01 X97.2767 Y31.2838
G01 X97.2588 Y31.2881
G01 X97.2347 Y31.2931
G01 X97.1984 Y31.2994
G01 X96.9518 Y31.3360
G01 X96.9153 Y31.3405
G01 X96.8908 Y31.3427
G01 X96.8724 Y31.3438
G01 X96.6234 Y31.3560
G01 X96.5835 Y31.3570
G01 X94.0635 Y31.3570
G01 X93.8744 Y31.3663
G01 X93.7069 Y31.3912
G01 X93.5426 Y31.4323
G01 X93.3832 Y31.4894
G01 X93.2301 Y31.5618
G01 X93.0849 Y31.6488
G01 X92.9489 Y31.7497
G01 X92.8234 Y31.8634
G01 X92.7097 Y31.9889
G01 X92.6088 Y32.1249
G01 X92.5218 Y32.2701
G01 X92.4494 Y32.4232
G01 X92.3923 Y32.5826
G01 X92.3512 Y32.7469
G01 X92.3263 Y32.9144
G01 X92.3170 Y33.1035
G01 X92.3170 Y50.8435
G01 X92.3263 Y51.0326
G01 X92.3512 Y51.2001
G01 X92.3923 Y51.3644
G01 X92.4494 Y51.5238
G01 X92.5218 Y51.6769
G01 X92.6088 Y51.8221
G01 X92.7097 Y51.9581
G01 X92.8234 Y52.0836
G01 X92.9489 Y52.1973
G01 X93.0849 Y52.2982
G01 X93.2301 Y52.3852
G01 X93.3832 Y52.4576
G01 X93.5426 Y52.5147
G01 X93.7069 Y52.5558
G01 X93.8744 Y52.5807
G01 X94.0635 Y52.5900
G01 X96.5835 Y52.5900
G01 X96.6234 Y52.5910
G01 X96.8724 Y52.6032
G01 X96.8908 Y52.6043
G01 X96.9153 Y52.6065
G01 X96.9518 Y52.6110
G01 X97.1984 Y52.6476
G01 X97.2166 Y52.6505
G01 X97.2408 Y52.6551
G01 X97.2767 Y52.6632
G01 X97.5185 Y52.7237
G01 X97.5363 Y52.7284
G01 X97.5599 Y52.7354
G01 X97.5949 Y52.7469
G01 X97.8296 Y52.8309
G01 X97.8468 Y52.8373
G01 X97.8697 Y52.8465
G01 X97.9033 Y52.8614
G01 X98.1287 Y52.9680
G01 X98.1452 Y52.9761
G01 X98.1671 Y52.9875
G01 X98.1991 Y53.0056
G01 X98.4129 Y53.1338
G01 X98.4286 Y53.1434
G01 X98.4492 Y53.1569
G01 X98.4793 Y53.1781
G01 X98.6795 Y53.3266
G01 X98.6941 Y53.3378
G01 X98.7133 Y53.3532
G01 X98.7412 Y53.3773
G01 X98.9259 Y53.5447
G01 X98.9394 Y53.5572
G01 X98.9570 Y53.5745
G01 X98.9823 Y53.6011
G01 X99.1497 Y53.7858
G01 X99.1738 Y53.8137
G01 X99.1892 Y53.8329
G01 X99.2004 Y53.8475
G01 X99.3489 Y54.0477
G01 X99.3701 Y54.0778
G01 X99.3836 Y54.0984
G01 X99.3932 Y54.1141
G01 X99.5214 Y54.3279
G01 X99.5395 Y54.3599
G01 X99.5509 Y54.3818
G01 X99.5590 Y54.3983
G01 X99.6656 Y54.6237
G01 X99.6805 Y54.6573
G01 X99.6897 Y54.6802
G01 X99.6961 Y54.6974
G01 X99.7801 Y54.9321
G01 X99.7916 Y54.9671
G01 X99.7986 Y54.9907
G01 X99.8033 Y55.0085
G01 X99.8638 Y55.2503
G01 X99.8719 Y55.2862
G01 X99.8765 Y55.3104
G01 X99.8794 Y55.3286
G01 X99.9160 Y55.5752
G01 X99.9205 Y55.6117
G01 X99.9227 Y55.6362
G01 X99.9238 Y55.6546
G01 X99.9360 Y55.9036
G01 X99.9368 Y55.9251
G01 X99.9370 Y68.6435
G00 Z2.0000
G00 X125.3370 Y66.1035
G01 F60.00
G01 Z-2.4000
G01 F120.00
G01 X125.3361 Y66.1403
G01 X125.3347 Y66.1649
G01 X125.3331 Y66.1832
G01 X125.3311 Y66.2015
G01 X125.3277 Y66.2259
G01 X125.3214 Y66.2622
G01 X125.3133 Y66.2981
G01 X125.3071 Y66.3220
G01 X125.3020 Y66.3397
G01 X125.2905 Y66.3746
G01 X125.2819 Y66.3977
G01 X125.2751 Y66.4148
G01 X125.2679 Y66.4317
G01 X125.2575 Y66.4541
G01 X125.2410 Y66.4870
G01 X125.2228 Y66.5190
G01 X125.2100 Y66.5400
G01 X125.1999 Y66.5555
G01 X125.1895 Y66.5707
G01 X125.1750 Y66.5906
G01 X125.1524 Y66.6196
G01 X125.1283 Y66.6475
G01 X125.1116 Y66.6656
G01 X125.0988 Y66.6788
G01 X125.0856 Y66.6916
G01 X125.0675 Y66.7083
G01 X125.0396 Y66.7324
G01 X125.0252 Y66.7439
G01 X125.0056 Y66.7587
G01 X124.9755 Y66.7799
G01 X124.9444 Y66.7996
G01 X124.9231 Y66.8121
G01 X124.9070 Y66.8210
G01 X124.8907 Y66.8294
G01 X124.8685 Y66.8402
G01 X124.8348 Y66.8551
G01 X124.8177 Y66.8619
G01 X124.7946 Y66.8705
G01 X124.7597 Y66.8820
G01 X124.7242 Y66.8918
G01 X124.7002 Y66.8976
G01 X124.6822 Y66.9014
G01 X124.6641 Y66.9048
G01 X124.6398 Y66.9086
G01 X124.6032 Y66.9131
G01 X124.5849 Y66.9147
G01 X124.5603 Y66.9161
G01 X124.5235 Y66.9170
G01 X101.6451 Y66.9168
G01 X101.6205 Y66.9158
G01 X101.5838 Y66.9131
G01 X101.5472 Y66.9086
G01 X101.5229 Y66.9048
G01 X101.4868 Y66.8976
G01 X101.4628 Y66.8918
G01 X101.4450 Y66.8871
G01 X101.4098 Y66.8764
G01 X101.3865 Y66.8684
G01 X101.3522 Y66.8551
G01 X101.3185 Y66.8402
G01 X101.2963 Y66.8294
G01 X101.2639 Y66.8121
G01 X101.2426 Y66.7996
G01 X101.2270 Y66.7900
G01 X101.1963 Y66.7695
G01 X101.1764 Y66.7550
G01 X101.1474 Y66.7324
G01 X101.1195 Y66.7083
G01 X101.1014 Y66.6916
G01 X101.0754 Y66.6656
G01 X101.0587 Y66.6475
G01 X101.0346 Y66.6196
G01 X101.0231 Y66.6052
G01 X101.0083 Y66.5856
G01 X100.9871 Y66.5555
G01 X100.9674 Y66.5244
G01 X100.9549 Y66.5031
G01 X100.9376 Y66.4707
G01 X100.9268 Y66.4485
G01 X100.9119 Y66.4148
G01 X100.8986 Y66.3805
G01 X100.8906 Y66.3572
G01 X100.8799 Y66.3220
G01 X100.8694 Y66.2802
G01 X100.8622 Y66.2441
G01 X100.8584 Y66.2198
G01 X100.8539 Y66.1832
G01 X100.8523 Y66.1649
G01 X100.8509 Y66.1403
G01 X100.8500 Y66.1035
G01 X100.8502 Y53.3851
G01 X100.8510 Y53.3636
G01 X100.8632 Y53.1146
G01 X100.8643 Y53.0962
G01 X100.8665 Y53.0717
G01 X100.8710 Y53.0352
G01 X100.9076 Y52.7886
G01 X100.9105 Y52.7704
G01 X100.9151 Y52.7462
G01 X100.9232 Y52.7103
G01 X100.9837 Y52.4685
G01 X100.9884 Y52.4507
G01 X100.9954 Y52.4271
G01 X101.0069 Y52.3921
G01 X101.0909 Y52.1574
G01 X101.0973 Y52.1402
G01 X101.1065 Y52.1173
G01 X101.1214 Y52.0837
G01 X101.2280 Y51.8583
G01 X101.2361 Y51.8418
G01 X101.2475 Y51.8199
G01 X101.2656 Y51.7879
G01 X101.3938 Y51.5741
G01 X101.4034 Y51.5584
G01 X101.4169 Y51.5378
G01 X101.4381 Y51.5077
G01 X101.5866 Y51.3075
G01 X101.5978 Y51.2929
G01 X101.6132 Y51.2737
G01 X101.6373 Y51.2458
G01 X101.8047 Y51.0611
G01 X101.8172 Y51.0476
G01 X101.8345 Y51.0300
G01 X101.8611 Y51.0047
G01 X102.0458 Y50.8373
G01 X102.0596 Y50.8251
G01 X102.0785 Y50.8093
G01 X102.1075 Y50.7866
G01 X102.3077 Y50.6381
G01 X102.3227 Y50.6274
G01 X102.3430 Y50.6135
G01 X102.3741 Y50.5938
G01 X102.5879 Y50.4656
G01 X102.6038 Y50.4564
G01 X102.6254 Y50.4445
G01 X102.6583 Y50.4280
G01 X102.8837 Y50.3214
G01 X102.9004 Y50.3138
G01 X102.9231 Y50.3041
G01 X102.9574 Y50.2909
G01 X103.1921 Y50.2069
G01 X103.2095 Y50.2009
G01 X103.2330 Y50.1935
G01 X103.2685 Y50.1837
G01 X103.5103 Y50.1232
G01 X103.5282 Y50.1189
G01 X103.5523 Y50.1139
G01 X103.5886 Y50.1076
G01 X103.8352 Y50.0710
G01 X103.8534 Y50.0685
G01 X103.8779 Y50.0659
G01 X103.9146 Y50.0632
G01 X104.1636 Y50.0510
G01 X104.2035 Y50.0500
G01 X106.7235 Y50.0500
G01 X106.9126 Y50.0407
G01 X107.0801 Y50.0158
G01 X107.2444 Y49.9747
G01 X107.4038 Y49.9176
G01 X107.5569 Y49.8452
G01 X107.7021 Y49.7582
G01 X107.8381 Y49.6573
G01 X107.9636 Y49.5436
G01 X108.0773 Y49.4181
G01 X108.1782 Y49.2821
G01 X108.2652 Y49.1369
G01 X108.3376 Y48.9838
G01 X108.3947 Y48.8244
G01 X108.4358 Y48.6601
G01 X108.4607 Y48.4926
G01 X108.4700 Y48.3035
G01 X108.4700 Y33.1035
G01 X108.4607 Y32.9144
G01 X108.4358 Y32.7469
G01 X108.3947 Y32.5826
G01 X108.3376 Y32.4232
G01 X108.2652 Y32.2701
G01 X108.1782 Y32.1249
G01 X108.0773 Y31.9889
G01 X107.9636 Y31.8634
G01 X107.8381 Y31.7497
G01 X107.7021 Y31.6488
G01 X107.5569 Y31.5618
G01 X107.4038 Y31.4894
G01 X107.2444 Y31.4323
G01 X107.0801 Y31.3912
G01 X106.9126 Y31.3663
G01 X106.7235 Y31.3570
G01 X104.2035 Y31.3570
G01 X104.1636 Y31.3560
G01 X103.9146 Y31.3438
G01 X103.8962 Y31.3427
G01 X103.8717 Y31.3405
G01 X103.8352 Y31.3360
G01 X103.5886 Y31.2994
G01 X103.5704 Y31.2965
G01 X103.5462 Y31.2919
G01 X103.5103 Y31.2838
G01 X103.2685 Y31.2233
G01 X103.2507 Y31.2186
G01 X103.2271 Y31.2116
G01 X103.1921 Y31.2001
G01 X102.9574 Y31.1161
G01 X102.9402 Y31.1097
G01 X102.9173 Y31.1005
G01 X102.8837 Y31.0856
G01 X102.6583 Y30.9790
G01 X102.6418 Y30.9709
G01 X102.6199 Y30.9595
G01 X102.5879 Y30.9414
G01 X102.3741 Y30.8132
G01 X102.3584 Y30.8036
G01 X102.3378 Y30.7901
G01 X102.3077 Y30.7689
G01 X102.1075 Y30.6204
G01 X102.0929 Y30.6092
G01 X102.0737 Y30.5938
G01 X102.0458 Y30.5697
G01 X101.8611 Y30.4023
G01 X101.8476 Y30.3898
G01 X101.8300 Y30.3725
G01 X101.8047 Y30.3459
G01 X101.6373 Y30.1612
G01 X101.6251 Y30.1474
G01 X101.6093 Y30.1285
G01 X101.5866 Y30.0995
G01 X101.4381 Y29.8993
G01 X101.4169 Y29.8692
G01 X101.4034 Y29.8486
G01 X101.3938 Y29.8329
G01 X101.2656 Y29.6191
G01 X101.2564 Y29.6032
G01 X101.2445 Y29.5816
G01 X101.2280 Y29.5487
G01 X101.1214 Y29.3233
G01 X101.1138 Y29.3066
G01 X101.1041 Y29.2839
G01 X101.0909 Y29.2496
G01 X101.0069 Y29.0149
G01 X101.0009 Y28.9975
G01 X100.9935 Y28.9740
G01 X100.9837 Y28.9385
G01 X100.9232 Y28.6967
G01 X100.9189 Y28.6788
G01 X100.9139 Y28.6547
G01 X100.9076 Y28.6184
G01 X100.8710 Y28.3718
G01 X100.8685 Y28.3536
G01 X100.8659 Y28.3291
G01 X100.8632 Y28.2924
G01 X100.8510 Y28.0434
G01 X100.8500 Y28.0035
G01 X100.8502 Y0.0451
G01 X100.8512 Y0.0205
G01 X100.8539 Y-0.0162
G01 X100.8584 Y-0.0528
G01 X100.8622 Y-0.0771
G01 X100.8694 Y-0.1132
G01 X100.8752 Y-0.1372
G01 X100.8799 Y-0.1550
G01 X100.8906 Y-0.1902
G01 X100.8986 Y-0.2135
G01 X100.9119 Y-0.2478
G01 X100.9268 Y-0.2815
G01 X100.9376 Y-0.3037
G01 X100.9549 Y-0.3361
G01 X100.9674 Y-0.3574
G01 X100.9871 Y-0.3885
G01 X100.9975 Y-0.4037
G01 X101.0120 Y-0.4236
G01 X101.0346 Y-0.4526
G01 X101.0587 Y-0.4805
G01 X101.0754 Y-0.4986
G01 X101.1014 Y-0.5246
G01 X101.1195 Y-0.5413
G01 X101.1333 Y-0.5535
G01 X101.1618 Y-0.5769
G01 X101.1814 Y-0.5917
G01 X101.2115 Y-0.6129
G01 X101.2426 Y-0.6326
G01 X101.2639 Y-0.6451
G01 X101.2963 Y-0.6624
G01 X101.3185 Y-0.6732
G01 X101.3522 Y-0.6881
G01 X101.3865 Y-0.7014
G01 X101.4098 Y-0.7094
G01 X101.4450 Y-0.7201
G01 X101.4868 Y-0.7306
G01 X101.5229 Y-0.7378
G01 X101.5472 Y-0.7416
G01 X101.5838 Y-0.7461
G01 X101.6021 Y-0.7477
G01 X101.6267 Y-0.7491
G01 X101.6635 Y-0.7500
G01 X124.5419 Y-0.7498
G01 X124.5665 Y-0.7488
G01 X124.6032 Y-0.7461
G01 X124.6398 Y-0.7416
G01 X124.6641 Y-0.7378
G01 X124.7002 Y-0.7306
G01 X124.7242 Y-0.7248
G01 X124.7420 Y-0.7201
G01 X124.7772 Y-0.7094
G01 X124.8005 Y-0.7014
G01 X124.8348 Y-0.6881
G01 X124.8685 Y-0.6732
G01 X124.8907 Y-0.6624
G01 X124.9231 Y-0.6451
G01 X124.9444 Y-0.6326
G01 X124.9755 Y-0.6129
G01 X124.9907 Y-0.6025
G01 X125.0106 Y-0.5880
G01 X125.0396 Y-0.5654
G01 X125.0675 Y-0.5413
G01 X125.0856 Y-0.5246
G01 X125.1116 Y-0.4986
G01 X125.1241 Y-0.4851
G01 X125.1405 Y-0.4667
G01 X125.1639 Y-0.4382
G01 X125.1787 Y-0.4186
G01 X125.1999 Y-0.3885
G01 X125.2196 Y-0.3574
G01 X125.2321 Y-0.3361
G01 X125.2494 Y-0.3037
G01 X125.2602 Y-0.2815
G01 X125.2751 Y-0.2478
G01 X125.2884 Y-0.2135
G01 X125.2964 Y-0.1902
G01 X125.3071 Y-0.1550
G01 X125.3176 Y-0.1132
G01 X125.3248 Y-0.0771
G01 X125.3286 Y-0.0528
G01 X125.3331 Y-0.0162
G01 X125.3347 Y0.0021
G01 X125.3361 Y0.0267
G01 X125.3370 Y0.0635
G01 X125.3370 Y28.0035
G01 X125.3360 Y28.0434
G01 X125.3238 Y28.2924
G01 X125.3211 Y28.3291
G01 X125.3185 Y28.3536
G01 X125.3160 Y28.3718
G01 X125.2794 Y28.6184
G01 X125.2765 Y28.6366
G01 X125.2719 Y28.6608
G01 X125.2638 Y28.6967
G01 X125.2033 Y28.9385
G01 X125.1935 Y28.9740
G01 X125.1861 Y28.9975
G01 X125.1801 Y29.0149
G01 X125.0961 Y29.2496
G01 X125.0897 Y29.2668
G01 X125.0805 Y29.2897
G01 X125.0656 Y29.3233
G01 X124.9590 Y29.5487
G01 X124.9509 Y29.5652
G01 X124.9395 Y29.5871
G01 X124.9214 Y29.6191
G01 X124.7932 Y29.8329
G01 X124.7836 Y29.8486
G01 X124.7701 Y29.8692
G01 X124.7489 Y29.8993
G01 X124.6004 Y30.0995
G01 X124.5892 Y30.1141
G01 X124.5738 Y30.1333
G01 X124.5497 Y30.1612
G01 X124.3823 Y30.3459
G01 X124.3698 Y30.3594
G01 X124.3525 Y30.3770
G01 X124.3259 Y30.4023
G01 X124.1412 Y30.5697
G01 X124.1274 Y30.5819
G01 X124.1085 Y30.5977
G01 X124.0795 Y30.6204
G01 X123.8793 Y30.7689
G01 X123.8492 Y30.7901
G01 X123.8286 Y30.8036
G01 X123.8129 Y30.8132
G01 X123.5991 Y30.9414
G01 X123.5671 Y30.9595
G01 X123.5452 Y30.9709
G01 X123.3033 Y31.0856
G01 X123.2866 Y31.0932
G01 X123.2639 Y31.1029
G01 X123.2296 Y31.1161
G01 X122.9949 Y31.2001
G01 X122.9775 Y31.2061
G01 X122.9540 Y31.2135
G01 X122.9185 Y31.2233
G01 X122.6767 Y31.2838
G01 X122.6588 Y31.2881
G01 X122.6347 Y31.2931
G01 X122.5984 Y31.2994
G01 X122.3518 Y31.3360
G01 X122.3153 Y31.3405
G01 X122.2908 Y31.3427
G01 X122.2724 Y31.3438
G01 X122.0234 Y31.3560
G01 X121.9835 Y31.3570
G01 X119.4635 Y31.3570
G01 X119.2744 Y31.3663
G01 X119.1069 Y31.3912
G01 X118.9426 Y31.4323
G01 X118.7832 Y31.4894
G01 X118.6301 Y31.5618
G01 X118.4849 Y31.6488
G01 X118.3489 Y31.7497
G01 X118.2234 Y31.8634
G01 X118.1097 Y31.9889
G01 X118.0088 Y32.1249
G01 X117.9218 Y32.2701
G01 X117.8494 Y32.4232
G01 X117.7923 Y32.5826
G01 X117.7512 Y32.7469
G01 X117.7263 Y32.9144
G01 X117.7170 Y33.1035
G01 X117.7170 Y48.3035
G01 X117.7263 Y48.4926
G01 X117.7512 Y48.6601
G01 X117.7923 Y48.8244
G01 X117.8494 Y48.9838
G01 X117.9218 Y49.1369
G01 X118.0088 Y49.2821
G01 X118.1097 Y49.4181
G01 X118.2234 Y49.5436
G01 X118.3489 Y49.6573
G01 X118.4849 Y49.7582
G01 X118.6301 Y49.8452
G01 X118.7832 Y49.9176
G01 X118.9426 Y49.9747
G01 X119.1069 Y50.0158
G01 X119.2744 Y50.0407
G01 X119.4635 Y50.0500
G01 X121.9835 Y50.0500
G01 X122.0234 Y50.0510
G01 X122.2724 Y50.0632
G01 X122.2908 Y50.0643
G01 X122.3153 Y50.0665
G01 X122.3518 Y50.0710
G01 X122.5984 Y50.1076
G01 X122.6166 Y50.1105
G01 X122.6408 Y50.1151
G01 X122.6767 Y50.1232
G01 X122.9185 Y50.1837
G01 X122.9363 Y50.1884
G01 X122.9599 Y50.1954
G01 X122.9949 Y50.2069
G01 X123.2296 Y50.2909
G01 X123.2468 Y50.2973
G01 X123.2697 Y50.3065
G01 X123.3033 Y50.3214
G01 X123.5287 Y50.4280
G01 X123.5452 Y50.4361
G01 X123.5671 Y50.4475
G01 X123.5991 Y50.4656
G01 X123.8129 Y50.5938
G01 X123.8286 Y50.6034
G01 X123.8492 Y50.6169
G01 X123.8793 Y50.6381
G01 X124.0795 Y50.7866
G01 X124.0941 Y50.7978
G01 X124.1133 Y50.8132
G01 X124.1412 Y50.8373
G01 X124.3259 Y51.0047
G01 X124.3394 Y51.0172
G01 X124.3570 Y51.0345
G01 X124.3823 Y51.0611
G01 X124.5497 Y51.2458
G01 X124.5738 Y51.2737
G01 X124.5892 Y51.2929
G01 X124.6004 Y51.3075
G01 X124.7489 Y51.5077
G01 X124.7701 Y51.5378
G01 X124.7836 Y51.5584
G01 X124.7932 Y51.5741
G01 X124.9214 Y51.7879
G01 X124.9395 Y51.8199
G01 X124.9509 Y51.8418
G01 X124.9590 Y51.8583
G01 X125.0656 Y52.0837
G01 X125.0805 Y52.1173
G01 X125.0897 Y52.1402
G01 X125.0961 Y52.1574
G01 X125.1801 Y52.3921
G01 X125.1916 Y52.4271
G01 X125.1986 Y52.4507
G01 X125.2033 Y52.4685
G01 X125.2638 Y52.7103
G01 X125.2719 Y52.7462
G01 X125.2765 Y52.7704
G01 X125.2794 Y52.7886
G01 X125.3160 Y53.0352
G01 X125.3205 Y53.0717
G01 X125.3227 Y53.0962
G01 X125.3238 Y53.1146
G01 X125.3360 Y53.3636
G01 X125.3368 Y53.3851
G01 X125.3370 Y66.1035
G00 Z2.0000
G00 X121.9467 Y32.2709
G01 F60.00
G01 Z-2.4000
G01 F120.00
G01 X121.9835 Y32.2700
G01 X144.8619 Y32.2702
G01 X144.8865 Y32.2712
G01 X144.9232 Y32.2739
G01 X144.9598 Y32.2784
G01 X144.9841 Y32.2822
G01 X145.0202 Y32.2894
G01 X145.0442 Y32.2952
G01 X145.0797 Y32.3050
G01 X145.1146 Y32.3165
G01 X145.1377 Y32.3251
G01 X145.1717 Y32.3391
G01 X145.1941 Y32.3495
G01 X145.2270 Y32.3660
G01 X145.2590 Y32.3842
G01 X145.2800 Y32.3970
G01 X145.3107 Y32.4175
G01 X145.3306 Y32.4320
G01 X145.3596 Y32.4546
G01 X145.3875 Y32.4787
G01 X145.4056 Y32.4954
G01 X145.4316 Y32.5214
G01 X145.4483 Y32.5395
G01 X145.4724 Y32.5674
G01 X145.4950 Y32.5964
G01 X145.5095 Y32.6163
G01 X145.5199 Y32.6315
G01 X145.5396 Y32.6626
G01 X145.5521 Y32.6839
G01 X145.5694 Y32.7163
G01 X145.5802 Y32.7385
G01 X145.5951 Y32.7722
G01 X145.6084 Y32.8065
G01 X145.6164 Y32.8298
G01 X145.6271 Y32.8650
G01 X145.6333 Y32.8889
G01 X145.6414 Y32.9248
G01 X145.6477 Y32.9611
G01 X145.6511 Y32.9855
G01 X145.6547 Y33.0221
G01 X145.6561 Y33.0467
G01 X145.6570 Y33.0835
G01 X145.6568 Y45.8019
G01 X145.6560 Y45.8234
G01 X145.6438 Y46.0724
G01 X145.6427 Y46.0908
G01 X145.6405 Y46.1153
G01 X145.6360 Y46.1518
G01 X145.5994 Y46.3984
G01 X145.5965 Y46.4166
G01 X145.5919 Y46.4408
G01 X145.5838 Y46.4767
G01 X145.5233 Y46.7185
G01 X145.5186 Y46.7363
G01 X145.5116 Y46.7599
G01 X145.5001 Y46.7949
G01 X145.4161 Y47.0296
G01 X145.4097 Y47.0468
G01 X145.4005 Y47.0697
G01 X145.3856 Y47.1033
G01 X145.2790 Y47.3287
G01 X145.2709 Y47.3452
G01 X145.2595 Y47.3671
G01 X145.2414 Y47.3991
G01 X145.1132 Y47.6129
G01 X145.1036 Y47.6286
G01 X145.0901 Y47.6492
G01 X145.0689 Y47.6793
G01 X144.9204 Y47.8795
G01 X144.9092 Y47.8941
G01 X144.8938 Y47.9133
G01 X144.8697 Y47.9412
G01 X144.7023 Y48.1259
G01 X144.6898 Y48.1394
G01 X144.6725 Y48.1570
G01 X144.6459 Y48.1823
G01 X144.4612 Y48.3497
G01 X144.4474 Y48.3619
G01 X144.4285 Y48.3777
G01 X144.3995 Y48.4004
G01 X144.1993 Y48.5489
G01 X144.1843 Y48.5596
G01 X144.1640 Y48.5735
G01 X144.1329 Y48.5932
G01 X143.9191 Y48.7214
G01 X143.9032 Y48.7306
G01 X143.8816 Y48.7425
G01 X143.8487 Y48.7590
G01 X143.6233 Y48.8656
G01 X143.6066 Y48.8732
G01 X143.5839 Y48.8829
G01 X143.5496 Y48.8961
G01 X143.3149 Y48.9801
G01 X143.2975 Y48.9861
G01 X143.2740 Y48.9935
G01 X143.2385 Y49.0033
G01 X142.9967 Y49.0638
G01 X142.9788 Y49.0681
G01 X142.9547 Y49.0731
G01 X142.9184 Y49.0794
G01 X142.6718 Y49.1160
G01 X142.6536 Y49.1185
G01 X142.6291 Y49.1211
G01 X142.5924 Y49.1238
G01 X142.3434 Y49.1360
G01 X142.3035 Y49.1370
G01 X139.7823 Y49.1370
G01 X139.6043 Y49.1453
G01 X139.4464 Y49.1673
G01 X139.2913 Y49.2038
G01 X139.1401 Y49.2544
G01 X138.9943 Y49.3188
G01 X138.8551 Y49.3964
G01 X138.7236 Y49.4864
G01 X138.6010 Y49.5883
G01 X138.4883 Y49.7010
G01 X138.3864 Y49.8236
G01 X138.2964 Y49.9551
G01 X138.2188 Y50.0943
G01 X138.1544 Y50.2401
G01 X138.1038 Y50.3913
G01 X138.0673 Y50.5464
G01 X138.0453 Y50.7043
G01 X138.0370 Y50.8823
G01 X138.0370 Y66.0835
G01 X138.0463 Y66.2726
G01 X138.0712 Y66.4401
G01 X138.1123 Y66.6044
G01 X138.1694 Y66.7638
G01 X138.2418 Y66.9169
G01 X138.3288 Y67.0621
G01 X138.4297 Y67.1981
G01 X138.5434 Y67.3236
G01 X138.6689 Y67.4373
G01 X138.8049 Y67.5382
G01 X138.9501 Y67.6252
G01 X139.1032 Y67.6976
G01 X139.2626 Y67.7547
G01 X139.4269 Y67.7958
G01 X139.5944 Y67.8207
G01 X139.7835 Y67.8300
G01 X142.3035 Y67.8300
G01 X142.3434 Y67.8310
G01 X142.5924 Y67.8432
G01 X142.6108 Y67.8443
G01 X142.6353 Y67.8465
G01 X142.6718 Y67.8510
G01 X142.9184 Y67.8876
G01 X142.9366 Y67.8905
G01 X142.9608 Y67.8951
G01 X142.9967 Y67.9032
G01 X143.2385 Y67.9637
G01 X143.2563 Y67.9684
G01 X143.2799 Y67.9754
G01 X143.3149 Y67.9869
G01 X143.5496 Y68.0709
G01 X143.5668 Y68.0773
G01 X143.5897 Y68.0865
G01 X143.6233 Y68.1014
G01 X143.8487 Y68.2080
G01 X143.8652 Y68.2161
G01 X143.8871 Y68.2275
G01 X143.9191 Y68.2456
G01 X144.1329 Y68.3738
G01 X144.1486 Y68.3834
G01 X144.1692 Y68.3969
G01 X144.1993 Y68.4181
G01 X144.3995 Y68.5666
G01 X144.4141 Y68.5778
G01 X144.4333 Y68.5932
G01 X144.4612 Y68.6173
G01 X144.6459 Y68.7847
G01 X144.6594 Y68.7972
G01 X144.6770 Y68.8145
G01 X144.7023 Y68.8411
G01 X144.8697 Y69.0258
G01 X144.8819 Y69.0396
G01 X144.8977 Y69.0585
G01 X144.9204 Y69.0875
G01 X145.0689 Y69.2877
G01 X145.0901 Y69.3178
G01 X145.1036 Y69.3384
G01 X145.1132 Y69.3541
G01 X145.2414 Y69.5679
G01 X145.2506 Y69.5838
G01 X145.2625 Y69.6054
G01 X145.2790 Y69.6383
G01 X145.3856 Y69.8637
G01 X145.3932 Y69.8804
G01 X145.4029 Y69.9031
G01 X145.4161 Y69.9374
G01 X145.5001 Y70.1721
G01 X145.5061 Y70.1895
G01 X145.5135 Y70.2130
G01 X145.5233 Y70.2485
G01 X145.5838 Y70.4903
G01 X145.5881 Y70.5082
G01 X145.5931 Y70.5323
G01 X145.5994 Y70.5686
G01 X145.6360 Y70.8152
G01 X145.6385 Y70.8334
G01 X145.6411 Y70.8579
G01 X145.6438 Y70.8946
G01 X145.6560 Y71.1436
G01 X145.6570 Y71.1835
G01 X145.6568 Y99.1419
G01 X145.6558 Y99.1665
G01 X145.6531 Y99.2032
G01 X145.6486 Y99.2398
G01 X145.6448 Y99.2641
G01 X145.6376 Y99.3002
G01 X145.6318 Y99.3242
G01 X145.6220 Y99.3597
G01 X145.6105 Y99.3946
G01 X145.6019 Y99.4177
G01 X145.5879 Y99.4517
G01 X145.5775 Y99.4741
G01 X145.5610 Y99.5070
G01 X145.5428 Y99.5390
G01 X145.5300 Y99.5600
G01 X145.5095 Y99.5907
G01 X145.4950 Y99.6106
G01 X145.4724 Y99.6396
G01 X145.4483 Y99.6675
G01 X145.4316 Y99.6856
G01 X145.4056 Y99.7116
G01 X145.3875 Y99.7283
G01 X145.3596 Y99.7524
G01 X145.3306 Y99.7750
G01 X145.3107 Y99.7895
G01 X145.2800 Y99.8100
G01 X145.2590 Y99.8228
G01 X145.2270 Y99.8410
G01 X145.2107 Y99.8494
G01 X145.1885 Y99.8602
G01 X145.1548 Y99.8751
G01 X145.1205 Y99.8884
G01 X145.0972 Y99.8964
G01 X145.0620 Y99.9071
G01 X145.0381 Y99.9133
G01 X145.0022 Y99.9214
G01 X144.9659 Y99.9277
G01 X144.9415 Y99.9311
G01 X144.9049 Y99.9347
G01 X144.8803 Y99.9361
G01 X144.8435 Y99.9370
G01 X121.9651 Y99.9368
G01 X121.9405 Y99.9358
G01 X121.9038 Y99.9331
G01 X121.8672 Y99.9286
G01 X121.8429 Y99.9248
G01 X121.8068 Y99.9176
G01 X121.7828 Y99.9118
G01 X121.7473 Y99.9020
G01 X121.7124 Y99.8905
G01 X121.6893 Y99.8819
G01 X121.6553 Y99.8679
G01 X121.6329 Y99.8575
G01 X121.6000 Y99.8410
G01 X121.5680 Y99.8228
G01 X121.5470 Y99.8100
G01 X121.5163 Y99.7895
G01 X121.4964 Y99.7750
G01 X121.4674 Y99.7524
G01 X121.4395 Y99.7283
G01 X121.4214 Y99.7116
G01 X121.3954 Y99.6856
G01 X121.3787 Y99.6675
G01 X121.3546 Y99.6396
G01 X121.3320 Y99.6106
G01 X121.3175 Y99.5907
G01 X121.2970 Y99.5600
G01 X121.2874 Y99.5444
G01 X121.2749 Y99.5231
G01 X121.2576 Y99.4907
G01 X121.2468 Y99.4685
G01 X121.2319 Y99.4348
G01 X121.2186 Y99.4005
G01 X121.2106 Y99.3772
G01 X121.1999 Y99.3420
G01 X121.1937 Y99.3181
G01 X121.1856 Y99.2822
G01 X121.1793 Y99.2459
G01 X121.1759 Y99.2215
G01 X121.1723 Y99.1849
G01 X121.1709 Y99.1603
G01 X121.1700 Y99.1235
G01 X121.1700 Y71.1835
G01 X121.1710 Y71.1436
G01 X121.1832 Y70.8946
G01 X121.1843 Y70.8762
G01 X121.1865 Y70.8517
G01 X121.1910 Y70.8152
G01 X121.2276 Y70.5686
G01 X121.2339 Y70.5323
G01 X121.2389 Y70.5082
G01 X121.3037 Y70.2485
G01 X121.3084 Y70.2307
G01 X121.3154 Y70.2071
G01 X121.3269 Y70.1721
G01 X121.4109 Y69.9374
G01 X121.4173 Y69.9202
G01 X121.4265 Y69.8973
G01 X121.4414 Y69.8637
G01 X121.5480 Y69.6383
G01 X121.5561 Y69.6218
G01 X121.5675 Y69.5999
G01 X121.5856 Y69.5679
G01 X121.7138 Y69.3541
G01 X121.7234 Y69.3384
G01 X121.7369 Y69.3178
G01 X121.7581 Y69.2877
G01 X121.9066 Y69.0875
G01 X121.9178 Y69.0729
G01 X121.9332 Y69.0537
G01 X121.9573 Y69.0258
G01 X122.1247 Y68.8411
G01 X122.1372 Y68.8276
G01 X122.1545 Y68.8100
G01 X122.1811 Y68.7847
G01 X122.3658 Y68.6173
G01 X122.3796 Y68.6051
G01 X122.3985 Y68.5893
G01 X122.4275 Y68.5666
G01 X122.6277 Y68.4181
G01 X122.6427 Y68.4074
G01 X122.6630 Y68.3935
G01 X122.6941 Y68.3738
G01 X122.9079 Y68.2456
G01 X122.9238 Y68.2364
G01 X122.9454 Y68.2245
G01 X122.9783 Y68.2080
G01 X123.2037 Y68.1014
G01 X123.2373 Y68.0865
G01 X123.2602 Y68.0773
G01 X123.2774 Y68.0709
G01 X123.5121 Y67.9869
G01 X123.5471 Y67.9754
G01 X123.5707 Y67.9684
G01 X123.5885 Y67.9637
G01 X123.8303 Y67.9032
G01 X123.8662 Y67.8951
G01 X123.8904 Y67.8905
G01 X123.9086 Y67.8876
G01 X124.1734 Y67.8485
G01 X124.1979 Y67.8459
G01 X124.2346 Y67.8432
G01 X124.4836 Y67.8310
G01 X124.5235 Y67.8300
G01 X127.0435 Y67.8300
G01 X127.2326 Y67.8207
G01 X127.4001 Y67.7958
G01 X127.5644 Y67.7547
G01 X127.7238 Y67.6976
G01 X127.8769 Y67.6252
G01 X128.0221 Y67.5382
G01 X128.1581 Y67.4373
G01 X128.2836 Y67.3236
G01 X128.3973 Y67.1981
G01 X128.4982 Y67.0621
G01 X128.5852 Y66.9169
G01 X128.6576 Y66.7638
G01 X128.7147 Y66.6044
G01 X128.7558 Y66.4401
G01 X128.7807 Y66.2726
G01 X128.7900 Y66.0835
G01 X128.7900 Y50.8835
G01 X128.7807 Y50.6944
G01 X128.7558 Y50.5269
G01 X128.7147 Y50.3626
G01 X128.6576 Y50.2032
G01 X128.5852 Y50.0501
G01 X128.4982 Y49.9049
G01 X128.3973 Y49.7689
G01 X128.2836 Y49.6434
G01 X128.1581 Y49.5297
G01 X128.0221 Y49.4288
G01 X127.8769 Y49.3418
G01 X127.7238 Y49.2694
G01 X127.5644 Y49.2123
G01 X127.4001 Y49.1712
G01 X127.2326 Y49.1463
G01 X127.0435 Y49.1370
G01 X124.5235 Y49.1370
G01 X124.4836 Y49.1360
G01 X124.2346 Y49.1238
G01 X124.2162 Y49.1227
G01 X124.1917 Y49.1205
G01 X124.1552 Y49.1160
G01 X123.9086 Y49.0794
G01 X123.8904 Y49.0765
G01 X123.8662 Y49.0719
G01 X123.8303 Y49.0638
G01 X123.5885 Y49.0033
G01 X123.5530 Y48.9935
G01 X123.5295 Y48.9861
G01 X123.5121 Y48.9801
G01 X123.2774 Y48.8961
G01 X123.2431 Y48.8829
G01 X123.2204 Y48.8732
G01 X123.2037 Y48.8656
G01 X122.9618 Y48.7509
G01 X122.9399 Y48.7395
G01 X122.9079 Y48.7214
G01 X122.6941 Y48.5932
G01 X122.6630 Y48.5735
G01 X122.6427 Y48.5596
G01 X122.6277 Y48.5489
G01 X122.4275 Y48.4004
G01 X122.4129 Y48.3892
G01 X122.3937 Y48.3738
G01 X122.3658 Y48.3497
G01 X122.1811 Y48.1823
G01 X122.1676 Y48.1698
G01 X122.1500 Y48.1525
G01 X122.1247 Y48.1259
G01 X121.9573 Y47.9412
G01 X121.9451 Y47.9274
G01 X121.9293 Y47.9085
G01 X121.9066 Y47.8795
G01 X121.7581 Y47.6793
G01 X121.7474 Y47.6643
G01 X121.7335 Y47.6440
G01 X121.7138 Y47.6129
G01 X121.5856 Y47.3991
G01 X121.5764 Y47.3832
G01 X121.5645 Y47.3616
G01 X121.5480 Y47.3287
G01 X121.4414 Y47.1033
G01 X121.4338 Y47.0866
G01 X121.4241 Y47.0639
G01 X121.4109 Y47.0296
G01 X121.3269 Y46.7949
G01 X121.3154 Y46.7599
G01 X121.3084 Y46.7363
G01 X121.3037 Y46.7185
G01 X121.2432 Y46.4767
G01 X121.2351 Y46.4408
G01 X121.2305 Y46.4166
G01 X121.2276 Y46.3984
G01 X121.1910 Y46.1518
G01 X121.1865 Y46.1153
G01 X121.1843 Y46.0908
G01 X121.1832 Y46.0724
G01 X121.1710 Y45.8234
G01 X121.1700 Y45.7835
G01 X121.1700 Y33.0835
G01 X121.1702 Y33.0651
G01 X121.1712 Y33.0405
G01 X121.1739 Y33.0038
G01 X121.1759 Y32.9855
G01 X121.1793 Y32.9611
G01 X121.1856 Y32.9248
G01 X121.1937 Y32.8889
G01 X121.1999 Y32.8650
G01 X121.2106 Y32.8298
G01 X121.2251 Y32.7893
G01 X121.2391 Y32.7553
G01 X121.2495 Y32.7329
G01 X121.2660 Y32.7000
G01 X121.2749 Y32.6839
G01 X121.2874 Y32.6626
G01 X121.3071 Y32.6315
G01 X121.3283 Y32.6014
G01 X121.3431 Y32.5818
G01 X121.3546 Y32.5674
G01 X121.3665 Y32.5533
G01 X121.3829 Y32.5349
G01 X121.4082 Y32.5082
G01 X121.4349 Y32.4829
G01 X121.4533 Y32.4665
G01 X121.4674 Y32.4546
G01 X121.4818 Y32.4431
G01 X121.5014 Y32.4283
G01 X121.5315 Y32.4071
G01 X121.5626 Y32.3874
G01 X121.5839 Y32.3749
G01 X121.6000 Y32.3660
G01 X121.6329 Y32.3495
G01 X121.6553 Y32.3391
G01 X121.6893 Y32.3251
G01 X121.7298 Y32.3106
G01 X121.7650 Y32.2999
G01 X121.8068 Y32.2894
G01 X121.8429 Y32.2822
G01 X121.8855 Y32.2759
G01 X121.9221 Y32.2723
G01 X121.9467 Y32.2709
G00 Z2.0000
M05
G00 Z2.0000
G00 Z15.00


