(G-CODE GENERATED BY FLATCAM v8.994 - www.flatcam.org - Version Date: 2020/11/7)

(Name: BBodgepcb - Bottom Copper.gbr_iso_combined_cnc)
(Type: G-code from Geometry)
(Units: MM)

(Created on Sunday, 01 December 2024 at 13:48)

(This preprocessor is the default preprocessor used by FlatCAM.)
(It is made to work with MACH3 compatible motion controllers.)

(TOOL DIAMETER: 0.331 mm)
(Feedrate_XY: 320.0 mm/min)
(Feedrate_Z: 60.0 mm/min)
(Feedrate rapids 1500.0 mm/min)

(Z_Cut: -0.2001 mm)
(Z_Move: 2.0 mm)
(Z Start: None mm)
(Z End: 15.0 mm)
(X,Y End: None mm)
(Steps per circle: 64)
(Preprocessor Geometry: default)

(X range:    0.9001 ...  141.3998  mm)
(Y range:    3.4822 ...   93.1398  mm)

(Spindle Speed: 0.0 RPM)
G21
G90
G94

G01 F320.00
G00 Z15.0000

M03
G01 F320.00
G00 X1.3420 Y14.4708
G01 F60.00
G01 Z-0.2001
G01 F320.00
G01 X1.3420 Y7.6835
G01 X1.3427 Y7.6428
G01 X1.3541 Y7.3909
G01 X1.3566 Y7.3558
G01 X1.3608 Y7.3098
G01 X1.3649 Y7.2748
G01 X1.3973 Y7.0425
G01 X1.4030 Y7.0078
G01 X1.4149 Y6.9451
G01 X1.4724 Y6.6996
G01 X1.4813 Y6.6655
G01 X1.4989 Y6.6042
G01 X1.5847 Y6.3484
G01 X1.6075 Y6.2889
G01 X1.6210 Y6.2564
G01 X1.7157 Y6.0418
G01 X1.7307 Y6.0099
G01 X1.7513 Y5.9686
G01 X1.7677 Y5.9375
G01 X1.8818 Y5.7325
G01 X1.8997 Y5.7022
G01 X1.9240 Y5.6629
G01 X1.9432 Y5.6334
G01 X2.0758 Y5.4399
G01 X2.0963 Y5.4113
G01 X2.1241 Y5.3744
G01 X2.1460 Y5.3469
G01 X2.2959 Y5.1664
G01 X2.3190 Y5.1398
G01 X2.3501 Y5.1057
G01 X2.3744 Y5.0803
G01 X2.5403 Y4.9144
G01 X2.5657 Y4.8901
G01 X2.5998 Y4.8590
G01 X2.6264 Y4.8359
G01 X2.8069 Y4.6860
G01 X2.8344 Y4.6641
G01 X2.8713 Y4.6363
G01 X2.8999 Y4.6158
G01 X3.0934 Y4.4832
G01 X3.1229 Y4.4640
G01 X3.1622 Y4.4397
G01 X3.1925 Y4.4218
G01 X3.4129 Y4.2993
G01 X3.4699 Y4.2707
G01 X3.5018 Y4.2557
G01 X3.7164 Y4.1610
G01 X3.7489 Y4.1475
G01 X3.7920 Y4.1308
G01 X3.8250 Y4.1189
G01 X4.0642 Y4.0389
G01 X4.1255 Y4.0213
G01 X4.1596 Y4.0124
G01 X4.4051 Y3.9549
G01 X4.4851 Y3.9399
G01 X4.7348 Y3.9049
G01 X4.7698 Y3.9008
G01 X4.8333 Y3.8951
G01 X5.1045 Y3.8827
G01 X5.1679 Y3.8826
G01 X5.2054 Y3.8835
G01 X5.4544 Y3.8957
G01 X5.4916 Y3.8985
G01 X5.5405 Y3.9033
G01 X5.5776 Y3.9078
G01 X5.8426 Y3.9474
G01 X5.9091 Y3.9604
G01 X5.9456 Y3.9686
G01 X6.1874 Y4.0291
G01 X6.2234 Y4.0391
G01 X6.2703 Y4.0533
G01 X6.3058 Y4.0651
G01 X6.5580 Y4.1556
G01 X6.6207 Y4.1813
G01 X6.6549 Y4.1964
G01 X6.8970 Y4.3112
G01 X6.9733 Y4.3519
G01 X7.2032 Y4.4895
G01 X7.2348 Y4.5095
G01 X7.2756 Y4.5368
G01 X7.3062 Y4.5583
G01 X7.5064 Y4.7068
G01 X7.5358 Y4.7298
G01 X7.5738 Y4.7609
G01 X7.6021 Y4.7853
G01 X7.8004 Y4.9654
G01 X7.8616 Y5.0266
G01 X8.0417 Y5.2249
G01 X8.0661 Y5.2532
G01 X8.0972 Y5.2912
G01 X8.1202 Y5.3206
G01 X8.2687 Y5.5208
G01 X8.2902 Y5.5514
G01 X8.3277 Y5.6079
G01 X8.4656 Y5.8376
G01 X8.4841 Y5.8701
G01 X8.5158 Y5.9300
G01 X8.6384 Y6.1891
G01 X8.6714 Y6.2690
G01 X8.7109 Y6.3785
G01 X8.7374 Y6.3993
G01 X8.7517 Y6.4113
G01 X8.8449 Y6.4957
G01 X8.8582 Y6.5088
G01 X8.8840 Y6.5358
G01 X8.9557 Y6.6153
G01 X8.9794 Y6.6441
G01 X8.9907 Y6.6590
G01 X9.0543 Y6.7451
G01 X9.0750 Y6.7762
G01 X9.1303 Y6.8678
G01 X9.1397 Y6.8840
G01 X9.1573 Y6.9169
G01 X9.2110 Y7.0306
G01 X9.2184 Y7.0477
G01 X9.2318 Y7.0826
G01 X9.2616 Y7.1658
G01 X9.2733 Y7.2012
G01 X9.2833 Y7.2372
G01 X9.3047 Y7.3229
G01 X9.3129 Y7.3594
G01 X9.3193 Y7.3962
G01 X9.3323 Y7.4836
G01 X9.3368 Y7.5207
G01 X9.3396 Y7.5579
G01 X9.3439 Y7.6461
G01 X9.3448 Y7.6835
G01 X9.3439 Y7.7209
G01 X9.3396 Y7.8091
G01 X9.3384 Y7.8277
G01 X9.3348 Y7.8649
G01 X9.3193 Y7.9708
G01 X9.3129 Y8.0076
G01 X9.3047 Y8.0441
G01 X9.2785 Y8.1478
G01 X9.2677 Y8.1836
G01 X9.2616 Y8.2012
G01 X9.2318 Y8.2844
G01 X9.2184 Y8.3193
G01 X9.2032 Y8.3534
G01 X9.1655 Y8.4333
G01 X9.1487 Y8.4667
G01 X9.1303 Y8.4992
G01 X9.0849 Y8.5749
G01 X9.0649 Y8.6065
G01 X9.0433 Y8.6370
G01 X8.9907 Y8.7080
G01 X8.9677 Y8.7374
G01 X8.9557 Y8.7517
G01 X8.8840 Y8.8312
G01 X8.8582 Y8.8582
G01 X8.8312 Y8.8840
G01 X8.7517 Y8.9557
G01 X8.7374 Y8.9677
G01 X8.7080 Y8.9907
G01 X8.6370 Y9.0433
G01 X8.6065 Y9.0649
G01 X8.5749 Y9.0849
G01 X8.4830 Y9.1397
G01 X8.4501 Y9.1573
G01 X8.3534 Y9.2032
G01 X8.3193 Y9.2184
G01 X8.2844 Y9.2318
G01 X8.2012 Y9.2616
G01 X8.1658 Y9.2733
G01 X8.1298 Y9.2833
G01 X8.0441 Y9.3047
G01 X8.0076 Y9.3129
G01 X7.9708 Y9.3193
G01 X7.8649 Y9.3348
G01 X7.8463 Y9.3368
G01 X7.8091 Y9.3396
G01 X7.7209 Y9.3439
G01 X7.6835 Y9.3448
G01 X7.6461 Y9.3439
G01 X7.5393 Y9.3384
G01 X7.5021 Y9.3348
G01 X7.3962 Y9.3193
G01 X7.3594 Y9.3129
G01 X7.3229 Y9.3047
G01 X7.2372 Y9.2833
G01 X7.2012 Y9.2733
G01 X7.1658 Y9.2616
G01 X7.0651 Y9.2253
G01 X7.0477 Y9.2184
G01 X7.0136 Y9.2032
G01 X6.9169 Y9.1573
G01 X6.8840 Y9.1397
G01 X6.7921 Y9.0849
G01 X6.7605 Y9.0649
G01 X6.7300 Y9.0433
G01 X6.6850 Y9.0100
G01 X6.6850 Y14.6899
G01 X6.7002 Y14.7129
G01 X6.7100 Y14.7288
G01 X6.7484 Y14.7929
G01 X6.7668 Y14.8255
G01 X6.7836 Y14.8588
G01 X6.8156 Y14.9264
G01 X6.8308 Y14.9606
G01 X6.8442 Y14.9955
G01 X6.8694 Y15.0659
G01 X6.8755 Y15.0835
G01 X6.8863 Y15.1193
G01 X6.9136 Y15.2281
G01 X6.9174 Y15.2463
G01 X6.9234 Y15.2806
G01 X6.9294 Y15.2463
G01 X6.9332 Y15.2281
G01 X6.9605 Y15.1193
G01 X6.9713 Y15.0835
G01 X6.9774 Y15.0659
G01 X7.0026 Y14.9955
G01 X7.0161 Y14.9606
G01 X7.0312 Y14.9264
G01 X7.0632 Y14.8588
G01 X7.0800 Y14.8255
G01 X7.0984 Y14.7929
G01 X7.1368 Y14.7288
G01 X7.1568 Y14.6972
G01 X7.1783 Y14.6667
G01 X7.2229 Y14.6066
G01 X7.2459 Y14.5772
G01 X7.2703 Y14.5489
G01 X7.3205 Y14.4935
G01 X7.3332 Y14.4798
G01 X7.3596 Y14.4533
G01 X7.4287 Y14.3904
G01 X7.4427 Y14.3780
G01 X7.4716 Y14.3543
G01 X7.5617 Y14.2875
G01 X7.5928 Y14.2668
G01 X7.6087 Y14.2570
G01 X7.6890 Y14.2091
G01 X7.7219 Y14.1915
G01 X7.8233 Y14.1435
G01 X7.8405 Y14.1362
G01 X7.8753 Y14.1227
G01 X7.9634 Y14.0915
G01 X7.9812 Y14.0858
G01 X8.0172 Y14.0759
G01 X8.0898 Y14.0577
G01 X8.1262 Y14.0495
G01 X8.1630 Y14.0431
G01 X8.2370 Y14.0321
G01 X8.2741 Y14.0276
G01 X8.2927 Y14.0260
G01 X8.4047 Y14.0205
G01 X8.4421 Y14.0205
G01 X8.4608 Y14.0211
G01 X8.5541 Y14.0260
G01 X8.5913 Y14.0296
G01 X8.6098 Y14.0321
G01 X8.6838 Y14.0431
G01 X8.7206 Y14.0495
G01 X8.7570 Y14.0577
G01 X8.8296 Y14.0759
G01 X8.8656 Y14.0858
G01 X8.9011 Y14.0975
G01 X8.9715 Y14.1227
G01 X9.0063 Y14.1362
G01 X9.0405 Y14.1513
G01 X9.1081 Y14.1833
G01 X9.1415 Y14.2001
G01 X9.1740 Y14.2185
G01 X9.2381 Y14.2570
G01 X9.2697 Y14.2770
G01 X9.3003 Y14.2985
G01 X9.3603 Y14.3430
G01 X9.3898 Y14.3660
G01 X9.4181 Y14.3904
G01 X9.4735 Y14.4406
G01 X9.5005 Y14.4664
G01 X9.5263 Y14.4935
G01 X9.5765 Y14.5489
G01 X9.6009 Y14.5772
G01 X9.6239 Y14.6066
G01 X9.6685 Y14.6667
G01 X9.6900 Y14.6972
G01 X9.7100 Y14.7288
G01 X9.7578 Y14.8091
G01 X9.7754 Y14.8420
G01 X9.7836 Y14.8588
G01 X9.8156 Y14.9264
G01 X9.8307 Y14.9606
G01 X9.8442 Y14.9955
G01 X9.8694 Y15.0659
G01 X9.8811 Y15.1013
G01 X9.8911 Y15.1374
G01 X9.9092 Y15.2099
G01 X9.9174 Y15.2463
G01 X9.9238 Y15.2832
G01 X9.9348 Y15.3571
G01 X9.9394 Y15.3942
G01 X9.9410 Y15.4128
G01 X9.9458 Y15.5062
G01 X9.9467 Y15.5435
G01 X9.9465 Y15.5622
G01 X9.9410 Y15.6742
G01 X9.9394 Y15.6928
G01 X9.9348 Y15.7299
G01 X9.9208 Y15.8223
G01 X9.9174 Y15.8407
G01 X9.9092 Y15.8772
G01 X9.8911 Y15.9497
G01 X9.8811 Y15.9857
G01 X9.8694 Y16.0212
G01 X9.8444 Y16.0911
G01 X9.8615 Y16.1196
G01 X9.9221 Y16.2013
G01 X9.9904 Y16.2767
G01 X10.0658 Y16.3451
G01 X10.1476 Y16.4057
G01 X10.2348 Y16.4580
G01 X10.3268 Y16.5015
G01 X10.4226 Y16.5358
G01 X10.5213 Y16.5605
G01 X10.6220 Y16.5754
G01 X10.7546 Y16.5820
G01 X14.2232 Y16.5820
G01 X14.2496 Y16.5593
G01 X14.2641 Y16.5476
G01 X14.3500 Y16.4837
G01 X14.3805 Y16.4621
G01 X14.4121 Y16.4421
G01 X14.4878 Y16.3967
G01 X14.5203 Y16.3783
G01 X14.5369 Y16.3697
G01 X14.6336 Y16.3238
G01 X14.6677 Y16.3086
G01 X14.7026 Y16.2952
G01 X14.7858 Y16.2654
G01 X14.8034 Y16.2593
G01 X14.8392 Y16.2485
G01 X14.9611 Y16.2179
G01 X14.9978 Y16.2107
G01 X15.0162 Y16.2077
G01 X15.1036 Y16.1947
G01 X15.1407 Y16.1902
G01 X15.1779 Y16.1874
G01 X15.2661 Y16.1831
G01 X15.2848 Y16.1824
G01 X15.3222 Y16.1824
G01 X15.4477 Y16.1886
G01 X15.4663 Y16.1902
G01 X15.5034 Y16.1947
G01 X15.5908 Y16.2077
G01 X15.6276 Y16.2141
G01 X15.6641 Y16.2223
G01 X15.7498 Y16.2437
G01 X15.7678 Y16.2485
G01 X15.8036 Y16.2593
G01 X15.9219 Y16.3017
G01 X15.9564 Y16.3160
G01 X15.9734 Y16.3238
G01 X16.0701 Y16.3697
G01 X16.0867 Y16.3783
G01 X16.1192 Y16.3967
G01 X16.2108 Y16.4520
G01 X16.2419 Y16.4727
G01 X16.3280 Y16.5363
G01 X16.3429 Y16.5476
G01 X16.3717 Y16.5713
G01 X16.4649 Y16.6557
G01 X16.4913 Y16.6821
G01 X16.5633 Y16.7613
G01 X16.5757 Y16.7753
G01 X16.5994 Y16.8041
G01 X16.6633 Y16.8900
G01 X16.6849 Y16.9205
G01 X16.7049 Y16.9521
G01 X16.7597 Y17.0440
G01 X16.7773 Y17.0769
G01 X16.8232 Y17.1736
G01 X16.8384 Y17.2077
G01 X16.8453 Y17.2251
G01 X16.8816 Y17.3258
G01 X16.8933 Y17.3612
G01 X16.9033 Y17.3972
G01 X16.9247 Y17.4829
G01 X16.9329 Y17.5194
G01 X16.9363 Y17.5378
G01 X16.9523 Y17.6436
G01 X16.9568 Y17.6807
G01 X16.9596 Y17.7179
G01 X16.9639 Y17.8061
G01 X16.9646 Y17.8248
G01 X16.9646 Y17.8622
G01 X16.9596 Y17.9691
G01 X16.9568 Y18.0063
G01 X16.9548 Y18.0249
G01 X16.9363 Y18.1492
G01 X16.9329 Y18.1676
G01 X16.9247 Y18.2041
G01 X16.9033 Y18.2898
G01 X16.8933 Y18.3258
G01 X16.8816 Y18.3612
G01 X16.8453 Y18.4619
G01 X16.8310 Y18.4964
G01 X16.7855 Y18.5933
G01 X16.7687 Y18.6267
G01 X16.7503 Y18.6592
G01 X16.7049 Y18.7349
G01 X16.6849 Y18.7665
G01 X16.6633 Y18.7970
G01 X16.6107 Y18.8680
G01 X16.5877 Y18.8974
G01 X16.5633 Y18.9257
G01 X16.5040 Y18.9912
G01 X16.4782 Y19.0182
G01 X16.4512 Y19.0440
G01 X16.3857 Y19.1033
G01 X16.3574 Y19.1277
G01 X16.3280 Y19.1507
G01 X16.2419 Y19.2143
G01 X16.2108 Y19.2350
G01 X16.1192 Y19.2903
G01 X16.0867 Y19.3087
G01 X16.0533 Y19.3255
G01 X15.9564 Y19.3710
G01 X15.9219 Y19.3853
G01 X15.8212 Y19.4216
G01 X15.7858 Y19.4333
G01 X15.7498 Y19.4433
G01 X15.6641 Y19.4647
G01 X15.6276 Y19.4729
G01 X15.5908 Y19.4793
G01 X15.4849 Y19.4948
G01 X15.4663 Y19.4968
G01 X15.4291 Y19.4996
G01 X15.3409 Y19.5039
G01 X15.3035 Y19.5048
G01 X15.2661 Y19.5039
G01 X15.1779 Y19.4996
G01 X15.1407 Y19.4968
G01 X15.1036 Y19.4923
G01 X15.0162 Y19.4793
G01 X14.9794 Y19.4729
G01 X14.9429 Y19.4647
G01 X14.8572 Y19.4433
G01 X14.8212 Y19.4333
G01 X14.7858 Y19.4216
G01 X14.7026 Y19.3918
G01 X14.6677 Y19.3784
G01 X14.6336 Y19.3632
G01 X14.5537 Y19.3255
G01 X14.5203 Y19.3087
G01 X14.4878 Y19.2903
G01 X14.4121 Y19.2449
G01 X14.3805 Y19.2249
G01 X14.3500 Y19.2033
G01 X14.2641 Y19.1394
G01 X14.2496 Y19.1277
G01 X14.2232 Y19.1050
G01 X10.7049 Y19.1048
G01 X10.6617 Y19.1035
G01 X10.4363 Y19.0925
G01 X10.3990 Y19.0897
G01 X10.3316 Y19.0828
G01 X10.0714 Y19.0442
G01 X10.0049 Y19.0312
G01 X9.9684 Y19.0230
G01 X9.7494 Y18.9682
G01 X9.7134 Y18.9582
G01 X9.6665 Y18.9440
G01 X9.6310 Y18.9323
G01 X9.4009 Y18.8497
G01 X9.3382 Y18.8240
G01 X9.3041 Y18.8088
G01 X9.0833 Y18.7042
G01 X9.0070 Y18.6634
G01 X8.7973 Y18.5379
G01 X8.7657 Y18.5180
G01 X8.7249 Y18.4907
G01 X8.6943 Y18.4692
G01 X8.5130 Y18.3347
G01 X8.4836 Y18.3117
G01 X8.4456 Y18.2806
G01 X8.4173 Y18.2562
G01 X8.2364 Y18.0919
G01 X8.1753 Y18.0307
G01 X7.9986 Y17.8358
G01 X7.9554 Y17.7836
G01 X7.9324 Y17.7541
G01 X7.7980 Y17.5728
G01 X7.7765 Y17.5423
G01 X7.7492 Y17.5015
G01 X7.7292 Y17.4699
G01 X7.6038 Y17.2601
G01 X7.5716 Y17.2005
G01 X7.5548 Y17.1671
G01 X7.4583 Y16.9631
G01 X7.4432 Y16.9289
G01 X7.4244 Y16.8836
G01 X7.4109 Y16.8487
G01 X7.3349 Y16.6362
G01 X7.3288 Y16.6185
G01 X7.3213 Y16.5944
G01 X7.2703 Y16.5382
G01 X7.2459 Y16.5099
G01 X7.2229 Y16.4804
G01 X7.1783 Y16.4204
G01 X7.1568 Y16.3898
G01 X7.1368 Y16.3583
G01 X7.0984 Y16.2941
G01 X7.0800 Y16.2616
G01 X7.0632 Y16.2282
G01 X7.0312 Y16.1606
G01 X7.0161 Y16.1265
G01 X7.0091 Y16.1091
G01 X6.9774 Y16.0212
G01 X6.9657 Y15.9857
G01 X6.9557 Y15.9497
G01 X6.9332 Y15.8590
G01 X6.9294 Y15.8407
G01 X6.9234 Y15.8065
G01 X6.9174 Y15.8407
G01 X6.9136 Y15.8590
G01 X6.8911 Y15.9497
G01 X6.8811 Y15.9857
G01 X6.8694 Y16.0212
G01 X6.8442 Y16.0916
G01 X6.8308 Y16.1265
G01 X6.8156 Y16.1606
G01 X6.7836 Y16.2282
G01 X6.7668 Y16.2616
G01 X6.7484 Y16.2941
G01 X6.7002 Y16.3742
G01 X6.6900 Y16.3898
G01 X6.6685 Y16.4204
G01 X6.6239 Y16.4804
G01 X6.6009 Y16.5099
G01 X6.5765 Y16.5382
G01 X6.5263 Y16.5936
G01 X6.5005 Y16.6207
G01 X6.4735 Y16.6464
G01 X6.4041 Y16.7090
G01 X6.3752 Y16.7327
G01 X6.3603 Y16.7440
G01 X6.3003 Y16.7886
G01 X6.2697 Y16.8101
G01 X6.2381 Y16.8301
G01 X6.1740 Y16.8685
G01 X6.1415 Y16.8870
G01 X6.1081 Y16.9038
G01 X6.0235 Y16.9435
G01 X6.0063 Y16.9509
G01 X5.9715 Y16.9643
G01 X5.9011 Y16.9895
G01 X5.8656 Y17.0012
G01 X5.8296 Y17.0112
G01 X5.7570 Y17.0294
G01 X5.7206 Y17.0376
G01 X5.6838 Y17.0439
G01 X5.6098 Y17.0549
G01 X5.5727 Y17.0595
G01 X5.5355 Y17.0622
G01 X5.4608 Y17.0659
G01 X5.4234 Y17.0668
G01 X5.3861 Y17.0659
G01 X5.3114 Y17.0622
G01 X5.2741 Y17.0595
G01 X5.2370 Y17.0549
G01 X5.1630 Y17.0439
G01 X5.1262 Y17.0376
G01 X5.0898 Y17.0294
G01 X5.0172 Y17.0112
G01 X4.9812 Y17.0012
G01 X4.9457 Y16.9895
G01 X4.8753 Y16.9643
G01 X4.8405 Y16.9509
G01 X4.8063 Y16.9357
G01 X4.7387 Y16.9038
G01 X4.7053 Y16.8870
G01 X4.6728 Y16.8685
G01 X4.6087 Y16.8301
G01 X4.5771 Y16.8101
G01 X4.5466 Y16.7886
G01 X4.4865 Y16.7440
G01 X4.4570 Y16.7211
G01 X4.4287 Y16.6966
G01 X4.3733 Y16.6464
G01 X4.3463 Y16.6207
G01 X4.3205 Y16.5936
G01 X4.2703 Y16.5382
G01 X4.2459 Y16.5099
G01 X4.2229 Y16.4804
G01 X4.1783 Y16.4204
G01 X4.1568 Y16.3898
G01 X4.1368 Y16.3583
G01 X4.0984 Y16.2941
G01 X4.0800 Y16.2616
G01 X4.0632 Y16.2282
G01 X4.0312 Y16.1606
G01 X4.0161 Y16.1265
G01 X4.0026 Y16.0916
G01 X3.9774 Y16.0212
G01 X3.9657 Y15.9857
G01 X3.9605 Y15.9678
G01 X3.9333 Y15.8590
G01 X3.9294 Y15.8407
G01 X3.9234 Y15.8065
G01 X3.9174 Y15.8407
G01 X3.9136 Y15.8590
G01 X3.8911 Y15.9497
G01 X3.8811 Y15.9857
G01 X3.8694 Y16.0212
G01 X3.8442 Y16.0916
G01 X3.8308 Y16.1265
G01 X3.8234 Y16.1436
G01 X3.7754 Y16.2450
G01 X3.7668 Y16.2616
G01 X3.7484 Y16.2941
G01 X3.7100 Y16.3583
G01 X3.6900 Y16.3898
G01 X3.6685 Y16.4204
G01 X3.6239 Y16.4804
G01 X3.6009 Y16.5099
G01 X3.5889 Y16.5242
G01 X3.5136 Y16.6073
G01 X3.5005 Y16.6207
G01 X3.4735 Y16.6464
G01 X3.4181 Y16.6966
G01 X3.3898 Y16.7211
G01 X3.3603 Y16.7440
G01 X3.3003 Y16.7886
G01 X3.2851 Y16.7995
G01 X3.2541 Y16.8203
G01 X3.1579 Y16.8779
G01 X3.1415 Y16.8870
G01 X3.1081 Y16.9038
G01 X3.0235 Y16.9435
G01 X3.0064 Y16.9509
G01 X2.9715 Y16.9643
G01 X2.9011 Y16.9895
G01 X2.8656 Y17.0012
G01 X2.8296 Y17.0112
G01 X2.7571 Y17.0294
G01 X2.7389 Y17.0337
G01 X2.7022 Y17.0410
G01 X2.5913 Y17.0574
G01 X2.5727 Y17.0595
G01 X2.5355 Y17.0622
G01 X2.4608 Y17.0659
G01 X2.4234 Y17.0668
G01 X2.3861 Y17.0659
G01 X2.3114 Y17.0622
G01 X2.2741 Y17.0595
G01 X2.2555 Y17.0574
G01 X2.1446 Y17.0410
G01 X2.1080 Y17.0337
G01 X2.0898 Y17.0294
G01 X2.0172 Y17.0112
G01 X1.9812 Y17.0012
G01 X1.9457 Y16.9895
G01 X1.8753 Y16.9643
G01 X1.8405 Y16.9509
G01 X1.8233 Y16.9435
G01 X1.7387 Y16.9038
G01 X1.7053 Y16.8870
G01 X1.6728 Y16.8685
G01 X1.6087 Y16.8301
G01 X1.5771 Y16.8101
G01 X1.5617 Y16.7995
G01 X1.4716 Y16.7327
G01 X1.4427 Y16.7090
G01 X1.4288 Y16.6966
G01 X1.3733 Y16.6464
G01 X1.3463 Y16.6207
G01 X1.3205 Y16.5936
G01 X1.2703 Y16.5382
G01 X1.2579 Y16.5242
G01 X1.2342 Y16.4953
G01 X1.1674 Y16.4052
G01 X1.1466 Y16.3742
G01 X1.1368 Y16.3583
G01 X1.0984 Y16.2941
G01 X1.0800 Y16.2616
G01 X1.0632 Y16.2282
G01 X1.0312 Y16.1606
G01 X1.0161 Y16.1265
G01 X1.0026 Y16.0916
G01 X0.9774 Y16.0212
G01 X0.9714 Y16.0035
G01 X0.9605 Y15.9678
G01 X0.9333 Y15.8590
G01 X0.9260 Y15.8223
G01 X0.9230 Y15.8039
G01 X0.9120 Y15.7299
G01 X0.9075 Y15.6928
G01 X0.9047 Y15.6556
G01 X0.9010 Y15.5809
G01 X0.9003 Y15.5622
G01 X0.9003 Y15.5248
G01 X0.9047 Y15.4315
G01 X0.9075 Y15.3942
G01 X0.9095 Y15.3756
G01 X0.9260 Y15.2647
G01 X0.9294 Y15.2463
G01 X0.9376 Y15.2099
G01 X0.9557 Y15.1374
G01 X0.9657 Y15.1013
G01 X0.9774 Y15.0659
G01 X1.0026 Y14.9955
G01 X1.0091 Y14.9779
G01 X1.0234 Y14.9434
G01 X1.0714 Y14.8420
G01 X1.0800 Y14.8255
G01 X1.0984 Y14.7929
G01 X1.1368 Y14.7288
G01 X1.1568 Y14.6972
G01 X1.1784 Y14.6667
G01 X1.2229 Y14.6066
G01 X1.2459 Y14.5772
G01 X1.2579 Y14.5629
G01 X1.3205 Y14.4935
G01 X1.3420 Y14.4708
G00 Z2.0000
G00 X1.6399 Y14.6015
G01 F60.00
G01 Z-0.2001
G01 F320.00
G01 X1.6399 Y7.6835
G01 X1.6409 Y7.6390
G01 X1.6523 Y7.3939
G01 X1.6575 Y7.3373
G01 X1.6599 Y7.3160
G01 X1.6923 Y7.0836
G01 X1.6958 Y7.0625
G01 X1.7043 Y7.0171
G01 X1.7087 Y6.9961
G01 X1.7624 Y6.7678
G01 X1.7678 Y6.7470
G01 X1.7804 Y6.7026
G01 X1.7868 Y6.6822
G01 X1.8613 Y6.4597
G01 X1.8686 Y6.4396
G01 X1.8853 Y6.3965
G01 X1.8935 Y6.3767
G01 X1.9882 Y6.1621
G01 X1.9973 Y6.1427
G01 X2.0179 Y6.1013
G01 X2.0279 Y6.0824
G01 X2.1421 Y5.8774
G01 X2.1529 Y5.8590
G01 X2.1773 Y5.8197
G01 X2.1889 Y5.8018
G01 X2.3215 Y5.6082
G01 X2.3340 Y5.5908
G01 X2.3619 Y5.5540
G01 X2.3752 Y5.5372
G01 X2.5251 Y5.3567
G01 X2.5391 Y5.3405
G01 X2.5702 Y5.3064
G01 X2.5850 Y5.2909
G01 X2.7509 Y5.1250
G01 X2.7664 Y5.1102
G01 X2.8005 Y5.0791
G01 X2.8167 Y5.0651
G01 X3.0055 Y4.9084
G01 X3.0508 Y4.8740
G01 X3.0682 Y4.8615
G01 X3.2618 Y4.7289
G01 X3.2797 Y4.7173
G01 X3.3190 Y4.6929
G01 X3.3374 Y4.6821
G01 X3.5424 Y4.5679
G01 X3.5613 Y4.5579
G01 X3.6123 Y4.5327
G01 X3.8466 Y4.4293
G01 X3.8996 Y4.4086
G01 X3.9197 Y4.4013
G01 X4.1523 Y4.3235
G01 X4.2070 Y4.3078
G01 X4.2278 Y4.3024
G01 X4.4561 Y4.2487
G01 X4.4771 Y4.2443
G01 X4.5225 Y4.2358
G01 X4.5436 Y4.2323
G01 X4.7760 Y4.1999
G01 X4.7973 Y4.1975
G01 X4.8433 Y4.1932
G01 X4.8646 Y4.1917
G01 X5.0990 Y4.1809
G01 X5.1224 Y4.1804
G01 X5.1680 Y4.1805
G01 X5.1908 Y4.1810
G01 X5.4397 Y4.1932
G01 X5.4624 Y4.1949
G01 X5.5113 Y4.1997
G01 X5.5339 Y4.2025
G01 X5.7804 Y4.2391
G01 X5.8028 Y4.2430
G01 X5.8510 Y4.2526
G01 X5.8732 Y4.2575
G01 X6.1150 Y4.3181
G01 X6.1369 Y4.3242
G01 X6.1839 Y4.3384
G01 X6.2055 Y4.3456
G01 X6.4402 Y4.4295
G01 X6.4614 Y4.4377
G01 X6.5067 Y4.4565
G01 X6.5275 Y4.4657
G01 X6.7631 Y4.5773
G01 X6.8165 Y4.6057
G01 X6.8363 Y4.6169
G01 X7.0501 Y4.7450
G01 X7.0693 Y4.7572
G01 X7.1101 Y4.7845
G01 X7.1287 Y4.7976
G01 X7.3289 Y4.9460
G01 X7.3468 Y4.9600
G01 X7.3848 Y4.9912
G01 X7.4020 Y5.0060
G01 X7.5950 Y5.1812
G01 X7.6379 Y5.2238
G01 X7.6536 Y5.2403
G01 X7.8210 Y5.4250
G01 X7.8358 Y5.4422
G01 X7.8670 Y5.4802
G01 X7.8810 Y5.4981
G01 X8.0294 Y5.6983
G01 X8.0425 Y5.7169
G01 X8.0698 Y5.7577
G01 X8.0820 Y5.7769
G01 X8.2101 Y5.9907
G01 X8.2213 Y6.0105
G01 X8.2497 Y6.0639
G01 X8.3613 Y6.2995
G01 X8.3705 Y6.3203
G01 X8.3893 Y6.3656
G01 X8.3975 Y6.3868
G01 X8.4608 Y6.5638
G01 X8.5305 Y6.6155
G01 X8.5485 Y6.6295
G01 X8.5657 Y6.6444
G01 X8.6311 Y6.7037
G01 X8.6476 Y6.7194
G01 X8.6555 Y6.7275
G01 X8.7301 Y6.8098
G01 X8.7375 Y6.8185
G01 X8.7515 Y6.8365
G01 X8.8041 Y6.9074
G01 X8.8172 Y6.9260
G01 X8.8293 Y6.9452
G01 X8.8747 Y7.0210
G01 X8.8860 Y7.0408
G01 X8.8912 Y7.0509
G01 X8.9387 Y7.1513
G01 X8.9432 Y7.1617
G01 X8.9513 Y7.1830
G01 X8.9811 Y7.2661
G01 X8.9882 Y7.2877
G01 X8.9943 Y7.3096
G01 X9.0158 Y7.3953
G01 X9.0207 Y7.4175
G01 X9.0246 Y7.4399
G01 X9.0376 Y7.5273
G01 X9.0404 Y7.5499
G01 X9.0421 Y7.5725
G01 X9.0464 Y7.6608
G01 X9.0469 Y7.6835
G01 X9.0468 Y7.6949
G01 X9.0421 Y7.7945
G01 X9.0404 Y7.8171
G01 X9.0376 Y7.8397
G01 X9.0246 Y7.9271
G01 X9.0207 Y7.9495
G01 X9.0158 Y7.9717
G01 X8.9943 Y8.0574
G01 X8.9882 Y8.0793
G01 X8.9811 Y8.1009
G01 X8.9513 Y8.1840
G01 X8.9432 Y8.2053
G01 X8.9387 Y8.2157
G01 X8.8962 Y8.3059
G01 X8.8860 Y8.3262
G01 X8.8747 Y8.3460
G01 X8.8293 Y8.4218
G01 X8.8172 Y8.4410
G01 X8.8041 Y8.4596
G01 X8.7515 Y8.5305
G01 X8.7375 Y8.5485
G01 X8.7226 Y8.5657
G01 X8.6633 Y8.6311
G01 X8.6476 Y8.6476
G01 X8.6311 Y8.6633
G01 X8.5657 Y8.7226
G01 X8.5485 Y8.7375
G01 X8.5305 Y8.7515
G01 X8.4596 Y8.8041
G01 X8.4410 Y8.8172
G01 X8.4218 Y8.8293
G01 X8.3460 Y8.8747
G01 X8.3262 Y8.8860
G01 X8.3161 Y8.8912
G01 X8.2261 Y8.9339
G01 X8.2053 Y8.9432
G01 X8.1840 Y8.9513
G01 X8.1009 Y8.9811
G01 X8.0793 Y8.9882
G01 X8.0574 Y8.9943
G01 X7.9717 Y9.0158
G01 X7.9495 Y9.0207
G01 X7.9271 Y9.0246
G01 X7.8397 Y9.0376
G01 X7.8171 Y9.0404
G01 X7.7945 Y9.0421
G01 X7.7062 Y9.0464
G01 X7.6835 Y9.0469
G01 X7.6608 Y9.0464
G01 X7.5612 Y9.0414
G01 X7.5499 Y9.0404
G01 X7.5273 Y9.0376
G01 X7.4399 Y9.0246
G01 X7.4175 Y9.0207
G01 X7.3953 Y9.0158
G01 X7.3096 Y8.9943
G01 X7.2877 Y8.9882
G01 X7.2661 Y8.9811
G01 X7.1830 Y8.9513
G01 X7.1617 Y8.9432
G01 X7.1409 Y8.9339
G01 X7.0509 Y8.8912
G01 X7.0408 Y8.8860
G01 X7.0210 Y8.8747
G01 X6.9452 Y8.8293
G01 X6.9260 Y8.8172
G01 X6.9074 Y8.8041
G01 X6.8365 Y8.7515
G01 X6.8185 Y8.7375
G01 X6.8013 Y8.7226
G01 X6.7359 Y8.6633
G01 X6.7194 Y8.6476
G01 X6.7037 Y8.6311
G01 X6.6444 Y8.5657
G01 X6.6369 Y8.5572
G01 X6.6224 Y8.5396
G01 X6.5563 Y8.4504
G01 X6.5436 Y8.4315
G01 X6.5377 Y8.4218
G01 X6.4923 Y8.3460
G01 X6.4810 Y8.3262
G01 X6.4758 Y8.3161
G01 X6.4331 Y8.2261
G01 X6.4238 Y8.2053
G01 X6.4135 Y8.1780
G01 X6.4032 Y8.2053
G01 X6.3987 Y8.2157
G01 X6.3871 Y8.2406
G01 X6.3871 Y14.7873
G01 X6.4292 Y14.8441
G01 X6.4423 Y14.8627
G01 X6.4545 Y14.8820
G01 X6.4929 Y14.9461
G01 X6.5041 Y14.9659
G01 X6.5143 Y14.9862
G01 X6.5463 Y15.0538
G01 X6.5555 Y15.0746
G01 X6.5637 Y15.0958
G01 X6.5889 Y15.1662
G01 X6.5960 Y15.1878
G01 X6.6021 Y15.2097
G01 X6.6203 Y15.2823
G01 X6.6253 Y15.3045
G01 X6.6273 Y15.3156
G01 X6.6401 Y15.4008
G01 X6.6429 Y15.4234
G01 X6.6446 Y15.4461
G01 X6.6487 Y15.5322
G01 X6.6487 Y15.5549
G01 X6.6482 Y15.5663
G01 X6.6446 Y15.6410
G01 X6.6429 Y15.6636
G01 X6.6401 Y15.6862
G01 X6.6291 Y15.7602
G01 X6.6253 Y15.7826
G01 X6.6203 Y15.8048
G01 X6.6021 Y15.8773
G01 X6.5960 Y15.8992
G01 X6.5889 Y15.9208
G01 X6.5637 Y15.9912
G01 X6.5555 Y16.0125
G01 X6.5510 Y16.0229
G01 X6.5093 Y16.1111
G01 X6.5041 Y16.1212
G01 X6.4929 Y16.1410
G01 X6.4545 Y16.2051
G01 X6.4423 Y16.2243
G01 X6.4292 Y16.2429
G01 X6.3846 Y16.3030
G01 X6.3707 Y16.3209
G01 X6.3558 Y16.3381
G01 X6.3056 Y16.3935
G01 X6.2899 Y16.4100
G01 X6.2734 Y16.4257
G01 X6.2180 Y16.4759
G01 X6.2008 Y16.4908
G01 X6.1829 Y16.5048
G01 X6.1228 Y16.5493
G01 X6.1042 Y16.5624
G01 X6.0947 Y16.5686
G01 X6.0208 Y16.6130
G01 X6.0011 Y16.6242
G01 X5.9807 Y16.6345
G01 X5.9131 Y16.6664
G01 X5.8923 Y16.6756
G01 X5.8711 Y16.6838
G01 X5.8007 Y16.7090
G01 X5.7791 Y16.7162
G01 X5.7572 Y16.7222
G01 X5.6847 Y16.7404
G01 X5.6625 Y16.7454
G01 X5.6401 Y16.7493
G01 X5.5661 Y16.7602
G01 X5.5435 Y16.7630
G01 X5.5322 Y16.7640
G01 X5.4461 Y16.7684
G01 X5.4234 Y16.7689
G01 X5.4007 Y16.7684
G01 X5.3260 Y16.7647
G01 X5.3033 Y16.7630
G01 X5.2807 Y16.7602
G01 X5.2068 Y16.7493
G01 X5.1843 Y16.7454
G01 X5.1622 Y16.7404
G01 X5.0896 Y16.7222
G01 X5.0677 Y16.7162
G01 X5.0461 Y16.7090
G01 X4.9757 Y16.6838
G01 X4.9545 Y16.6756
G01 X4.9337 Y16.6664
G01 X4.8661 Y16.6345
G01 X4.8458 Y16.6242
G01 X4.8260 Y16.6130
G01 X4.7618 Y16.5746
G01 X4.7426 Y16.5624
G01 X4.7240 Y16.5493
G01 X4.6640 Y16.5048
G01 X4.6460 Y16.4908
G01 X4.6288 Y16.4759
G01 X4.5651 Y16.4180
G01 X4.5490 Y16.4019
G01 X4.5412 Y16.3935
G01 X4.4910 Y16.3381
G01 X4.4762 Y16.3209
G01 X4.4622 Y16.3030
G01 X4.4176 Y16.2429
G01 X4.4045 Y16.2243
G01 X4.3924 Y16.2051
G01 X4.3539 Y16.1410
G01 X4.3427 Y16.1212
G01 X4.3325 Y16.1009
G01 X4.3005 Y16.0333
G01 X4.2913 Y16.0125
G01 X4.2831 Y15.9912
G01 X4.2542 Y15.9101
G01 X4.2508 Y15.8992
G01 X4.2447 Y15.8773
G01 X4.2265 Y15.8048
G01 X4.2216 Y15.7826
G01 X4.2177 Y15.7602
G01 X4.2067 Y15.6862
G01 X4.2039 Y15.6636
G01 X4.2022 Y15.6410
G01 X4.1986 Y15.5663
G01 X4.1980 Y15.5435
G01 X4.1986 Y15.5208
G01 X4.2022 Y15.4461
G01 X4.2039 Y15.4234
G01 X4.2067 Y15.4008
G01 X4.2177 Y15.3269
G01 X4.2216 Y15.3045
G01 X4.2265 Y15.2823
G01 X4.2447 Y15.2097
G01 X4.2508 Y15.1878
G01 X4.2579 Y15.1662
G01 X4.2831 Y15.0958
G01 X4.2913 Y15.0746
G01 X4.3005 Y15.0538
G01 X4.3325 Y14.9862
G01 X4.3427 Y14.9659
G01 X4.3539 Y14.9461
G01 X4.3924 Y14.8820
G01 X4.4045 Y14.8627
G01 X4.4176 Y14.8441
G01 X4.4598 Y14.7873
G01 X4.4598 Y8.8620
G01 X4.4052 Y8.8293
G01 X4.3860 Y8.8172
G01 X4.3674 Y8.8041
G01 X4.2874 Y8.7446
G01 X4.2698 Y8.7301
G01 X4.2613 Y8.7226
G01 X4.1959 Y8.6633
G01 X4.1794 Y8.6476
G01 X4.1715 Y8.6395
G01 X4.1044 Y8.5657
G01 X4.0895 Y8.5485
G01 X4.0755 Y8.5305
G01 X4.0229 Y8.4596
G01 X4.0098 Y8.4410
G01 X3.9977 Y8.4218
G01 X3.9523 Y8.3460
G01 X3.9410 Y8.3262
G01 X3.9358 Y8.3161
G01 X3.8931 Y8.2261
G01 X3.8838 Y8.2053
G01 X3.8757 Y8.1840
G01 X3.8459 Y8.1009
G01 X3.8388 Y8.0793
G01 X3.8327 Y8.0574
G01 X3.8112 Y7.9717
G01 X3.8063 Y7.9495
G01 X3.8042 Y7.9383
G01 X3.7894 Y7.8397
G01 X3.7866 Y7.8171
G01 X3.7849 Y7.7945
G01 X3.7802 Y7.6949
G01 X3.7801 Y7.6835
G01 X3.7806 Y7.6608
G01 X3.7849 Y7.5725
G01 X3.7866 Y7.5499
G01 X3.7894 Y7.5273
G01 X3.8024 Y7.4399
G01 X3.8063 Y7.4175
G01 X3.8112 Y7.3953
G01 X3.8327 Y7.3096
G01 X3.8388 Y7.2877
G01 X3.8459 Y7.2661
G01 X3.8757 Y7.1830
G01 X3.8838 Y7.1617
G01 X3.8931 Y7.1409
G01 X3.9308 Y7.0611
G01 X3.9410 Y7.0408
G01 X3.9465 Y7.0308
G01 X3.9977 Y6.9452
G01 X4.0098 Y6.9260
G01 X4.0229 Y6.9074
G01 X4.0755 Y6.8365
G01 X4.0895 Y6.8185
G01 X4.1044 Y6.8013
G01 X4.1637 Y6.7359
G01 X4.1794 Y6.7194
G01 X4.1959 Y6.7037
G01 X4.2613 Y6.6444
G01 X4.2785 Y6.6295
G01 X4.2965 Y6.6155
G01 X4.3674 Y6.5629
G01 X4.3766 Y6.5563
G01 X4.3955 Y6.5436
G01 X4.4810 Y6.4923
G01 X4.5008 Y6.4810
G01 X4.5211 Y6.4708
G01 X4.6009 Y6.4331
G01 X4.6217 Y6.4238
G01 X4.6430 Y6.4157
G01 X4.7261 Y6.3859
G01 X4.7477 Y6.3788
G01 X4.7696 Y6.3727
G01 X4.8553 Y6.3512
G01 X4.8775 Y6.3463
G01 X4.8999 Y6.3424
G01 X4.9986 Y6.3279
G01 X5.0099 Y6.3266
G01 X5.0325 Y6.3249
G01 X5.1208 Y6.3206
G01 X5.1435 Y6.3201
G01 X5.1662 Y6.3206
G01 X5.2545 Y6.3249
G01 X5.2658 Y6.3256
G01 X5.2884 Y6.3279
G01 X5.3871 Y6.3424
G01 X5.4095 Y6.3463
G01 X5.4317 Y6.3512
G01 X5.5174 Y6.3727
G01 X5.5393 Y6.3788
G01 X5.5609 Y6.3859
G01 X5.6440 Y6.4157
G01 X5.6653 Y6.4238
G01 X5.6861 Y6.4331
G01 X5.7659 Y6.4708
G01 X5.7862 Y6.4810
G01 X5.8060 Y6.4923
G01 X5.8818 Y6.5377
G01 X5.8915 Y6.5436
G01 X5.9104 Y6.5563
G01 X5.9905 Y6.6155
G01 X6.0085 Y6.6295
G01 X6.0257 Y6.6444
G01 X6.0911 Y6.7037
G01 X6.1076 Y6.7194
G01 X6.1233 Y6.7359
G01 X6.1826 Y6.8013
G01 X6.1975 Y6.8185
G01 X6.2115 Y6.8365
G01 X6.2641 Y6.9074
G01 X6.2772 Y6.9260
G01 X6.2893 Y6.9452
G01 X6.3347 Y7.0210
G01 X6.3405 Y7.0308
G01 X6.3512 Y7.0509
G01 X6.3939 Y7.1409
G01 X6.4032 Y7.1617
G01 X6.4135 Y7.1890
G01 X6.4196 Y7.1723
G01 X6.4283 Y7.1513
G01 X6.4758 Y7.0509
G01 X6.4865 Y7.0308
G01 X6.4923 Y7.0210
G01 X6.5360 Y6.9480
G01 X6.5327 Y6.9410
G01 X6.4532 Y6.8084
G01 X6.3611 Y6.6842
G01 X6.2573 Y6.5697
G01 X6.1428 Y6.4659
G01 X6.0186 Y6.3738
G01 X5.8860 Y6.2943
G01 X5.7463 Y6.2282
G01 X5.6008 Y6.1761
G01 X5.4508 Y6.1386
G01 X5.2979 Y6.1159
G01 X5.1421 Y6.1082
G01 X4.9981 Y6.1149
G01 X4.8540 Y6.1350
G01 X4.7124 Y6.1683
G01 X4.5744 Y6.2146
G01 X4.4413 Y6.2733
G01 X4.3142 Y6.3441
G01 X4.1942 Y6.4264
G01 X4.0822 Y6.5193
G01 X3.9793 Y6.6222
G01 X3.8864 Y6.7342
G01 X3.8041 Y6.8542
G01 X3.7333 Y6.9813
G01 X3.6746 Y7.1144
G01 X3.6283 Y7.2524
G01 X3.5950 Y7.3940
G01 X3.5749 Y7.5381
G01 X3.5671 Y7.7058
G01 X3.5671 Y15.1054
G01 X3.5926 Y15.1770
G01 X3.5992 Y15.1987
G01 X3.6203 Y15.2823
G01 X3.6253 Y15.3045
G01 X3.6273 Y15.3156
G01 X3.6401 Y15.4008
G01 X3.6429 Y15.4234
G01 X3.6439 Y15.4348
G01 X3.6487 Y15.5322
G01 X3.6487 Y15.5549
G01 X3.6483 Y15.5663
G01 X3.6446 Y15.6410
G01 X3.6429 Y15.6636
G01 X3.6417 Y15.6749
G01 X3.6273 Y15.7714
G01 X3.6229 Y15.7937
G01 X3.6203 Y15.8048
G01 X3.5992 Y15.8883
G01 X3.5960 Y15.8992
G01 X3.5889 Y15.9208
G01 X3.5637 Y15.9912
G01 X3.5555 Y16.0125
G01 X3.5463 Y16.0333
G01 X3.5143 Y16.1009
G01 X3.5041 Y16.1212
G01 X3.4929 Y16.1410
G01 X3.4545 Y16.2051
G01 X3.4423 Y16.2243
G01 X3.4292 Y16.2429
G01 X3.3847 Y16.3030
G01 X3.3707 Y16.3209
G01 X3.3558 Y16.3381
G01 X3.3056 Y16.3935
G01 X3.2899 Y16.4100
G01 X3.2734 Y16.4257
G01 X3.2180 Y16.4759
G01 X3.2008 Y16.4908
G01 X3.1829 Y16.5048
G01 X3.1228 Y16.5493
G01 X3.1042 Y16.5624
G01 X3.0850 Y16.5746
G01 X3.0209 Y16.6130
G01 X3.0011 Y16.6242
G01 X2.9807 Y16.6345
G01 X2.9131 Y16.6664
G01 X2.8924 Y16.6756
G01 X2.8711 Y16.6838
G01 X2.8007 Y16.7090
G01 X2.7791 Y16.7162
G01 X2.7572 Y16.7222
G01 X2.6847 Y16.7404
G01 X2.6625 Y16.7454
G01 X2.6401 Y16.7493
G01 X2.5661 Y16.7602
G01 X2.5435 Y16.7630
G01 X2.5208 Y16.7647
G01 X2.4462 Y16.7684
G01 X2.4234 Y16.7689
G01 X2.4007 Y16.7684
G01 X2.3260 Y16.7647
G01 X2.3033 Y16.7630
G01 X2.2807 Y16.7602
G01 X2.2068 Y16.7493
G01 X2.1844 Y16.7454
G01 X2.1622 Y16.7404
G01 X2.0896 Y16.7222
G01 X2.0677 Y16.7162
G01 X2.0461 Y16.7090
G01 X1.9757 Y16.6838
G01 X1.9545 Y16.6756
G01 X1.9337 Y16.6664
G01 X1.8661 Y16.6345
G01 X1.8458 Y16.6242
G01 X1.8260 Y16.6130
G01 X1.7618 Y16.5746
G01 X1.7426 Y16.5624
G01 X1.7240 Y16.5493
G01 X1.6640 Y16.5048
G01 X1.6460 Y16.4908
G01 X1.6288 Y16.4759
G01 X1.5734 Y16.4257
G01 X1.5569 Y16.4100
G01 X1.5412 Y16.3935
G01 X1.4910 Y16.3381
G01 X1.4762 Y16.3209
G01 X1.4622 Y16.3030
G01 X1.4176 Y16.2429
G01 X1.4045 Y16.2243
G01 X1.3924 Y16.2051
G01 X1.3539 Y16.1410
G01 X1.3427 Y16.1212
G01 X1.3325 Y16.1009
G01 X1.3005 Y16.0333
G01 X1.2913 Y16.0125
G01 X1.2831 Y15.9912
G01 X1.2579 Y15.9208
G01 X1.2508 Y15.8992
G01 X1.2447 Y15.8773
G01 X1.2265 Y15.8048
G01 X1.2216 Y15.7826
G01 X1.2177 Y15.7602
G01 X1.2067 Y15.6862
G01 X1.2039 Y15.6636
G01 X1.2022 Y15.6410
G01 X1.1986 Y15.5663
G01 X1.1980 Y15.5435
G01 X1.1986 Y15.5208
G01 X1.2022 Y15.4461
G01 X1.2039 Y15.4234
G01 X1.2067 Y15.4008
G01 X1.2177 Y15.3269
G01 X1.2216 Y15.3045
G01 X1.2265 Y15.2823
G01 X1.2447 Y15.2097
G01 X1.2508 Y15.1878
G01 X1.2579 Y15.1662
G01 X1.2831 Y15.0958
G01 X1.2913 Y15.0746
G01 X1.3005 Y15.0538
G01 X1.3325 Y14.9862
G01 X1.3427 Y14.9659
G01 X1.3539 Y14.9461
G01 X1.3924 Y14.8820
G01 X1.4045 Y14.8627
G01 X1.4176 Y14.8441
G01 X1.4622 Y14.7841
G01 X1.4762 Y14.7661
G01 X1.4910 Y14.7489
G01 X1.5412 Y14.6935
G01 X1.5569 Y14.6770
G01 X1.5734 Y14.6614
G01 X1.6399 Y14.6015
G00 Z2.0000
G00 X1.9378 Y14.7544
G01 F60.00
G01 Z-0.2001
G01 F320.00
G01 X1.9378 Y7.6835
G01 X1.9385 Y7.6528
G01 X1.9493 Y7.4184
G01 X1.9541 Y7.3648
G01 X1.9874 Y7.1248
G01 X1.9987 Y7.0644
G01 X2.0524 Y6.8360
G01 X2.0692 Y6.7768
G01 X2.1438 Y6.5544
G01 X2.1631 Y6.5041
G01 X2.2608 Y6.2824
G01 X2.2882 Y6.2274
G01 X2.4062 Y6.0158
G01 X2.4347 Y5.9701
G01 X2.5718 Y5.7704
G01 X2.6044 Y5.7275
G01 X2.7593 Y5.5412
G01 X2.7957 Y5.5016
G01 X2.9671 Y5.3304
G01 X3.0070 Y5.2942
G01 X3.1875 Y5.1444
G01 X3.2304 Y5.1118
G01 X3.4301 Y4.9747
G01 X3.4758 Y4.9462
G01 X3.6874 Y4.8282
G01 X3.7355 Y4.8040
G01 X3.9570 Y4.7060
G01 X4.0072 Y4.6864
G01 X4.2368 Y4.6092
G01 X4.2886 Y4.5943
G01 X4.5244 Y4.5387
G01 X4.5773 Y4.5286
G01 X4.8172 Y4.4950
G01 X4.8708 Y4.4898
G01 X5.1128 Y4.4785
G01 X5.1721 Y4.4784
G01 X5.4251 Y4.4908
G01 X5.4821 Y4.4962
G01 X5.7367 Y4.5338
G01 X5.7929 Y4.5447
G01 X6.0426 Y4.6071
G01 X6.0974 Y4.6235
G01 X6.3398 Y4.7100
G01 X6.3965 Y4.7333
G01 X6.6327 Y4.8452
G01 X6.6831 Y4.8724
G01 X6.8969 Y5.0005
G01 X6.9512 Y5.0368
G01 X7.1514 Y5.1853
G01 X7.1958 Y5.2215
G01 X7.3866 Y5.3942
G01 X7.4328 Y5.4404
G01 X7.6002 Y5.6251
G01 X7.6367 Y5.6692
G01 X7.7948 Y5.8824
G01 X7.8265 Y5.9301
G01 X7.9546 Y6.1439
G01 X7.9854 Y6.2015
G01 X8.0920 Y6.4268
G01 X8.1141 Y6.4796
G01 X8.2010 Y6.7219
G01 X8.2126 Y6.7596
G01 X8.2755 Y6.7975
G01 X8.3595 Y6.8598
G01 X8.4370 Y6.9300
G01 X8.5046 Y7.0044
G01 X8.5122 Y7.0139
G01 X8.5648 Y7.0849
G01 X8.5738 Y7.0984
G01 X8.6232 Y7.1812
G01 X8.6646 Y7.2683
G01 X8.6694 Y7.2795
G01 X8.7032 Y7.3742
G01 X8.7286 Y7.4756
G01 X8.7439 Y7.5791
G01 X8.7490 Y7.6835
G01 X8.7439 Y7.7879
G01 X8.7286 Y7.8914
G01 X8.7032 Y7.9928
G01 X8.6709 Y8.0837
G01 X8.6663 Y8.0950
G01 X8.6232 Y8.1858
G01 X8.5695 Y8.2755
G01 X8.5072 Y8.3595
G01 X8.4370 Y8.4370
G01 X8.3595 Y8.5072
G01 X8.2755 Y8.5695
G01 X8.1858 Y8.6232
G01 X8.0913 Y8.6679
G01 X7.9928 Y8.7032
G01 X7.8914 Y8.7286
G01 X7.7879 Y8.7439
G01 X7.6835 Y8.7490
G01 X7.5791 Y8.7439
G01 X7.4756 Y8.7286
G01 X7.3742 Y8.7032
G01 X7.2795 Y8.6694
G01 X7.2683 Y8.6646
G01 X7.1812 Y8.6232
G01 X7.0915 Y8.5695
G01 X7.0075 Y8.5072
G01 X6.9300 Y8.4370
G01 X6.8598 Y8.3595
G01 X6.7975 Y8.2755
G01 X6.7438 Y8.1858
G01 X6.7007 Y8.0950
G01 X6.6961 Y8.0837
G01 X6.6664 Y8.0005
G01 X6.6617 Y7.9850
G01 X6.6384 Y7.8914
G01 X6.6231 Y7.7879
G01 X6.6182 Y7.6916
G01 X6.6182 Y7.6754
G01 X6.6231 Y7.5791
G01 X6.6377 Y7.4796
G01 X6.6402 Y7.4677
G01 X6.6617 Y7.3820
G01 X6.6664 Y7.3665
G01 X6.6991 Y7.2757
G01 X6.7419 Y7.1848
G01 X6.7478 Y7.1741
G01 X6.7932 Y7.0984
G01 X6.7998 Y7.0882
G01 X6.8573 Y7.0107
G01 X6.8624 Y7.0044
G01 X6.8807 Y6.9842
G01 X6.8743 Y6.9666
G01 X6.7957 Y6.8004
G01 X6.7012 Y6.6427
G01 X6.5917 Y6.4950
G01 X6.4682 Y6.3588
G01 X6.3320 Y6.2353
G01 X6.1843 Y6.1258
G01 X6.0266 Y6.0313
G01 X5.8604 Y5.9527
G01 X5.6873 Y5.8907
G01 X5.5090 Y5.8460
G01 X5.3271 Y5.8191
G01 X5.1425 Y5.8100
G01 X4.9706 Y5.8179
G01 X4.7992 Y5.8419
G01 X4.6308 Y5.8815
G01 X4.4667 Y5.9365
G01 X4.3084 Y6.0064
G01 X4.1572 Y6.0906
G01 X4.0144 Y6.1884
G01 X3.8813 Y6.2989
G01 X3.7589 Y6.4213
G01 X3.6484 Y6.5544
G01 X3.5506 Y6.6972
G01 X3.4664 Y6.8484
G01 X3.3965 Y7.0067
G01 X3.3415 Y7.1708
G01 X3.3019 Y7.3392
G01 X3.2779 Y7.5106
G01 X3.2692 Y7.6989
G01 X3.2692 Y15.1647
G01 X3.2787 Y15.1849
G01 X3.2818 Y15.1924
G01 X3.3097 Y15.2704
G01 X3.3131 Y15.2821
G01 X3.3331 Y15.3626
G01 X3.3464 Y15.4526
G01 X3.3507 Y15.5354
G01 X3.3507 Y15.5517
G01 X3.3470 Y15.6263
G01 X3.3455 Y15.6425
G01 X3.3331 Y15.7245
G01 X3.3131 Y15.8049
G01 X3.3084 Y15.8205
G01 X3.2803 Y15.8985
G01 X3.2414 Y15.9807
G01 X3.1989 Y16.0520
G01 X3.1899 Y16.0655
G01 X3.1404 Y16.1319
G01 X3.0849 Y16.1935
G01 X3.0734 Y16.2050
G01 X3.0118 Y16.2605
G01 X2.9453 Y16.3100
G01 X2.9353 Y16.3169
G01 X2.8606 Y16.3615
G01 X2.7784 Y16.4004
G01 X2.6927 Y16.4311
G01 X2.6044 Y16.4532
G01 X2.5143 Y16.4666
G01 X2.4234 Y16.4710
G01 X2.3325 Y16.4666
G01 X2.2425 Y16.4532
G01 X2.1542 Y16.4311
G01 X2.0685 Y16.4004
G01 X1.9862 Y16.3615
G01 X1.9081 Y16.3147
G01 X1.8350 Y16.2605
G01 X1.7676 Y16.1994
G01 X1.7064 Y16.1319
G01 X1.6569 Y16.0655
G01 X1.6500 Y16.0554
G01 X1.6054 Y15.9807
G01 X1.5665 Y15.8985
G01 X1.5359 Y15.8128
G01 X1.5137 Y15.7245
G01 X1.5004 Y15.6344
G01 X1.4959 Y15.5435
G01 X1.5004 Y15.4526
G01 X1.5123 Y15.3706
G01 X1.5146 Y15.3586
G01 X1.5359 Y15.2743
G01 X1.5665 Y15.1886
G01 X1.6054 Y15.1063
G01 X1.6479 Y15.0351
G01 X1.6545 Y15.0249
G01 X1.7064 Y14.9551
G01 X1.7620 Y14.8936
G01 X1.7705 Y14.8849
G01 X1.8289 Y14.8319
G01 X1.8382 Y14.8240
G01 X1.9048 Y14.7746
G01 X1.9150 Y14.7680
G01 X1.9378 Y14.7544
G00 Z2.0000
G00 X3.9234 Y15.2806
G01 F60.00
G01 Z-0.2001
G01 F320.00
G01 X3.9174 Y15.2463
G01 X3.9136 Y15.2281
G01 X3.8911 Y15.1374
G01 X3.8811 Y15.1013
G01 X3.8755 Y15.0835
G01 X3.8650 Y15.0537
G01 X3.8650 Y8.7443
G01 X3.8837 Y8.7657
G01 X3.9430 Y8.8312
G01 X3.9688 Y8.8582
G01 X3.9821 Y8.8713
G01 X4.0613 Y8.9433
G01 X4.0896 Y8.9677
G01 X4.1190 Y8.9907
G01 X4.1619 Y9.0225
G01 X4.1619 Y14.6899
G01 X4.1466 Y14.7129
G01 X4.1368 Y14.7288
G01 X4.0984 Y14.7929
G01 X4.0800 Y14.8255
G01 X4.0632 Y14.8588
G01 X4.0312 Y14.9264
G01 X4.0161 Y14.9606
G01 X4.0026 Y14.9955
G01 X3.9774 Y15.0659
G01 X3.9657 Y15.1013
G01 X3.9605 Y15.1193
G01 X3.9333 Y15.2281
G01 X3.9294 Y15.2463
G01 X3.9234 Y15.2806
G00 Z2.0000
G00 X4.7577 Y14.8983
G01 F60.00
G01 Z-0.2001
G01 F320.00
G01 X4.7577 Y8.6760
G01 X4.7395 Y8.6694
G01 X4.7320 Y8.6663
G01 X4.6485 Y8.6269
G01 X4.6376 Y8.6213
G01 X4.5515 Y8.5695
G01 X4.4675 Y8.5072
G01 X4.3900 Y8.4370
G01 X4.3251 Y8.3656
G01 X4.3148 Y8.3531
G01 X4.2622 Y8.2821
G01 X4.2553 Y8.2721
G01 X4.2038 Y8.1858
G01 X4.1624 Y8.0987
G01 X4.1561 Y8.0837
G01 X4.1264 Y8.0005
G01 X4.1217 Y7.9850
G01 X4.0984 Y7.8914
G01 X4.0831 Y7.7879
G01 X4.0780 Y7.6835
G01 X4.0825 Y7.5872
G01 X4.0841 Y7.5710
G01 X4.0984 Y7.4756
G01 X4.1238 Y7.3742
G01 X4.1591 Y7.2757
G01 X4.2038 Y7.1812
G01 X4.2575 Y7.0915
G01 X4.3198 Y7.0075
G01 X4.3900 Y6.9300
G01 X4.4675 Y6.8598
G01 X4.5515 Y6.7975
G01 X4.6412 Y6.7438
G01 X4.7357 Y6.6991
G01 X4.8342 Y6.6638
G01 X4.9356 Y6.6384
G01 X5.0391 Y6.6231
G01 X5.1435 Y6.6180
G01 X5.2398 Y6.6225
G01 X5.2560 Y6.6241
G01 X5.3514 Y6.6384
G01 X5.4450 Y6.6617
G01 X5.4605 Y6.6664
G01 X5.5437 Y6.6961
G01 X5.5587 Y6.7024
G01 X5.6458 Y6.7438
G01 X5.7355 Y6.7975
G01 X5.8195 Y6.8598
G01 X5.8970 Y6.9300
G01 X5.9672 Y7.0075
G01 X6.0248 Y7.0849
G01 X6.0338 Y7.0984
G01 X6.0792 Y7.1741
G01 X6.0869 Y7.1885
G01 X6.1279 Y7.2757
G01 X6.1632 Y7.3742
G01 X6.1886 Y7.4756
G01 X6.2039 Y7.5791
G01 X6.2090 Y7.6835
G01 X6.2045 Y7.7798
G01 X6.2029 Y7.7960
G01 X6.1886 Y7.8914
G01 X6.1653 Y7.9850
G01 X6.1606 Y8.0005
G01 X6.1279 Y8.0913
G01 X6.0892 Y8.1737
G01 X6.0892 Y14.8983
G01 X6.1404 Y14.9551
G01 X6.1946 Y15.0282
G01 X6.2414 Y15.1063
G01 X6.2803 Y15.1886
G01 X6.3110 Y15.2743
G01 X6.3331 Y15.3626
G01 X6.3464 Y15.4526
G01 X6.3507 Y15.5354
G01 X6.3509 Y15.5476
G01 X6.3464 Y15.6344
G01 X6.3331 Y15.7245
G01 X6.3110 Y15.8128
G01 X6.2803 Y15.8985
G01 X6.2414 Y15.9807
G01 X6.1946 Y16.0588
G01 X6.1404 Y16.1319
G01 X6.0792 Y16.1994
G01 X6.0118 Y16.2605
G01 X5.9387 Y16.3147
G01 X5.8606 Y16.3615
G01 X5.7783 Y16.4004
G01 X5.6926 Y16.4311
G01 X5.6044 Y16.4532
G01 X5.5143 Y16.4666
G01 X5.4234 Y16.4710
G01 X5.3325 Y16.4666
G01 X5.2425 Y16.4532
G01 X5.1542 Y16.4311
G01 X5.0685 Y16.4004
G01 X4.9862 Y16.3615
G01 X4.9081 Y16.3147
G01 X4.8350 Y16.2605
G01 X4.7676 Y16.1994
G01 X4.7064 Y16.1319
G01 X4.6522 Y16.0588
G01 X4.6054 Y15.9807
G01 X4.5665 Y15.8985
G01 X4.5358 Y15.8128
G01 X4.5137 Y15.7245
G01 X4.5004 Y15.6344
G01 X4.4959 Y15.5435
G01 X4.5004 Y15.4526
G01 X4.5137 Y15.3626
G01 X4.5358 Y15.2743
G01 X4.5665 Y15.1886
G01 X4.6054 Y15.1063
G01 X4.6522 Y15.0282
G01 X4.7064 Y14.9551
G01 X4.7577 Y14.8983
G00 Z2.0000
G00 X7.5858 Y16.4370
G01 F60.00
G01 Z-0.2001
G01 F320.00
G01 X7.5651 Y16.4180
G01 X7.5490 Y16.4019
G01 X7.4910 Y16.3381
G01 X7.4762 Y16.3209
G01 X7.4691 Y16.3120
G01 X7.4176 Y16.2429
G01 X7.4045 Y16.2243
G01 X7.3924 Y16.2051
G01 X7.3482 Y16.1311
G01 X7.3375 Y16.1111
G01 X7.3325 Y16.1009
G01 X7.3005 Y16.0333
G01 X7.2913 Y16.0125
G01 X7.2831 Y15.9912
G01 X7.2579 Y15.9208
G01 X7.2508 Y15.8992
G01 X7.2476 Y15.8883
G01 X7.2265 Y15.8048
G01 X7.2239 Y15.7937
G01 X7.2195 Y15.7714
G01 X7.2067 Y15.6862
G01 X7.2039 Y15.6636
G01 X7.2022 Y15.6410
G01 X7.1986 Y15.5663
G01 X7.1980 Y15.5435
G01 X7.1986 Y15.5208
G01 X7.2022 Y15.4461
G01 X7.2039 Y15.4234
G01 X7.2067 Y15.4008
G01 X7.2177 Y15.3269
G01 X7.2216 Y15.3045
G01 X7.2265 Y15.2823
G01 X7.2447 Y15.2097
G01 X7.2476 Y15.1987
G01 X7.2542 Y15.1770
G01 X7.2831 Y15.0958
G01 X7.2913 Y15.0746
G01 X7.3005 Y15.0538
G01 X7.3375 Y14.9760
G01 X7.3482 Y14.9559
G01 X7.3539 Y14.9461
G01 X7.3924 Y14.8820
G01 X7.4045 Y14.8627
G01 X7.4176 Y14.8441
G01 X7.4622 Y14.7841
G01 X7.4762 Y14.7661
G01 X7.4910 Y14.7489
G01 X7.5412 Y14.6935
G01 X7.5569 Y14.6770
G01 X7.5734 Y14.6614
G01 X7.6288 Y14.6111
G01 X7.6460 Y14.5963
G01 X7.6639 Y14.5823
G01 X7.7240 Y14.5377
G01 X7.7332 Y14.5311
G01 X7.7521 Y14.5184
G01 X7.8260 Y14.4740
G01 X7.8458 Y14.4628
G01 X7.8661 Y14.4526
G01 X7.9337 Y14.4206
G01 X7.9545 Y14.4114
G01 X7.9757 Y14.4032
G01 X8.0461 Y14.3780
G01 X8.0677 Y14.3709
G01 X8.0896 Y14.3648
G01 X8.1621 Y14.3467
G01 X8.1843 Y14.3417
G01 X8.2067 Y14.3378
G01 X8.2807 Y14.3268
G01 X8.3033 Y14.3240
G01 X8.3260 Y14.3224
G01 X8.4007 Y14.3187
G01 X8.4234 Y14.3181
G01 X8.4348 Y14.3183
G01 X8.5208 Y14.3224
G01 X8.5435 Y14.3240
G01 X8.5661 Y14.3268
G01 X8.6513 Y14.3396
G01 X8.6625 Y14.3417
G01 X8.6847 Y14.3467
G01 X8.7572 Y14.3648
G01 X8.7791 Y14.3709
G01 X8.8007 Y14.3780
G01 X8.8711 Y14.4032
G01 X8.8923 Y14.4114
G01 X8.9131 Y14.4206
G01 X8.9807 Y14.4526
G01 X9.0011 Y14.4628
G01 X9.0208 Y14.4740
G01 X9.0850 Y14.5125
G01 X9.1042 Y14.5246
G01 X9.1228 Y14.5377
G01 X9.1829 Y14.5823
G01 X9.2008 Y14.5963
G01 X9.2180 Y14.6111
G01 X9.2734 Y14.6614
G01 X9.2899 Y14.6770
G01 X9.3056 Y14.6935
G01 X9.3558 Y14.7489
G01 X9.3706 Y14.7661
G01 X9.3846 Y14.7841
G01 X9.4292 Y14.8441
G01 X9.4358 Y14.8534
G01 X9.4485 Y14.8723
G01 X9.4929 Y14.9461
G01 X9.5041 Y14.9659
G01 X9.5143 Y14.9862
G01 X9.5463 Y15.0538
G01 X9.5555 Y15.0746
G01 X9.5597 Y15.0852
G01 X9.5926 Y15.1770
G01 X9.5960 Y15.1878
G01 X9.6021 Y15.2097
G01 X9.6203 Y15.2823
G01 X9.6253 Y15.3045
G01 X9.6291 Y15.3269
G01 X9.6401 Y15.4008
G01 X9.6429 Y15.4234
G01 X9.6446 Y15.4461
G01 X9.6482 Y15.5208
G01 X9.6488 Y15.5435
G01 X9.6482 Y15.5663
G01 X9.6446 Y15.6410
G01 X9.6429 Y15.6636
G01 X9.6401 Y15.6862
G01 X9.6291 Y15.7602
G01 X9.6253 Y15.7826
G01 X9.6203 Y15.8048
G01 X9.6021 Y15.8773
G01 X9.5960 Y15.8992
G01 X9.5889 Y15.9208
G01 X9.5637 Y15.9912
G01 X9.5555 Y16.0125
G01 X9.5463 Y16.0333
G01 X9.5132 Y16.1032
G01 X9.5461 Y16.1729
G01 X9.6135 Y16.2853
G01 X9.6915 Y16.3905
G01 X9.7795 Y16.4876
G01 X9.8766 Y16.5756
G01 X9.9819 Y16.6537
G01 X10.0942 Y16.7210
G01 X10.2127 Y16.7771
G01 X10.3360 Y16.8212
G01 X10.4631 Y16.8530
G01 X10.5928 Y16.8723
G01 X10.7473 Y16.8799
G01 X14.3390 Y16.8799
G01 X14.3559 Y16.8637
G01 X14.4213 Y16.8044
G01 X14.4385 Y16.7895
G01 X14.4565 Y16.7755
G01 X14.5274 Y16.7229
G01 X14.5460 Y16.7098
G01 X14.5652 Y16.6977
G01 X14.6410 Y16.6523
G01 X14.6608 Y16.6410
G01 X14.6811 Y16.6308
G01 X14.7609 Y16.5931
G01 X14.7817 Y16.5838
G01 X14.8030 Y16.5757
G01 X14.8861 Y16.5459
G01 X14.9077 Y16.5388
G01 X14.9296 Y16.5327
G01 X15.0153 Y16.5112
G01 X15.0375 Y16.5063
G01 X15.0599 Y16.5024
G01 X15.1473 Y16.4894
G01 X15.1699 Y16.4866
G01 X15.1925 Y16.4849
G01 X15.2808 Y16.4806
G01 X15.3035 Y16.4801
G01 X15.3262 Y16.4806
G01 X15.4145 Y16.4849
G01 X15.4371 Y16.4866
G01 X15.4597 Y16.4894
G01 X15.5471 Y16.5024
G01 X15.5695 Y16.5063
G01 X15.5917 Y16.5112
G01 X15.6774 Y16.5327
G01 X15.6993 Y16.5388
G01 X15.7209 Y16.5459
G01 X15.8040 Y16.5757
G01 X15.8253 Y16.5838
G01 X15.8461 Y16.5931
G01 X15.9259 Y16.6308
G01 X15.9462 Y16.6410
G01 X15.9660 Y16.6523
G01 X16.0418 Y16.6977
G01 X16.0610 Y16.7098
G01 X16.0796 Y16.7229
G01 X16.1505 Y16.7755
G01 X16.1685 Y16.7895
G01 X16.1857 Y16.8044
G01 X16.2511 Y16.8637
G01 X16.2676 Y16.8794
G01 X16.2833 Y16.8959
G01 X16.3426 Y16.9613
G01 X16.3575 Y16.9785
G01 X16.3715 Y16.9965
G01 X16.4241 Y17.0674
G01 X16.4372 Y17.0860
G01 X16.4493 Y17.1052
G01 X16.4947 Y17.1810
G01 X16.5060 Y17.2008
G01 X16.5162 Y17.2211
G01 X16.5539 Y17.3009
G01 X16.5632 Y17.3217
G01 X16.5713 Y17.3430
G01 X16.6011 Y17.4261
G01 X16.6082 Y17.4477
G01 X16.6143 Y17.4696
G01 X16.6358 Y17.5553
G01 X16.6407 Y17.5775
G01 X16.6446 Y17.5999
G01 X16.6576 Y17.6873
G01 X16.6604 Y17.7099
G01 X16.6621 Y17.7325
G01 X16.6664 Y17.8208
G01 X16.6669 Y17.8435
G01 X16.6664 Y17.8662
G01 X16.6621 Y17.9545
G01 X16.6604 Y17.9771
G01 X16.6576 Y17.9997
G01 X16.6428 Y18.0983
G01 X16.6384 Y18.1206
G01 X16.6358 Y18.1317
G01 X16.6143 Y18.2174
G01 X16.6082 Y18.2393
G01 X16.6011 Y18.2609
G01 X16.5713 Y18.3440
G01 X16.5632 Y18.3653
G01 X16.5539 Y18.3861
G01 X16.5162 Y18.4659
G01 X16.5060 Y18.4862
G01 X16.4947 Y18.5060
G01 X16.4493 Y18.5818
G01 X16.4372 Y18.6010
G01 X16.4241 Y18.6196
G01 X16.3715 Y18.6905
G01 X16.3575 Y18.7085
G01 X16.3426 Y18.7257
G01 X16.2755 Y18.7995
G01 X16.2595 Y18.8155
G01 X16.2511 Y18.8233
G01 X16.1857 Y18.8826
G01 X16.1685 Y18.8975
G01 X16.1505 Y18.9115
G01 X16.0796 Y18.9641
G01 X16.0610 Y18.9772
G01 X16.0418 Y18.9893
G01 X15.9660 Y19.0347
G01 X15.9462 Y19.0460
G01 X15.9259 Y19.0562
G01 X15.8461 Y19.0939
G01 X15.8357 Y19.0987
G01 X15.8147 Y19.1074
G01 X15.7209 Y19.1411
G01 X15.6993 Y19.1482
G01 X15.6774 Y19.1543
G01 X15.5917 Y19.1758
G01 X15.5695 Y19.1807
G01 X15.5471 Y19.1846
G01 X15.4597 Y19.1976
G01 X15.4371 Y19.2004
G01 X15.4145 Y19.2021
G01 X15.3262 Y19.2064
G01 X15.3035 Y19.2069
G01 X15.2808 Y19.2064
G01 X15.1925 Y19.2021
G01 X15.1699 Y19.2004
G01 X15.1473 Y19.1976
G01 X15.0487 Y19.1828
G01 X15.0264 Y19.1784
G01 X15.0153 Y19.1758
G01 X14.9296 Y19.1543
G01 X14.9077 Y19.1482
G01 X14.8861 Y19.1411
G01 X14.8030 Y19.1113
G01 X14.7817 Y19.1032
G01 X14.7609 Y19.0939
G01 X14.6811 Y19.0562
G01 X14.6608 Y19.0460
G01 X14.6410 Y19.0347
G01 X14.5652 Y18.9893
G01 X14.5460 Y18.9772
G01 X14.5274 Y18.9641
G01 X14.4565 Y18.9115
G01 X14.4385 Y18.8975
G01 X14.4213 Y18.8826
G01 X14.3559 Y18.8233
G01 X14.3390 Y18.8071
G01 X10.7123 Y18.8070
G01 X10.6763 Y18.8060
G01 X10.4509 Y18.7949
G01 X10.4282 Y18.7932
G01 X10.3794 Y18.7884
G01 X10.3568 Y18.7856
G01 X10.1223 Y18.7507
G01 X10.0630 Y18.7391
G01 X10.0408 Y18.7341
G01 X9.8218 Y18.6792
G01 X9.7999 Y18.6732
G01 X9.7529 Y18.6589
G01 X9.7313 Y18.6518
G01 X9.5188 Y18.5757
G01 X9.4976 Y18.5676
G01 X9.4522 Y18.5488
G01 X9.4315 Y18.5396
G01 X9.2172 Y18.4381
G01 X9.1638 Y18.4097
G01 X9.1440 Y18.3985
G01 X8.9504 Y18.2824
G01 X8.9312 Y18.2703
G01 X8.8810 Y18.2366
G01 X8.6905 Y18.0954
G01 X8.6726 Y18.0814
G01 X8.6346 Y18.0503
G01 X8.6174 Y18.0354
G01 X8.4502 Y17.8839
G01 X8.4337 Y17.8682
G01 X8.3990 Y17.8335
G01 X8.3833 Y17.8170
G01 X8.2317 Y17.6498
G01 X8.2169 Y17.6325
G01 X8.1786 Y17.5857
G01 X8.0373 Y17.3954
G01 X8.0242 Y17.3768
G01 X7.9969 Y17.3360
G01 X7.9847 Y17.3167
G01 X7.8687 Y17.1231
G01 X7.8575 Y17.1034
G01 X7.8343 Y17.0601
G01 X7.8241 Y17.0397
G01 X7.7276 Y16.8357
G01 X7.7184 Y16.8149
G01 X7.6996 Y16.7696
G01 X7.6914 Y16.7483
G01 X7.6117 Y16.5251
G01 X7.5940 Y16.4672
G01 X7.5858 Y16.4370
G00 Z2.0000
G00 X9.1816 Y16.0766
G01 F60.00
G01 Z-0.2001
G01 F320.00
G01 X9.2145 Y16.1686
G01 X9.2831 Y16.3135
G01 X9.3655 Y16.4510
G01 X9.4610 Y16.5798
G01 X9.5686 Y16.6985
G01 X9.6874 Y16.8062
G01 X9.8161 Y16.9017
G01 X9.9536 Y16.9841
G01 X10.0985 Y17.0526
G01 X10.2495 Y17.1066
G01 X10.4050 Y17.1456
G01 X10.5635 Y17.1691
G01 X10.7400 Y17.1778
G01 X14.4720 Y17.1778
G01 X14.4798 Y17.1675
G01 X14.4851 Y17.1614
G01 X14.5444 Y17.0959
G01 X14.5559 Y17.0844
G01 X14.6275 Y17.0198
G01 X14.7115 Y16.9575
G01 X14.7941 Y16.9078
G01 X14.8085 Y16.9001
G01 X14.8957 Y16.8591
G01 X14.9942 Y16.8238
G01 X15.0956 Y16.7984
G01 X15.1910 Y16.7841
G01 X15.2072 Y16.7825
G01 X15.3035 Y16.7780
G01 X15.4079 Y16.7831
G01 X15.5034 Y16.7970
G01 X15.5193 Y16.8002
G01 X15.6128 Y16.8238
G01 X15.7113 Y16.8591
G01 X15.8058 Y16.9038
G01 X15.8955 Y16.9575
G01 X15.9795 Y17.0198
G01 X16.0570 Y17.0900
G01 X16.1272 Y17.1675
G01 X16.1895 Y17.2515
G01 X16.2432 Y17.3412
G01 X16.2879 Y17.4357
G01 X16.3232 Y17.5342
G01 X16.3486 Y17.6356
G01 X16.3639 Y17.7391
G01 X16.3690 Y17.8435
G01 X16.3639 Y17.9479
G01 X16.3486 Y18.0514
G01 X16.3232 Y18.1528
G01 X16.2909 Y18.2437
G01 X16.2846 Y18.2587
G01 X16.2432 Y18.3458
G01 X16.1895 Y18.4355
G01 X16.1272 Y18.5195
G01 X16.0626 Y18.5911
G01 X16.0511 Y18.6026
G01 X15.9856 Y18.6619
G01 X15.9731 Y18.6722
G01 X15.8955 Y18.7295
G01 X15.8058 Y18.7832
G01 X15.7113 Y18.8279
G01 X15.6205 Y18.8606
G01 X15.6050 Y18.8653
G01 X15.5193 Y18.8868
G01 X15.5034 Y18.8900
G01 X15.4079 Y18.9039
G01 X15.3076 Y18.9090
G01 X15.2954 Y18.9088
G01 X15.1991 Y18.9039
G01 X15.1036 Y18.8900
G01 X15.0877 Y18.8868
G01 X15.0020 Y18.8653
G01 X14.9865 Y18.8606
G01 X14.8957 Y18.8279
G01 X14.8085 Y18.7869
G01 X14.7941 Y18.7792
G01 X14.7115 Y18.7295
G01 X14.6275 Y18.6672
G01 X14.5500 Y18.5970
G01 X14.4851 Y18.5256
G01 X14.4798 Y18.5195
G01 X14.4720 Y18.5092
G01 X10.7236 Y18.5092
G01 X10.6950 Y18.5086
G01 X10.4574 Y18.4968
G01 X10.4005 Y18.4910
G01 X10.1772 Y18.4578
G01 X10.1132 Y18.4451
G01 X9.8864 Y18.3881
G01 X9.8317 Y18.3713
G01 X9.6116 Y18.2923
G01 X9.5588 Y18.2703
G01 X9.3548 Y18.1738
G01 X9.2972 Y18.1430
G01 X9.1036 Y18.0269
G01 X9.0492 Y17.9906
G01 X8.8680 Y17.8562
G01 X8.8236 Y17.8200
G01 X8.6502 Y17.6631
G01 X8.6096 Y17.6228
G01 X8.4524 Y17.4497
G01 X8.4160 Y17.4056
G01 X8.2765 Y17.2179
G01 X8.2446 Y17.1704
G01 X8.1202 Y16.9629
G01 X8.0934 Y16.9124
G01 X7.9952 Y16.7046
G01 X7.9719 Y16.6480
G01 X7.8945 Y16.4316
G01 X7.8779 Y16.3769
G01 X7.8519 Y16.2733
G01 X7.8382 Y16.2630
G01 X7.8319 Y16.2579
G01 X7.7734 Y16.2050
G01 X7.7647 Y16.1965
G01 X7.7064 Y16.1319
G01 X7.6522 Y16.0588
G01 X7.6054 Y15.9807
G01 X7.5698 Y15.9059
G01 X7.5636 Y15.8909
G01 X7.5384 Y15.8205
G01 X7.5347 Y15.8089
G01 X7.5137 Y15.7245
G01 X7.5014 Y15.6425
G01 X7.4998 Y15.6263
G01 X7.4961 Y15.5517
G01 X7.4961 Y15.5354
G01 X7.5004 Y15.4526
G01 X7.5123 Y15.3706
G01 X7.5155 Y15.3547
G01 X7.5358 Y15.2743
G01 X7.5665 Y15.1886
G01 X7.6054 Y15.1063
G01 X7.6479 Y15.0351
G01 X7.6545 Y15.0249
G01 X7.7064 Y14.9551
G01 X7.7676 Y14.8877
G01 X7.8350 Y14.8266
G01 X7.9081 Y14.7723
G01 X7.9862 Y14.7256
G01 X8.0685 Y14.6866
G01 X8.1542 Y14.6560
G01 X8.2425 Y14.6339
G01 X8.3325 Y14.6205
G01 X8.4234 Y14.6160
G01 X8.5143 Y14.6205
G01 X8.6043 Y14.6339
G01 X8.6926 Y14.6560
G01 X8.7783 Y14.6866
G01 X8.8606 Y14.7256
G01 X8.9318 Y14.7680
G01 X8.9420 Y14.7746
G01 X9.0118 Y14.8266
G01 X9.0792 Y14.8877
G01 X9.1404 Y14.9551
G01 X9.1946 Y15.0282
G01 X9.2414 Y15.1063
G01 X9.2803 Y15.1886
G01 X9.3110 Y15.2743
G01 X9.3313 Y15.3547
G01 X9.3338 Y15.3666
G01 X9.3464 Y15.4526
G01 X9.3509 Y15.5435
G01 X9.3464 Y15.6344
G01 X9.3345 Y15.7165
G01 X9.3322 Y15.7284
G01 X9.3110 Y15.8128
G01 X9.2832 Y15.8909
G01 X9.2787 Y15.9022
G01 X9.2450 Y15.9735
G01 X9.2394 Y15.9843
G01 X9.1968 Y16.0554
G01 X9.1923 Y16.0622
G01 X9.1816 Y16.0766
G00 Z2.0000
G00 X16.3838 Y24.2020
G01 F60.00
G01 Z-0.2001
G01 F320.00
G01 X19.8834 Y24.2020
G01 X19.9453 Y24.2035
G01 X20.1707 Y24.2145
G01 X20.2080 Y24.2173
G01 X20.2568 Y24.2221
G01 X20.2939 Y24.2267
G01 X20.5356 Y24.2628
G01 X20.6021 Y24.2758
G01 X20.6386 Y24.2840
G01 X20.8756 Y24.3436
G01 X20.9584 Y24.3687
G01 X21.1885 Y24.4508
G01 X21.2234 Y24.4642
G01 X21.2859 Y24.4904
G01 X21.5237 Y24.6028
G01 X21.5836 Y24.6346
G01 X21.6161 Y24.6530
G01 X21.8097 Y24.7691
G01 X21.8413 Y24.7890
G01 X21.8821 Y24.8163
G01 X21.9127 Y24.8378
G01 X22.0940 Y24.9723
G01 X22.1234 Y24.9953
G01 X22.1757 Y25.0384
G01 X22.3569 Y25.2024
G01 X22.3840 Y25.2282
G01 X22.4187 Y25.2629
G01 X22.4444 Y25.2899
G01 X22.5960 Y25.4572
G01 X22.6204 Y25.4855
G01 X22.6632 Y25.5380
G01 X22.8090 Y25.7342
G01 X22.8305 Y25.7647
G01 X22.8578 Y25.8055
G01 X22.8778 Y25.8371
G01 X22.9938 Y26.0307
G01 X23.0122 Y26.0632
G01 X23.0354 Y26.1065
G01 X23.0522 Y26.1399
G01 X23.1487 Y26.3439
G01 X23.1638 Y26.3781
G01 X23.1826 Y26.4234
G01 X23.1961 Y26.4583
G01 X23.2721 Y26.6708
G01 X23.2782 Y26.6885
G01 X23.2857 Y26.7126
G01 X23.3367 Y26.7688
G01 X23.3611 Y26.7971
G01 X23.3841 Y26.8266
G01 X23.4287 Y26.8866
G01 X23.4396 Y26.9018
G01 X23.4604 Y26.9328
G01 X23.5086 Y27.0129
G01 X23.5270 Y27.0454
G01 X23.5438 Y27.0788
G01 X23.5758 Y27.1464
G01 X23.5909 Y27.1805
G01 X23.6044 Y27.2154
G01 X23.6296 Y27.2858
G01 X23.6413 Y27.3213
G01 X23.6513 Y27.3573
G01 X23.6738 Y27.4480
G01 X23.6776 Y27.4663
G01 X23.6836 Y27.5005
G01 X23.6896 Y27.4663
G01 X23.6934 Y27.4480
G01 X23.7159 Y27.3573
G01 X23.7259 Y27.3213
G01 X23.7376 Y27.2858
G01 X23.7628 Y27.2154
G01 X23.7762 Y27.1805
G01 X23.7914 Y27.1464
G01 X23.8234 Y27.0788
G01 X23.8402 Y27.0454
G01 X23.8586 Y27.0129
G01 X23.8970 Y26.9487
G01 X23.9170 Y26.9172
G01 X23.9385 Y26.8866
G01 X23.9831 Y26.8266
G01 X24.0061 Y26.7971
G01 X24.0305 Y26.7688
G01 X24.0934 Y26.6997
G01 X24.1198 Y26.6733
G01 X24.1889 Y26.6104
G01 X24.2172 Y26.5859
G01 X24.2467 Y26.5630
G01 X24.3067 Y26.5184
G01 X24.3373 Y26.4969
G01 X24.3689 Y26.4769
G01 X24.4330 Y26.4385
G01 X24.4655 Y26.4200
G01 X24.4989 Y26.4032
G01 X24.5665 Y26.3713
G01 X24.6007 Y26.3561
G01 X24.6355 Y26.3427
G01 X24.7236 Y26.3114
G01 X24.7593 Y26.3006
G01 X24.8500 Y26.2776
G01 X24.8864 Y26.2694
G01 X24.9232 Y26.2631
G01 X25.0157 Y26.2496
G01 X25.0529 Y26.2459
G01 X25.0715 Y26.2448
G01 X25.1462 Y26.2411
G01 X25.1836 Y26.2402
G01 X25.2209 Y26.2411
G01 X25.2956 Y26.2448
G01 X25.3329 Y26.2475
G01 X25.3700 Y26.2521
G01 X25.4440 Y26.2631
G01 X25.4808 Y26.2694
G01 X25.5172 Y26.2776
G01 X25.6078 Y26.3006
G01 X25.6436 Y26.3114
G01 X25.6613 Y26.3175
G01 X25.7317 Y26.3427
G01 X25.7665 Y26.3561
G01 X25.8007 Y26.3713
G01 X25.8851 Y26.4114
G01 X25.9180 Y26.4291
G01 X25.9342 Y26.4385
G01 X26.0142 Y26.4867
G01 X26.0453 Y26.5075
G01 X26.1205 Y26.5630
G01 X26.1500 Y26.5859
G01 X26.1643 Y26.5980
G01 X26.2337 Y26.6606
G01 X26.2607 Y26.6863
G01 X26.2865 Y26.7134
G01 X26.3491 Y26.7828
G01 X26.3728 Y26.8117
G01 X26.4396 Y26.9018
G01 X26.4604 Y26.9328
G01 X26.4702 Y26.9487
G01 X26.5180 Y27.0290
G01 X26.5356 Y27.0620
G01 X26.5758 Y27.1464
G01 X26.5909 Y27.1805
G01 X26.5979 Y27.1979
G01 X26.6296 Y27.2858
G01 X26.6357 Y27.3035
G01 X26.6465 Y27.3392
G01 X26.6737 Y27.4480
G01 X26.6776 Y27.4663
G01 X26.6836 Y27.5005
G01 X26.6896 Y27.4663
G01 X26.6977 Y27.4298
G01 X26.7207 Y27.3392
G01 X26.7315 Y27.3035
G01 X26.7628 Y27.2154
G01 X26.7762 Y27.1805
G01 X26.7914 Y27.1464
G01 X26.8316 Y27.0620
G01 X26.8402 Y27.0454
G01 X26.8586 Y27.0129
G01 X26.9068 Y26.9328
G01 X26.9276 Y26.9018
G01 X26.9831 Y26.8266
G01 X27.0061 Y26.7971
G01 X27.0305 Y26.7688
G01 X27.0807 Y26.7134
G01 X27.1065 Y26.6863
G01 X27.1335 Y26.6606
G01 X27.2029 Y26.5980
G01 X27.2318 Y26.5743
G01 X27.3067 Y26.5184
G01 X27.3373 Y26.4969
G01 X27.3689 Y26.4769
G01 X27.4330 Y26.4385
G01 X27.4655 Y26.4200
G01 X27.4821 Y26.4114
G01 X27.5665 Y26.3713
G01 X27.6006 Y26.3561
G01 X27.6355 Y26.3427
G01 X27.7236 Y26.3114
G01 X27.7593 Y26.3006
G01 X27.7774 Y26.2958
G01 X27.8499 Y26.2776
G01 X27.8864 Y26.2694
G01 X27.9232 Y26.2631
G01 X28.0157 Y26.2496
G01 X28.0529 Y26.2459
G01 X28.1462 Y26.2411
G01 X28.1836 Y26.2402
G01 X28.2023 Y26.2404
G01 X28.2956 Y26.2448
G01 X28.3329 Y26.2475
G01 X28.3700 Y26.2521
G01 X28.4440 Y26.2631
G01 X28.4808 Y26.2694
G01 X28.5172 Y26.2776
G01 X28.6078 Y26.3006
G01 X28.6436 Y26.3114
G01 X28.7317 Y26.3427
G01 X28.7665 Y26.3561
G01 X28.8007 Y26.3713
G01 X28.8683 Y26.4032
G01 X28.8851 Y26.4114
G01 X28.9180 Y26.4291
G01 X28.9983 Y26.4769
G01 X29.0299 Y26.4969
G01 X29.0604 Y26.5184
G01 X29.1205 Y26.5630
G01 X29.1500 Y26.5859
G01 X29.1782 Y26.6104
G01 X29.2337 Y26.6606
G01 X29.2607 Y26.6863
G01 X29.2865 Y26.7134
G01 X29.3491 Y26.7828
G01 X29.3728 Y26.8117
G01 X29.4286 Y26.8866
G01 X29.4502 Y26.9172
G01 X29.4702 Y26.9487
G01 X29.5086 Y27.0129
G01 X29.5270 Y27.0454
G01 X29.5438 Y27.0788
G01 X29.5758 Y27.1464
G01 X29.5909 Y27.1805
G01 X29.6044 Y27.2154
G01 X29.6296 Y27.2858
G01 X29.6413 Y27.3213
G01 X29.6513 Y27.3573
G01 X29.6737 Y27.4480
G01 X29.6810 Y27.4847
G01 X29.6840 Y27.5031
G01 X29.6975 Y27.5956
G01 X29.7012 Y27.6328
G01 X29.7060 Y27.7261
G01 X29.7069 Y27.7635
G01 X29.7067 Y27.7822
G01 X29.7023 Y27.8755
G01 X29.6995 Y27.9128
G01 X29.6950 Y27.9499
G01 X29.6840 Y28.0238
G01 X29.6776 Y28.0607
G01 X29.6694 Y28.0971
G01 X29.6513 Y28.1696
G01 X29.6413 Y28.2057
G01 X29.6296 Y28.2411
G01 X29.6044 Y28.3115
G01 X29.5909 Y28.3464
G01 X29.5758 Y28.3806
G01 X29.5438 Y28.4482
G01 X29.5270 Y28.4815
G01 X29.5086 Y28.5141
G01 X29.4702 Y28.5782
G01 X29.4502 Y28.6098
G01 X29.4286 Y28.6403
G01 X29.3841 Y28.7004
G01 X29.3611 Y28.7298
G01 X29.3367 Y28.7581
G01 X29.2865 Y28.8135
G01 X29.2650 Y28.8362
G01 X29.2650 Y35.6235
G01 X29.2635 Y35.6854
G01 X29.2513 Y35.9344
G01 X29.2485 Y35.9716
G01 X29.2417 Y36.0391
G01 X29.2026 Y36.3041
G01 X29.1962 Y36.3410
G01 X29.1866 Y36.3891
G01 X29.1784 Y36.4256
G01 X29.1179 Y36.6674
G01 X29.1079 Y36.7034
G01 X29.0937 Y36.7503
G01 X29.0819 Y36.7858
G01 X28.9980 Y37.0205
G01 X28.9845 Y37.0554
G01 X28.9657 Y37.1007
G01 X28.9506 Y37.1349
G01 X28.8440 Y37.3602
G01 X28.8272 Y37.3936
G01 X28.8041 Y37.4369
G01 X28.7856 Y37.4694
G01 X28.6575 Y37.6832
G01 X28.6375 Y37.7148
G01 X28.6102 Y37.7556
G01 X28.5887 Y37.7862
G01 X28.4402 Y37.9864
G01 X28.4172 Y38.0158
G01 X28.3861 Y38.0538
G01 X28.3617 Y38.0821
G01 X28.1943 Y38.2668
G01 X28.1685 Y38.2938
G01 X28.1338 Y38.3285
G01 X28.1068 Y38.3543
G01 X27.9221 Y38.5217
G01 X27.8938 Y38.5461
G01 X27.8412 Y38.5889
G01 X27.6262 Y38.7487
G01 X27.5956 Y38.7702
G01 X27.5548 Y38.7975
G01 X27.5232 Y38.8175
G01 X27.3094 Y38.9456
G01 X27.2769 Y38.9641
G01 X27.2336 Y38.9872
G01 X27.2002 Y39.0040
G01 X26.9749 Y39.1106
G01 X26.9407 Y39.1257
G01 X26.8954 Y39.1445
G01 X26.8605 Y39.1580
G01 X26.6258 Y39.2419
G01 X26.5903 Y39.2537
G01 X26.5434 Y39.2679
G01 X26.5074 Y39.2779
G01 X26.2656 Y39.3384
G01 X26.2291 Y39.3466
G01 X26.1810 Y39.3562
G01 X26.1441 Y39.3626
G01 X25.8976 Y39.3992
G01 X25.8605 Y39.4037
G01 X25.8116 Y39.4085
G01 X25.7744 Y39.4113
G01 X25.5254 Y39.4235
G01 X25.4880 Y39.4244
G01 X25.4390 Y39.4244
G01 X25.4016 Y39.4235
G01 X25.1526 Y39.4113
G01 X25.1154 Y39.4085
G01 X25.0665 Y39.4037
G01 X25.0294 Y39.3992
G01 X24.7829 Y39.3626
G01 X24.7460 Y39.3562
G01 X24.6979 Y39.3466
G01 X24.6614 Y39.3384
G01 X24.4196 Y39.2779
G01 X24.3836 Y39.2679
G01 X24.3367 Y39.2537
G01 X24.3012 Y39.2419
G01 X24.0665 Y39.1580
G01 X24.0316 Y39.1445
G01 X23.9863 Y39.1257
G01 X23.9521 Y39.1106
G01 X23.7268 Y39.0040
G01 X23.6934 Y38.9872
G01 X23.6501 Y38.9641
G01 X23.6176 Y38.9456
G01 X23.4038 Y38.8175
G01 X23.3722 Y38.7975
G01 X23.3314 Y38.7702
G01 X23.3008 Y38.7487
G01 X23.1006 Y38.6002
G01 X23.0712 Y38.5772
G01 X23.0332 Y38.5461
G01 X23.0049 Y38.5217
G01 X22.8202 Y38.3543
G01 X22.7932 Y38.3285
G01 X22.7585 Y38.2938
G01 X22.7327 Y38.2668
G01 X22.5653 Y38.0821
G01 X22.5409 Y38.0538
G01 X22.4981 Y38.0012
G01 X22.3383 Y37.7862
G01 X22.3168 Y37.7556
G01 X22.2895 Y37.7148
G01 X22.2695 Y37.6832
G01 X22.1319 Y37.4533
G01 X22.0998 Y37.3936
G01 X22.0830 Y37.3602
G01 X21.9686 Y37.1179
G01 X21.9356 Y37.0380
G01 X21.8961 Y36.9285
G01 X21.8696 Y36.9077
G01 X21.8553 Y36.8957
G01 X21.7758 Y36.8240
G01 X21.7488 Y36.7982
G01 X21.7230 Y36.7712
G01 X21.6637 Y36.7057
G01 X21.6393 Y36.6774
G01 X21.6163 Y36.6480
G01 X21.5637 Y36.5770
G01 X21.5421 Y36.5465
G01 X21.5320 Y36.5308
G01 X21.4673 Y36.4230
G01 X21.4497 Y36.3901
G01 X21.4415 Y36.3733
G01 X21.4038 Y36.2934
G01 X21.3886 Y36.2593
G01 X21.3752 Y36.2244
G01 X21.3393 Y36.1236
G01 X21.3337 Y36.1058
G01 X21.3237 Y36.0698
G01 X21.2979 Y35.9659
G01 X21.2907 Y35.9292
G01 X21.2747 Y35.8234
G01 X21.2702 Y35.7863
G01 X21.2674 Y35.7491
G01 X21.2631 Y35.6609
G01 X21.2622 Y35.6235
G01 X21.2631 Y35.5861
G01 X21.2686 Y35.4793
G01 X21.2722 Y35.4421
G01 X21.2877 Y35.3362
G01 X21.2941 Y35.2994
G01 X21.3023 Y35.2629
G01 X21.3237 Y35.1772
G01 X21.3285 Y35.1592
G01 X21.3393 Y35.1234
G01 X21.3752 Y35.0226
G01 X21.3886 Y34.9877
G01 X21.4038 Y34.9536
G01 X21.4497 Y34.8569
G01 X21.4583 Y34.8403
G01 X21.4767 Y34.8078
G01 X21.5221 Y34.7321
G01 X21.5421 Y34.7005
G01 X21.5637 Y34.6700
G01 X21.6163 Y34.5990
G01 X21.6393 Y34.5696
G01 X21.6513 Y34.5553
G01 X21.7230 Y34.4758
G01 X21.7488 Y34.4488
G01 X21.7758 Y34.4230
G01 X21.8413 Y34.3637
G01 X21.8696 Y34.3393
G01 X21.8841 Y34.3276
G01 X21.9700 Y34.2637
G01 X22.0005 Y34.2421
G01 X22.0321 Y34.2221
G01 X22.1078 Y34.1767
G01 X22.1403 Y34.1583
G01 X22.1569 Y34.1497
G01 X22.2706 Y34.0960
G01 X22.2877 Y34.0886
G01 X22.3226 Y34.0752
G01 X22.4058 Y34.0454
G01 X22.4412 Y34.0337
G01 X22.4772 Y34.0237
G01 X22.5811 Y33.9979
G01 X22.5994 Y33.9941
G01 X22.6362 Y33.9877
G01 X22.7236 Y33.9747
G01 X22.7607 Y33.9702
G01 X22.7979 Y33.9674
G01 X22.9048 Y33.9624
G01 X22.9422 Y33.9624
G01 X23.0491 Y33.9674
G01 X23.0863 Y33.9702
G01 X23.1049 Y33.9722
G01 X23.2108 Y33.9877
G01 X23.2476 Y33.9941
G01 X23.2841 Y34.0023
G01 X23.3698 Y34.0237
G01 X23.4058 Y34.0337
G01 X23.4236 Y34.0393
G01 X23.5419 Y34.0817
G01 X23.5764 Y34.0960
G01 X23.5934 Y34.1038
G01 X23.6901 Y34.1497
G01 X23.7230 Y34.1673
G01 X23.8149 Y34.2221
G01 X23.8465 Y34.2421
G01 X23.8770 Y34.2637
G01 X23.9220 Y34.2970
G01 X23.9220 Y28.6171
G01 X23.9068 Y28.5941
G01 X23.8970 Y28.5782
G01 X23.8586 Y28.5141
G01 X23.8402 Y28.4815
G01 X23.8234 Y28.4482
G01 X23.7914 Y28.3806
G01 X23.7762 Y28.3464
G01 X23.7628 Y28.3115
G01 X23.7376 Y28.2411
G01 X23.7259 Y28.2057
G01 X23.7207 Y28.1877
G01 X23.6934 Y28.0789
G01 X23.6896 Y28.0607
G01 X23.6836 Y28.0264
G01 X23.6776 Y28.0607
G01 X23.6738 Y28.0789
G01 X23.6465 Y28.1877
G01 X23.6413 Y28.2057
G01 X23.6296 Y28.2411
G01 X23.5979 Y28.3291
G01 X23.5909 Y28.3464
G01 X23.5758 Y28.3806
G01 X23.5438 Y28.4482
G01 X23.5270 Y28.4815
G01 X23.5086 Y28.5141
G01 X23.4604 Y28.5941
G01 X23.4396 Y28.6252
G01 X23.4287 Y28.6403
G01 X23.3841 Y28.7004
G01 X23.3611 Y28.7298
G01 X23.3367 Y28.7581
G01 X23.2738 Y28.8272
G01 X23.2607 Y28.8406
G01 X23.2337 Y28.8664
G01 X23.1643 Y28.9290
G01 X23.1354 Y28.9527
G01 X23.0604 Y29.0085
G01 X23.0299 Y29.0300
G01 X23.0142 Y29.0402
G01 X22.9180 Y29.0979
G01 X22.8851 Y29.1155
G01 X22.8007 Y29.1557
G01 X22.7665 Y29.1708
G01 X22.7317 Y29.1843
G01 X22.6436 Y29.2155
G01 X22.6078 Y29.2264
G01 X22.5898 Y29.2311
G01 X22.4991 Y29.2536
G01 X22.4624 Y29.2609
G01 X22.3700 Y29.2749
G01 X22.3329 Y29.2794
G01 X22.3143 Y29.2810
G01 X22.2210 Y29.2859
G01 X22.1836 Y29.2868
G01 X22.1649 Y29.2865
G01 X22.0529 Y29.2810
G01 X22.0157 Y29.2774
G01 X21.9972 Y29.2749
G01 X21.9048 Y29.2609
G01 X21.8681 Y29.2536
G01 X21.7594 Y29.2264
G01 X21.7236 Y29.2155
G01 X21.7059 Y29.2095
G01 X21.6180 Y29.1778
G01 X21.6007 Y29.1708
G01 X21.5665 Y29.1557
G01 X21.4989 Y29.1237
G01 X21.4655 Y29.1069
G01 X21.4330 Y29.0885
G01 X21.3689 Y29.0500
G01 X21.3530 Y29.0402
G01 X21.3219 Y29.0195
G01 X21.2318 Y28.9527
G01 X21.2172 Y28.9410
G01 X21.1889 Y28.9166
G01 X21.1198 Y28.8537
G01 X21.1065 Y28.8406
G01 X21.0807 Y28.8135
G01 X21.0181 Y28.7441
G01 X20.9944 Y28.7153
G01 X20.9385 Y28.6403
G01 X20.9276 Y28.6252
G01 X20.9068 Y28.5941
G01 X20.8586 Y28.5141
G01 X20.8402 Y28.4815
G01 X20.8234 Y28.4482
G01 X20.7914 Y28.3806
G01 X20.7836 Y28.3636
G01 X20.7693 Y28.3291
G01 X20.7315 Y28.2235
G01 X20.7259 Y28.2057
G01 X20.7159 Y28.1696
G01 X20.6978 Y28.0971
G01 X20.6896 Y28.0607
G01 X20.6832 Y28.0238
G01 X20.6697 Y27.9314
G01 X20.6660 Y27.8942
G01 X20.6649 Y27.8755
G01 X20.6612 Y27.8008
G01 X20.6603 Y27.7635
G01 X20.6612 Y27.7261
G01 X20.6649 Y27.6514
G01 X20.6676 Y27.6142
G01 X20.6697 Y27.5956
G01 X20.6862 Y27.4847
G01 X20.6934 Y27.4480
G01 X20.6978 Y27.4298
G01 X20.7159 Y27.3573
G01 X20.7259 Y27.3213
G01 X20.7376 Y27.2858
G01 X20.7626 Y27.2159
G01 X20.7455 Y27.1874
G01 X20.6849 Y27.1057
G01 X20.6166 Y27.0303
G01 X20.5412 Y26.9619
G01 X20.4594 Y26.9013
G01 X20.3722 Y26.8490
G01 X20.2802 Y26.8055
G01 X20.1844 Y26.7712
G01 X20.0857 Y26.7465
G01 X19.9850 Y26.7316
G01 X19.8524 Y26.7250
G01 X16.3838 Y26.7250
G01 X16.3574 Y26.7477
G01 X16.3429 Y26.7594
G01 X16.2419 Y26.8343
G01 X16.2108 Y26.8550
G01 X16.1192 Y26.9103
G01 X16.0867 Y26.9287
G01 X16.0701 Y26.9373
G01 X15.9734 Y26.9832
G01 X15.9393 Y26.9984
G01 X15.9044 Y27.0118
G01 X15.8212 Y27.0416
G01 X15.7858 Y27.0533
G01 X15.7498 Y27.0633
G01 X15.6641 Y27.0847
G01 X15.6276 Y27.0929
G01 X15.5908 Y27.0993
G01 X15.5034 Y27.1123
G01 X15.4663 Y27.1168
G01 X15.4291 Y27.1196
G01 X15.3409 Y27.1239
G01 X15.3035 Y27.1248
G01 X15.2661 Y27.1239
G01 X15.1779 Y27.1196
G01 X15.1407 Y27.1168
G01 X15.1036 Y27.1123
G01 X15.0162 Y27.0993
G01 X14.9794 Y27.0929
G01 X14.9429 Y27.0847
G01 X14.8572 Y27.0633
G01 X14.8212 Y27.0533
G01 X14.7858 Y27.0416
G01 X14.7026 Y27.0118
G01 X14.6677 Y26.9984
G01 X14.6336 Y26.9832
G01 X14.5369 Y26.9373
G01 X14.5203 Y26.9287
G01 X14.4878 Y26.9103
G01 X14.3962 Y26.8550
G01 X14.3651 Y26.8343
G01 X14.2790 Y26.7707
G01 X14.2641 Y26.7594
G01 X14.2353 Y26.7357
G01 X14.1558 Y26.6640
G01 X14.1288 Y26.6382
G01 X14.1030 Y26.6112
G01 X14.0437 Y26.5457
G01 X14.0193 Y26.5174
G01 X13.9963 Y26.4880
G01 X13.9437 Y26.4170
G01 X13.9221 Y26.3865
G01 X13.9021 Y26.3549
G01 X13.8567 Y26.2792
G01 X13.8383 Y26.2467
G01 X13.8215 Y26.2133
G01 X13.7838 Y26.1334
G01 X13.7686 Y26.0993
G01 X13.7552 Y26.0644
G01 X13.7254 Y25.9812
G01 X13.7137 Y25.9458
G01 X13.7037 Y25.9098
G01 X13.6823 Y25.8241
G01 X13.6741 Y25.7876
G01 X13.6677 Y25.7508
G01 X13.6547 Y25.6634
G01 X13.6502 Y25.6263
G01 X13.6474 Y25.5891
G01 X13.6431 Y25.5009
G01 X13.6422 Y25.4635
G01 X13.6431 Y25.4261
G01 X13.6474 Y25.3379
G01 X13.6502 Y25.3007
G01 X13.6547 Y25.2636
G01 X13.6677 Y25.1762
G01 X13.6741 Y25.1394
G01 X13.6823 Y25.1029
G01 X13.7037 Y25.0172
G01 X13.7137 Y24.9812
G01 X13.7254 Y24.9458
G01 X13.7552 Y24.8626
G01 X13.7686 Y24.8277
G01 X13.7838 Y24.7936
G01 X13.8215 Y24.7137
G01 X13.8383 Y24.6803
G01 X13.8567 Y24.6478
G01 X13.9021 Y24.5721
G01 X13.9221 Y24.5405
G01 X13.9437 Y24.5100
G01 X13.9963 Y24.4390
G01 X14.0076 Y24.4241
G01 X14.0313 Y24.3953
G01 X14.1030 Y24.3158
G01 X14.1288 Y24.2888
G01 X14.1558 Y24.2630
G01 X14.2213 Y24.2037
G01 X14.2496 Y24.1793
G01 X14.2790 Y24.1563
G01 X14.3500 Y24.1037
G01 X14.3805 Y24.0821
G01 X14.4121 Y24.0621
G01 X14.4878 Y24.0167
G01 X14.5203 Y23.9983
G01 X14.5537 Y23.9815
G01 X14.6336 Y23.9438
G01 X14.6677 Y23.9286
G01 X14.7026 Y23.9152
G01 X14.7858 Y23.8854
G01 X14.8212 Y23.8737
G01 X14.8572 Y23.8637
G01 X14.9429 Y23.8423
G01 X14.9794 Y23.8341
G01 X15.0162 Y23.8277
G01 X15.1036 Y23.8147
G01 X15.1221 Y23.8122
G01 X15.1593 Y23.8086
G01 X15.2661 Y23.8031
G01 X15.3035 Y23.8022
G01 X15.3409 Y23.8031
G01 X15.4291 Y23.8074
G01 X15.4663 Y23.8102
G01 X15.5034 Y23.8147
G01 X15.5908 Y23.8277
G01 X15.6276 Y23.8341
G01 X15.6641 Y23.8423
G01 X15.7498 Y23.8637
G01 X15.7678 Y23.8685
G01 X15.8036 Y23.8793
G01 X15.9044 Y23.9152
G01 X15.9393 Y23.9286
G01 X15.9734 Y23.9438
G01 X16.0533 Y23.9815
G01 X16.0701 Y23.9897
G01 X16.1030 Y24.0073
G01 X16.1949 Y24.0621
G01 X16.2108 Y24.0720
G01 X16.2419 Y24.0927
G01 X16.3429 Y24.1676
G01 X16.3574 Y24.1793
G01 X16.3838 Y24.2020
G00 Z2.0000
G00 X16.2680 Y24.4999
G01 F60.00
G01 Z-0.2001
G01 F320.00
G01 X19.8834 Y24.4999
G01 X19.9307 Y24.5010
G01 X20.1674 Y24.5128
G01 X20.2276 Y24.5186
G01 X20.2502 Y24.5214
G01 X20.4735 Y24.5545
G01 X20.4959 Y24.5584
G01 X20.5440 Y24.5679
G01 X20.5662 Y24.5729
G01 X20.7852 Y24.6278
G01 X20.8071 Y24.6338
G01 X20.8541 Y24.6481
G01 X20.8757 Y24.6552
G01 X21.0882 Y24.7313
G01 X21.1094 Y24.7394
G01 X21.1548 Y24.7582
G01 X21.1755 Y24.7674
G01 X21.3796 Y24.8640
G01 X21.3999 Y24.8742
G01 X21.4432 Y24.8973
G01 X21.4630 Y24.9085
G01 X21.6566 Y25.0246
G01 X21.6758 Y25.0367
G01 X21.7166 Y25.0640
G01 X21.7352 Y25.0771
G01 X21.9165 Y25.2116
G01 X21.9344 Y25.2256
G01 X21.9724 Y25.2567
G01 X21.9896 Y25.2716
G01 X22.1568 Y25.4231
G01 X22.1733 Y25.4388
G01 X22.2080 Y25.4735
G01 X22.2237 Y25.4900
G01 X22.3753 Y25.6572
G01 X22.3901 Y25.6745
G01 X22.4213 Y25.7124
G01 X22.4353 Y25.7303
G01 X22.5697 Y25.9116
G01 X22.5828 Y25.9302
G01 X22.6101 Y25.9710
G01 X22.6223 Y25.9903
G01 X22.7383 Y26.1839
G01 X22.7495 Y26.2036
G01 X22.7727 Y26.2469
G01 X22.7829 Y26.2673
G01 X22.8794 Y26.4713
G01 X22.8886 Y26.4921
G01 X22.9116 Y26.5480
G01 X22.9953 Y26.7819
G01 X23.0130 Y26.8398
G01 X23.0212 Y26.8700
G01 X23.0419 Y26.8890
G01 X23.0580 Y26.9051
G01 X23.1160 Y26.9689
G01 X23.1235 Y26.9774
G01 X23.1379 Y26.9950
G01 X23.1894 Y27.0641
G01 X23.2025 Y27.0827
G01 X23.2146 Y27.1019
G01 X23.2588 Y27.1759
G01 X23.2643 Y27.1858
G01 X23.2745 Y27.2061
G01 X23.3065 Y27.2737
G01 X23.3157 Y27.2945
G01 X23.3239 Y27.3158
G01 X23.3491 Y27.3862
G01 X23.3562 Y27.4078
G01 X23.3623 Y27.4297
G01 X23.3831 Y27.5133
G01 X23.3854 Y27.5244
G01 X23.3893 Y27.5468
G01 X23.4018 Y27.6321
G01 X23.4041 Y27.6547
G01 X23.4048 Y27.6660
G01 X23.4084 Y27.7407
G01 X23.4089 Y27.7521
G01 X23.4089 Y27.7748
G01 X23.4048 Y27.8609
G01 X23.4031 Y27.8836
G01 X23.4003 Y27.9062
G01 X23.3893 Y27.9801
G01 X23.3854 Y28.0025
G01 X23.3805 Y28.0247
G01 X23.3623 Y28.0973
G01 X23.3562 Y28.1192
G01 X23.3491 Y28.1408
G01 X23.3239 Y28.2112
G01 X23.3157 Y28.2324
G01 X23.3065 Y28.2532
G01 X23.2745 Y28.3208
G01 X23.2643 Y28.3411
G01 X23.2531 Y28.3609
G01 X23.2146 Y28.4250
G01 X23.2025 Y28.4443
G01 X23.1894 Y28.4629
G01 X23.1448 Y28.5229
G01 X23.1308 Y28.5409
G01 X23.1160 Y28.5581
G01 X23.0658 Y28.6135
G01 X23.0501 Y28.6300
G01 X23.0336 Y28.6456
G01 X22.9782 Y28.6959
G01 X22.9610 Y28.7107
G01 X22.9431 Y28.7247
G01 X22.8830 Y28.7693
G01 X22.8644 Y28.7824
G01 X22.8452 Y28.7945
G01 X22.7810 Y28.8330
G01 X22.7612 Y28.8442
G01 X22.7409 Y28.8544
G01 X22.6733 Y28.8864
G01 X22.6525 Y28.8956
G01 X22.6313 Y28.9038
G01 X22.5609 Y28.9290
G01 X22.5393 Y28.9361
G01 X22.5174 Y28.9422
G01 X22.4449 Y28.9603
G01 X22.4338 Y28.9630
G01 X22.4115 Y28.9674
G01 X22.3263 Y28.9802
G01 X22.3150 Y28.9817
G01 X22.2924 Y28.9839
G01 X22.2063 Y28.9883
G01 X22.1950 Y28.9887
G01 X22.1722 Y28.9887
G01 X22.0748 Y28.9839
G01 X22.0522 Y28.9817
G01 X22.0409 Y28.9802
G01 X21.9669 Y28.9692
G01 X21.9445 Y28.9653
G01 X21.9334 Y28.9630
G01 X21.8388 Y28.9393
G01 X21.8279 Y28.9361
G01 X21.8063 Y28.9290
G01 X21.7252 Y28.8998
G01 X21.7147 Y28.8956
G01 X21.6939 Y28.8864
G01 X21.6263 Y28.8544
G01 X21.6059 Y28.8442
G01 X21.5862 Y28.8330
G01 X21.5220 Y28.7945
G01 X21.5123 Y28.7886
G01 X21.4934 Y28.7759
G01 X21.4151 Y28.7178
G01 X21.4062 Y28.7107
G01 X21.3890 Y28.6959
G01 X21.3336 Y28.6456
G01 X21.3253 Y28.6379
G01 X21.3092 Y28.6218
G01 X21.2512 Y28.5581
G01 X21.2364 Y28.5409
G01 X21.2224 Y28.5229
G01 X21.1778 Y28.4629
G01 X21.1647 Y28.4443
G01 X21.1585 Y28.4347
G01 X21.1141 Y28.3609
G01 X21.1084 Y28.3511
G01 X21.0977 Y28.3310
G01 X21.0607 Y28.2532
G01 X21.0515 Y28.2324
G01 X21.0433 Y28.2112
G01 X21.0181 Y28.1408
G01 X21.0144 Y28.1300
G01 X21.0078 Y28.1083
G01 X20.9867 Y28.0247
G01 X20.9817 Y28.0025
G01 X20.9779 Y27.9801
G01 X20.9669 Y27.9062
G01 X20.9641 Y27.8836
G01 X20.9624 Y27.8609
G01 X20.9588 Y27.7862
G01 X20.9582 Y27.7635
G01 X20.9588 Y27.7407
G01 X20.9624 Y27.6660
G01 X20.9641 Y27.6434
G01 X20.9654 Y27.6321
G01 X20.9797 Y27.5356
G01 X20.9817 Y27.5244
G01 X20.9867 Y27.5022
G01 X21.0078 Y27.4187
G01 X21.0144 Y27.3969
G01 X21.0181 Y27.3862
G01 X21.0433 Y27.3158
G01 X21.0515 Y27.2945
G01 X21.0607 Y27.2737
G01 X21.0938 Y27.2038
G01 X21.0609 Y27.1341
G01 X20.9935 Y27.0217
G01 X20.9155 Y26.9165
G01 X20.8275 Y26.8194
G01 X20.7304 Y26.7314
G01 X20.6251 Y26.6533
G01 X20.5128 Y26.5860
G01 X20.3943 Y26.5299
G01 X20.2710 Y26.4858
G01 X20.1439 Y26.4540
G01 X20.0142 Y26.4347
G01 X19.8597 Y26.4271
G01 X16.2680 Y26.4271
G01 X16.2511 Y26.4433
G01 X16.1857 Y26.5026
G01 X16.1685 Y26.5175
G01 X16.1505 Y26.5315
G01 X16.0796 Y26.5841
G01 X16.0610 Y26.5972
G01 X16.0418 Y26.6093
G01 X15.9660 Y26.6547
G01 X15.9462 Y26.6660
G01 X15.9259 Y26.6762
G01 X15.8461 Y26.7139
G01 X15.8253 Y26.7232
G01 X15.8040 Y26.7313
G01 X15.7209 Y26.7611
G01 X15.6993 Y26.7682
G01 X15.6774 Y26.7743
G01 X15.5917 Y26.7958
G01 X15.5695 Y26.8007
G01 X15.5471 Y26.8046
G01 X15.4597 Y26.8176
G01 X15.4371 Y26.8204
G01 X15.4145 Y26.8221
G01 X15.3262 Y26.8264
G01 X15.3035 Y26.8269
G01 X15.2808 Y26.8264
G01 X15.1925 Y26.8221
G01 X15.1699 Y26.8204
G01 X15.1473 Y26.8176
G01 X15.0599 Y26.8046
G01 X15.0375 Y26.8007
G01 X15.0153 Y26.7958
G01 X14.9296 Y26.7743
G01 X14.9077 Y26.7682
G01 X14.8861 Y26.7611
G01 X14.8030 Y26.7313
G01 X14.7817 Y26.7232
G01 X14.7609 Y26.7139
G01 X14.6811 Y26.6762
G01 X14.6608 Y26.6660
G01 X14.6410 Y26.6547
G01 X14.5652 Y26.6093
G01 X14.5460 Y26.5972
G01 X14.5274 Y26.5841
G01 X14.4565 Y26.5315
G01 X14.4385 Y26.5175
G01 X14.4213 Y26.5026
G01 X14.3559 Y26.4433
G01 X14.3394 Y26.4276
G01 X14.3237 Y26.4111
G01 X14.2644 Y26.3457
G01 X14.2495 Y26.3285
G01 X14.2355 Y26.3105
G01 X14.1829 Y26.2396
G01 X14.1698 Y26.2210
G01 X14.1577 Y26.2018
G01 X14.1123 Y26.1260
G01 X14.1010 Y26.1062
G01 X14.0908 Y26.0859
G01 X14.0531 Y26.0061
G01 X14.0438 Y25.9853
G01 X14.0357 Y25.9640
G01 X14.0059 Y25.8809
G01 X13.9988 Y25.8593
G01 X13.9927 Y25.8374
G01 X13.9712 Y25.7517
G01 X13.9663 Y25.7295
G01 X13.9624 Y25.7071
G01 X13.9494 Y25.6197
G01 X13.9466 Y25.5971
G01 X13.9449 Y25.5745
G01 X13.9406 Y25.4862
G01 X13.9401 Y25.4635
G01 X13.9406 Y25.4408
G01 X13.9449 Y25.3525
G01 X13.9466 Y25.3299
G01 X13.9494 Y25.3073
G01 X13.9624 Y25.2199
G01 X13.9663 Y25.1975
G01 X13.9712 Y25.1753
G01 X13.9927 Y25.0896
G01 X13.9988 Y25.0677
G01 X14.0059 Y25.0461
G01 X14.0357 Y24.9630
G01 X14.0438 Y24.9417
G01 X14.0531 Y24.9209
G01 X14.0908 Y24.8411
G01 X14.1010 Y24.8208
G01 X14.1123 Y24.8010
G01 X14.1577 Y24.7252
G01 X14.1698 Y24.7060
G01 X14.1829 Y24.6874
G01 X14.2355 Y24.6165
G01 X14.2495 Y24.5985
G01 X14.2644 Y24.5813
G01 X14.3237 Y24.5159
G01 X14.3394 Y24.4994
G01 X14.3559 Y24.4837
G01 X14.4213 Y24.4244
G01 X14.4385 Y24.4095
G01 X14.4565 Y24.3955
G01 X14.5274 Y24.3429
G01 X14.5460 Y24.3298
G01 X14.5652 Y24.3177
G01 X14.6410 Y24.2723
G01 X14.6608 Y24.2610
G01 X14.6811 Y24.2508
G01 X14.7609 Y24.2131
G01 X14.7817 Y24.2038
G01 X14.8030 Y24.1957
G01 X14.8861 Y24.1659
G01 X14.9077 Y24.1588
G01 X14.9296 Y24.1527
G01 X15.0153 Y24.1312
G01 X15.0375 Y24.1263
G01 X15.0599 Y24.1224
G01 X15.1473 Y24.1094
G01 X15.1699 Y24.1066
G01 X15.1925 Y24.1049
G01 X15.2808 Y24.1006
G01 X15.3035 Y24.1001
G01 X15.3262 Y24.1006
G01 X15.4145 Y24.1049
G01 X15.4371 Y24.1066
G01 X15.4597 Y24.1094
G01 X15.5471 Y24.1224
G01 X15.5695 Y24.1263
G01 X15.5917 Y24.1312
G01 X15.6774 Y24.1527
G01 X15.6993 Y24.1588
G01 X15.7209 Y24.1659
G01 X15.8040 Y24.1957
G01 X15.8253 Y24.2038
G01 X15.8461 Y24.2131
G01 X15.9259 Y24.2508
G01 X15.9462 Y24.2610
G01 X15.9660 Y24.2723
G01 X16.0418 Y24.3177
G01 X16.0610 Y24.3298
G01 X16.0796 Y24.3429
G01 X16.1505 Y24.3955
G01 X16.1685 Y24.4095
G01 X16.1857 Y24.4244
G01 X16.2511 Y24.4837
G01 X16.2680 Y24.4999
G00 Z2.0000
G00 X21.4254 Y27.2304
G01 F60.00
G01 Z-0.2001
G01 F320.00
G01 X21.3925 Y27.1384
G01 X21.3239 Y26.9935
G01 X21.2415 Y26.8560
G01 X21.1460 Y26.7272
G01 X21.0384 Y26.6085
G01 X20.9196 Y26.5008
G01 X20.7909 Y26.4053
G01 X20.6534 Y26.3229
G01 X20.5085 Y26.2544
G01 X20.3575 Y26.2004
G01 X20.2020 Y26.1614
G01 X20.0435 Y26.1379
G01 X19.8670 Y26.1292
G01 X16.1350 Y26.1292
G01 X16.1272 Y26.1395
G01 X16.1219 Y26.1456
G01 X16.0626 Y26.2111
G01 X16.0511 Y26.2226
G01 X15.9795 Y26.2872
G01 X15.8955 Y26.3495
G01 X15.8058 Y26.4032
G01 X15.7187 Y26.4446
G01 X15.7037 Y26.4509
G01 X15.6128 Y26.4832
G01 X15.5193 Y26.5068
G01 X15.5034 Y26.5100
G01 X15.4079 Y26.5239
G01 X15.3035 Y26.5290
G01 X15.2072 Y26.5245
G01 X15.1910 Y26.5229
G01 X15.0956 Y26.5086
G01 X14.9942 Y26.4832
G01 X14.8957 Y26.4479
G01 X14.8012 Y26.4032
G01 X14.7115 Y26.3495
G01 X14.6275 Y26.2872
G01 X14.5500 Y26.2170
G01 X14.4798 Y26.1395
G01 X14.4175 Y26.0555
G01 X14.3638 Y25.9658
G01 X14.3191 Y25.8713
G01 X14.2838 Y25.7728
G01 X14.2584 Y25.6714
G01 X14.2431 Y25.5679
G01 X14.2380 Y25.4635
G01 X14.2431 Y25.3591
G01 X14.2584 Y25.2556
G01 X14.2838 Y25.1542
G01 X14.3161 Y25.0633
G01 X14.3224 Y25.0483
G01 X14.3638 Y24.9612
G01 X14.4175 Y24.8715
G01 X14.4798 Y24.7875
G01 X14.5444 Y24.7159
G01 X14.5559 Y24.7044
G01 X14.6214 Y24.6451
G01 X14.6339 Y24.6348
G01 X14.7115 Y24.5775
G01 X14.8012 Y24.5238
G01 X14.8957 Y24.4791
G01 X14.9865 Y24.4464
G01 X15.0020 Y24.4417
G01 X15.0877 Y24.4202
G01 X15.1036 Y24.4170
G01 X15.1991 Y24.4031
G01 X15.2994 Y24.3980
G01 X15.3116 Y24.3982
G01 X15.4079 Y24.4031
G01 X15.5034 Y24.4170
G01 X15.5193 Y24.4202
G01 X15.6050 Y24.4417
G01 X15.6205 Y24.4464
G01 X15.7113 Y24.4791
G01 X15.7985 Y24.5201
G01 X15.8129 Y24.5278
G01 X15.8955 Y24.5775
G01 X15.9795 Y24.6398
G01 X16.0570 Y24.7100
G01 X16.1219 Y24.7814
G01 X16.1272 Y24.7875
G01 X16.1350 Y24.7978
G01 X19.8834 Y24.7978
G01 X19.9120 Y24.7984
G01 X20.1496 Y24.8102
G01 X20.2065 Y24.8160
G01 X20.4298 Y24.8492
G01 X20.4938 Y24.8619
G01 X20.7206 Y24.9189
G01 X20.7753 Y24.9357
G01 X20.9954 Y25.0147
G01 X21.0482 Y25.0367
G01 X21.2522 Y25.1332
G01 X21.3098 Y25.1640
G01 X21.5034 Y25.2801
G01 X21.5578 Y25.3164
G01 X21.7390 Y25.4508
G01 X21.7834 Y25.4870
G01 X21.9568 Y25.6439
G01 X21.9974 Y25.6842
G01 X22.1546 Y25.8573
G01 X22.1910 Y25.9014
G01 X22.3305 Y26.0891
G01 X22.3624 Y26.1366
G01 X22.4868 Y26.3441
G01 X22.5136 Y26.3946
G01 X22.6118 Y26.6024
G01 X22.6351 Y26.6590
G01 X22.7125 Y26.8754
G01 X22.7291 Y26.9301
G01 X22.7551 Y27.0337
G01 X22.7688 Y27.0440
G01 X22.7751 Y27.0491
G01 X22.8336 Y27.1020
G01 X22.8423 Y27.1105
G01 X22.9006 Y27.1751
G01 X22.9548 Y27.2482
G01 X23.0016 Y27.3263
G01 X23.0372 Y27.4011
G01 X23.0434 Y27.4161
G01 X23.0686 Y27.4865
G01 X23.0723 Y27.4981
G01 X23.0933 Y27.5825
G01 X23.1056 Y27.6645
G01 X23.1072 Y27.6807
G01 X23.1111 Y27.7635
G01 X23.1072 Y27.8463
G01 X23.1056 Y27.8624
G01 X23.0947 Y27.9364
G01 X23.0915 Y27.9523
G01 X23.0712 Y28.0327
G01 X23.0405 Y28.1184
G01 X23.0016 Y28.2007
G01 X22.9591 Y28.2719
G01 X22.9525 Y28.2821
G01 X22.9006 Y28.3519
G01 X22.8394 Y28.4193
G01 X22.7720 Y28.4804
G01 X22.6989 Y28.5347
G01 X22.6208 Y28.5814
G01 X22.5385 Y28.6204
G01 X22.4528 Y28.6510
G01 X22.3645 Y28.6731
G01 X22.2745 Y28.6865
G01 X22.1836 Y28.6910
G01 X22.0927 Y28.6865
G01 X22.0027 Y28.6731
G01 X21.9144 Y28.6510
G01 X21.8287 Y28.6204
G01 X21.7464 Y28.5814
G01 X21.6752 Y28.5390
G01 X21.6650 Y28.5324
G01 X21.5952 Y28.4804
G01 X21.5278 Y28.4193
G01 X21.4666 Y28.3519
G01 X21.4124 Y28.2788
G01 X21.3656 Y28.2007
G01 X21.3267 Y28.1184
G01 X21.2960 Y28.0327
G01 X21.2757 Y27.9523
G01 X21.2732 Y27.9404
G01 X21.2606 Y27.8544
G01 X21.2561 Y27.7635
G01 X21.2606 Y27.6726
G01 X21.2725 Y27.5905
G01 X21.2748 Y27.5786
G01 X21.2960 Y27.4942
G01 X21.3238 Y27.4161
G01 X21.3283 Y27.4048
G01 X21.3620 Y27.3335
G01 X21.3676 Y27.3227
G01 X21.4102 Y27.2516
G01 X21.4147 Y27.2448
G01 X21.4254 Y27.2304
G00 Z2.0000
G00 X24.2199 Y35.0664
G01 F60.00
G01 Z-0.2001
G01 F320.00
G01 X24.2199 Y28.5197
G01 X24.1778 Y28.4629
G01 X24.1647 Y28.4443
G01 X24.1525 Y28.4250
G01 X24.1141 Y28.3609
G01 X24.1029 Y28.3411
G01 X24.0927 Y28.3208
G01 X24.0607 Y28.2532
G01 X24.0515 Y28.2324
G01 X24.0433 Y28.2112
G01 X24.0181 Y28.1408
G01 X24.0110 Y28.1192
G01 X24.0049 Y28.0973
G01 X23.9867 Y28.0247
G01 X23.9841 Y28.0137
G01 X23.9797 Y27.9914
G01 X23.9669 Y27.9062
G01 X23.9641 Y27.8836
G01 X23.9624 Y27.8609
G01 X23.9583 Y27.7748
G01 X23.9582 Y27.7635
G01 X23.9588 Y27.7407
G01 X23.9624 Y27.6660
G01 X23.9641 Y27.6434
G01 X23.9669 Y27.6208
G01 X23.9779 Y27.5468
G01 X23.9817 Y27.5244
G01 X23.9867 Y27.5022
G01 X24.0049 Y27.4297
G01 X24.0110 Y27.4078
G01 X24.0181 Y27.3862
G01 X24.0433 Y27.3158
G01 X24.0515 Y27.2945
G01 X24.0607 Y27.2737
G01 X24.0927 Y27.2061
G01 X24.1029 Y27.1858
G01 X24.1141 Y27.1660
G01 X24.1525 Y27.1019
G01 X24.1647 Y27.0827
G01 X24.1778 Y27.0641
G01 X24.2224 Y27.0040
G01 X24.2363 Y26.9861
G01 X24.2512 Y26.9689
G01 X24.3014 Y26.9135
G01 X24.3171 Y26.8970
G01 X24.3336 Y26.8813
G01 X24.3890 Y26.8311
G01 X24.4062 Y26.8162
G01 X24.4241 Y26.8022
G01 X24.4842 Y26.7577
G01 X24.5028 Y26.7446
G01 X24.5220 Y26.7324
G01 X24.5960 Y26.6882
G01 X24.6160 Y26.6775
G01 X24.6263 Y26.6725
G01 X24.6939 Y26.6406
G01 X24.7147 Y26.6314
G01 X24.7359 Y26.6232
G01 X24.8170 Y26.5943
G01 X24.8279 Y26.5908
G01 X24.8498 Y26.5848
G01 X24.9223 Y26.5666
G01 X24.9445 Y26.5616
G01 X24.9669 Y26.5577
G01 X25.0409 Y26.5468
G01 X25.0635 Y26.5440
G01 X25.0862 Y26.5423
G01 X25.1609 Y26.5386
G01 X25.1836 Y26.5381
G01 X25.2063 Y26.5386
G01 X25.2810 Y26.5423
G01 X25.3037 Y26.5440
G01 X25.3263 Y26.5468
G01 X25.4002 Y26.5577
G01 X25.4227 Y26.5616
G01 X25.4448 Y26.5666
G01 X25.5284 Y26.5877
G01 X25.5501 Y26.5943
G01 X25.5609 Y26.5980
G01 X25.6313 Y26.6232
G01 X25.6525 Y26.6314
G01 X25.6733 Y26.6406
G01 X25.7409 Y26.6725
G01 X25.7612 Y26.6828
G01 X25.7810 Y26.6940
G01 X25.8452 Y26.7324
G01 X25.8644 Y26.7446
G01 X25.8830 Y26.7577
G01 X25.9430 Y26.8022
G01 X25.9610 Y26.8162
G01 X25.9782 Y26.8311
G01 X26.0336 Y26.8813
G01 X26.0501 Y26.8970
G01 X26.0658 Y26.9135
G01 X26.1160 Y26.9689
G01 X26.1308 Y26.9861
G01 X26.1448 Y27.0040
G01 X26.1894 Y27.0641
G01 X26.2025 Y27.0827
G01 X26.2146 Y27.1019
G01 X26.2531 Y27.1660
G01 X26.2643 Y27.1858
G01 X26.2745 Y27.2061
G01 X26.3065 Y27.2737
G01 X26.3157 Y27.2945
G01 X26.3239 Y27.3158
G01 X26.3491 Y27.3862
G01 X26.3562 Y27.4078
G01 X26.3623 Y27.4297
G01 X26.3831 Y27.5133
G01 X26.3854 Y27.5244
G01 X26.3893 Y27.5468
G01 X26.4003 Y27.6208
G01 X26.4018 Y27.6321
G01 X26.4041 Y27.6547
G01 X26.4084 Y27.7407
G01 X26.4088 Y27.7521
G01 X26.4088 Y27.7748
G01 X26.4048 Y27.8609
G01 X26.4041 Y27.8722
G01 X26.4018 Y27.8949
G01 X26.3875 Y27.9914
G01 X26.3854 Y28.0025
G01 X26.3805 Y28.0247
G01 X26.3623 Y28.0973
G01 X26.3594 Y28.1083
G01 X26.3528 Y28.1300
G01 X26.3199 Y28.2218
G01 X26.3112 Y28.2429
G01 X26.3065 Y28.2532
G01 X26.2695 Y28.3310
G01 X26.2588 Y28.3511
G01 X26.2531 Y28.3609
G01 X26.2146 Y28.4250
G01 X26.2025 Y28.4443
G01 X26.1894 Y28.4629
G01 X26.1472 Y28.5197
G01 X26.1472 Y34.4450
G01 X26.2115 Y34.4836
G01 X26.2304 Y34.4963
G01 X26.3105 Y34.5555
G01 X26.3285 Y34.5695
G01 X26.3457 Y34.5844
G01 X26.4111 Y34.6437
G01 X26.4276 Y34.6594
G01 X26.4433 Y34.6759
G01 X26.5101 Y34.7498
G01 X26.5175 Y34.7585
G01 X26.5315 Y34.7765
G01 X26.5841 Y34.8474
G01 X26.5972 Y34.8660
G01 X26.6093 Y34.8852
G01 X26.6547 Y34.9610
G01 X26.6660 Y34.9808
G01 X26.6762 Y35.0011
G01 X26.7139 Y35.0809
G01 X26.7232 Y35.1017
G01 X26.7313 Y35.1230
G01 X26.7611 Y35.2061
G01 X26.7682 Y35.2277
G01 X26.7743 Y35.2496
G01 X26.7958 Y35.3353
G01 X26.8007 Y35.3575
G01 X26.8028 Y35.3687
G01 X26.8176 Y35.4673
G01 X26.8204 Y35.4899
G01 X26.8221 Y35.5125
G01 X26.8264 Y35.6008
G01 X26.8269 Y35.6235
G01 X26.8264 Y35.6462
G01 X26.8221 Y35.7345
G01 X26.8204 Y35.7571
G01 X26.8176 Y35.7797
G01 X26.8046 Y35.8671
G01 X26.8007 Y35.8895
G01 X26.7958 Y35.9117
G01 X26.7743 Y35.9974
G01 X26.7682 Y36.0193
G01 X26.7611 Y36.0409
G01 X26.7313 Y36.1240
G01 X26.7274 Y36.1347
G01 X26.7187 Y36.1557
G01 X26.6762 Y36.2459
G01 X26.6660 Y36.2662
G01 X26.6547 Y36.2860
G01 X26.6034 Y36.3715
G01 X26.5907 Y36.3904
G01 X26.5841 Y36.3996
G01 X26.5315 Y36.4705
G01 X26.5175 Y36.4885
G01 X26.5026 Y36.5057
G01 X26.4433 Y36.5711
G01 X26.4276 Y36.5876
G01 X26.4111 Y36.6033
G01 X26.3372 Y36.6701
G01 X26.3285 Y36.6775
G01 X26.3105 Y36.6915
G01 X26.2396 Y36.7441
G01 X26.2210 Y36.7572
G01 X26.2018 Y36.7693
G01 X26.1260 Y36.8147
G01 X26.1062 Y36.8260
G01 X26.0859 Y36.8362
G01 X26.0061 Y36.8739
G01 X25.9853 Y36.8832
G01 X25.9640 Y36.8913
G01 X25.8809 Y36.9211
G01 X25.8593 Y36.9282
G01 X25.8374 Y36.9343
G01 X25.7517 Y36.9558
G01 X25.7295 Y36.9607
G01 X25.7071 Y36.9646
G01 X25.6084 Y36.9791
G01 X25.5971 Y36.9804
G01 X25.5745 Y36.9821
G01 X25.4862 Y36.9864
G01 X25.4635 Y36.9869
G01 X25.4408 Y36.9864
G01 X25.3525 Y36.9821
G01 X25.3299 Y36.9804
G01 X25.3073 Y36.9776
G01 X25.2087 Y36.9628
G01 X25.1864 Y36.9584
G01 X25.1753 Y36.9558
G01 X25.0896 Y36.9343
G01 X25.0677 Y36.9282
G01 X25.0461 Y36.9211
G01 X24.9630 Y36.8913
G01 X24.9417 Y36.8832
G01 X24.9209 Y36.8739
G01 X24.8411 Y36.8362
G01 X24.8208 Y36.8260
G01 X24.8010 Y36.8147
G01 X24.7252 Y36.7693
G01 X24.7060 Y36.7572
G01 X24.6966 Y36.7507
G01 X24.6165 Y36.6915
G01 X24.5985 Y36.6775
G01 X24.5813 Y36.6626
G01 X24.5159 Y36.6033
G01 X24.4994 Y36.5876
G01 X24.4837 Y36.5711
G01 X24.4244 Y36.5057
G01 X24.4095 Y36.4885
G01 X24.3955 Y36.4705
G01 X24.3429 Y36.3996
G01 X24.3298 Y36.3810
G01 X24.3177 Y36.3618
G01 X24.2723 Y36.2860
G01 X24.2610 Y36.2662
G01 X24.2558 Y36.2561
G01 X24.2131 Y36.1661
G01 X24.2038 Y36.1453
G01 X24.1935 Y36.1180
G01 X24.1874 Y36.1347
G01 X24.1787 Y36.1557
G01 X24.1312 Y36.2561
G01 X24.1260 Y36.2662
G01 X24.1147 Y36.2860
G01 X24.0710 Y36.3590
G01 X24.0743 Y36.3660
G01 X24.1538 Y36.4986
G01 X24.2459 Y36.6228
G01 X24.3497 Y36.7373
G01 X24.4642 Y36.8411
G01 X24.5884 Y36.9332
G01 X24.7210 Y37.0127
G01 X24.8607 Y37.0788
G01 X25.0062 Y37.1309
G01 X25.1562 Y37.1684
G01 X25.3091 Y37.1911
G01 X25.4635 Y37.1987
G01 X25.6179 Y37.1911
G01 X25.7708 Y37.1684
G01 X25.9208 Y37.1309
G01 X26.0663 Y37.0788
G01 X26.2060 Y37.0127
G01 X26.3386 Y36.9332
G01 X26.4628 Y36.8411
G01 X26.5773 Y36.7373
G01 X26.6811 Y36.6228
G01 X26.7732 Y36.4986
G01 X26.8527 Y36.3660
G01 X26.9188 Y36.2263
G01 X26.9709 Y36.0808
G01 X27.0084 Y35.9308
G01 X27.0311 Y35.7779
G01 X27.0399 Y35.5998
G01 X27.0399 Y28.2016
G01 X27.0181 Y28.1408
G01 X27.0110 Y28.1192
G01 X27.0049 Y28.0973
G01 X26.9867 Y28.0247
G01 X26.9817 Y28.0025
G01 X26.9778 Y27.9801
G01 X26.9669 Y27.9062
G01 X26.9641 Y27.8836
G01 X26.9624 Y27.8609
G01 X26.9587 Y27.7862
G01 X26.9582 Y27.7635
G01 X26.9587 Y27.7407
G01 X26.9624 Y27.6660
G01 X26.9641 Y27.6434
G01 X26.9669 Y27.6208
G01 X26.9778 Y27.5468
G01 X26.9817 Y27.5244
G01 X26.9867 Y27.5022
G01 X27.0049 Y27.4297
G01 X27.0110 Y27.4078
G01 X27.0181 Y27.3862
G01 X27.0433 Y27.3158
G01 X27.0515 Y27.2945
G01 X27.0607 Y27.2737
G01 X27.0927 Y27.2061
G01 X27.1029 Y27.1858
G01 X27.1141 Y27.1660
G01 X27.1525 Y27.1019
G01 X27.1647 Y27.0827
G01 X27.1778 Y27.0641
G01 X27.2223 Y27.0040
G01 X27.2363 Y26.9861
G01 X27.2512 Y26.9689
G01 X27.3014 Y26.9135
G01 X27.3171 Y26.8970
G01 X27.3336 Y26.8813
G01 X27.3890 Y26.8311
G01 X27.4062 Y26.8162
G01 X27.4151 Y26.8091
G01 X27.4842 Y26.7577
G01 X27.5028 Y26.7446
G01 X27.5220 Y26.7324
G01 X27.5861 Y26.6940
G01 X27.6059 Y26.6828
G01 X27.6263 Y26.6725
G01 X27.6939 Y26.6406
G01 X27.7146 Y26.6314
G01 X27.7359 Y26.6232
G01 X27.8063 Y26.5980
G01 X27.8279 Y26.5908
G01 X27.8498 Y26.5848
G01 X27.9223 Y26.5666
G01 X27.9445 Y26.5616
G01 X27.9669 Y26.5577
G01 X28.0409 Y26.5468
G01 X28.0635 Y26.5440
G01 X28.0862 Y26.5423
G01 X28.1608 Y26.5386
G01 X28.1722 Y26.5382
G01 X28.1950 Y26.5382
G01 X28.2810 Y26.5423
G01 X28.3037 Y26.5440
G01 X28.3263 Y26.5468
G01 X28.4002 Y26.5577
G01 X28.4226 Y26.5616
G01 X28.4448 Y26.5666
G01 X28.5174 Y26.5848
G01 X28.5393 Y26.5908
G01 X28.5609 Y26.5980
G01 X28.6313 Y26.6232
G01 X28.6525 Y26.6314
G01 X28.6733 Y26.6406
G01 X28.7409 Y26.6725
G01 X28.7612 Y26.6828
G01 X28.7810 Y26.6940
G01 X28.8452 Y26.7324
G01 X28.8644 Y26.7446
G01 X28.8830 Y26.7577
G01 X28.9430 Y26.8022
G01 X28.9610 Y26.8162
G01 X28.9782 Y26.8311
G01 X29.0336 Y26.8813
G01 X29.0501 Y26.8970
G01 X29.0658 Y26.9135
G01 X29.1160 Y26.9689
G01 X29.1308 Y26.9861
G01 X29.1448 Y27.0040
G01 X29.1894 Y27.0641
G01 X29.2025 Y27.0827
G01 X29.2146 Y27.1019
G01 X29.2531 Y27.1660
G01 X29.2643 Y27.1858
G01 X29.2745 Y27.2061
G01 X29.3065 Y27.2737
G01 X29.3157 Y27.2945
G01 X29.3239 Y27.3158
G01 X29.3491 Y27.3862
G01 X29.3562 Y27.4078
G01 X29.3623 Y27.4297
G01 X29.3805 Y27.5022
G01 X29.3854 Y27.5244
G01 X29.3893 Y27.5468
G01 X29.4018 Y27.6321
G01 X29.4041 Y27.6547
G01 X29.4048 Y27.6660
G01 X29.4084 Y27.7407
G01 X29.4088 Y27.7521
G01 X29.4088 Y27.7748
G01 X29.4048 Y27.8609
G01 X29.4041 Y27.8722
G01 X29.4018 Y27.8949
G01 X29.3875 Y27.9914
G01 X29.3854 Y28.0025
G01 X29.3805 Y28.0247
G01 X29.3623 Y28.0973
G01 X29.3562 Y28.1192
G01 X29.3491 Y28.1408
G01 X29.3239 Y28.2112
G01 X29.3199 Y28.2218
G01 X29.3112 Y28.2429
G01 X29.2745 Y28.3208
G01 X29.2695 Y28.3310
G01 X29.2588 Y28.3511
G01 X29.2087 Y28.4347
G01 X29.2025 Y28.4443
G01 X29.1894 Y28.4629
G01 X29.1379 Y28.5320
G01 X29.1235 Y28.5496
G01 X29.1160 Y28.5581
G01 X29.0658 Y28.6135
G01 X29.0501 Y28.6300
G01 X29.0336 Y28.6456
G01 X28.9671 Y28.7055
G01 X28.9671 Y35.6235
G01 X28.9660 Y35.6708
G01 X28.9538 Y35.9197
G01 X28.9521 Y35.9424
G01 X28.9473 Y35.9913
G01 X28.9445 Y36.0139
G01 X28.9079 Y36.2604
G01 X28.9040 Y36.2828
G01 X28.8944 Y36.3310
G01 X28.8895 Y36.3532
G01 X28.8289 Y36.5950
G01 X28.8228 Y36.6169
G01 X28.8086 Y36.6639
G01 X28.8014 Y36.6855
G01 X28.7175 Y36.9202
G01 X28.7093 Y36.9414
G01 X28.6905 Y36.9867
G01 X28.6813 Y37.0075
G01 X28.5747 Y37.2329
G01 X28.5645 Y37.2532
G01 X28.5413 Y37.2965
G01 X28.5301 Y37.3163
G01 X28.4020 Y37.5301
G01 X28.3898 Y37.5493
G01 X28.3625 Y37.5901
G01 X28.3494 Y37.6087
G01 X28.2010 Y37.8089
G01 X28.1870 Y37.8268
G01 X28.1558 Y37.8648
G01 X28.1410 Y37.8820
G01 X27.9736 Y38.0667
G01 X27.9579 Y38.0832
G01 X27.9232 Y38.1179
G01 X27.9067 Y38.1336
G01 X27.7220 Y38.3010
G01 X27.7048 Y38.3158
G01 X27.6668 Y38.3470
G01 X27.6489 Y38.3610
G01 X27.4487 Y38.5094
G01 X27.4301 Y38.5225
G01 X27.3893 Y38.5498
G01 X27.3701 Y38.5620
G01 X27.1563 Y38.6901
G01 X27.1365 Y38.7013
G01 X27.0932 Y38.7245
G01 X27.0729 Y38.7347
G01 X26.8475 Y38.8413
G01 X26.8267 Y38.8505
G01 X26.7814 Y38.8693
G01 X26.7602 Y38.8775
G01 X26.5255 Y38.9614
G01 X26.5039 Y38.9686
G01 X26.4569 Y38.9828
G01 X26.4350 Y38.9889
G01 X26.1932 Y39.0495
G01 X26.1710 Y39.0544
G01 X26.1228 Y39.0640
G01 X26.1004 Y39.0679
G01 X25.8539 Y39.1045
G01 X25.8313 Y39.1073
G01 X25.7824 Y39.1121
G01 X25.7597 Y39.1138
G01 X25.5108 Y39.1260
G01 X25.4880 Y39.1265
G01 X25.4390 Y39.1265
G01 X25.4162 Y39.1260
G01 X25.1673 Y39.1138
G01 X25.1446 Y39.1121
G01 X25.0957 Y39.1073
G01 X25.0731 Y39.1045
G01 X24.8266 Y39.0679
G01 X24.8042 Y39.0640
G01 X24.7560 Y39.0544
G01 X24.7338 Y39.0495
G01 X24.4920 Y38.9889
G01 X24.4701 Y38.9828
G01 X24.4231 Y38.9686
G01 X24.4015 Y38.9614
G01 X24.1668 Y38.8775
G01 X24.1456 Y38.8693
G01 X24.1003 Y38.8505
G01 X24.0795 Y38.8413
G01 X23.8439 Y38.7297
G01 X23.7905 Y38.7013
G01 X23.7707 Y38.6901
G01 X23.5569 Y38.5620
G01 X23.5377 Y38.5498
G01 X23.4969 Y38.5225
G01 X23.4783 Y38.5094
G01 X23.2781 Y38.3610
G01 X23.2602 Y38.3470
G01 X23.2222 Y38.3158
G01 X23.2050 Y38.3010
G01 X23.0203 Y38.1336
G01 X23.0038 Y38.1179
G01 X22.9691 Y38.0832
G01 X22.9534 Y38.0667
G01 X22.7860 Y37.8820
G01 X22.7712 Y37.8648
G01 X22.7329 Y37.8180
G01 X22.5709 Y37.5995
G01 X22.5372 Y37.5493
G01 X22.5250 Y37.5301
G01 X22.3969 Y37.3163
G01 X22.3857 Y37.2965
G01 X22.3573 Y37.2431
G01 X22.2457 Y37.0075
G01 X22.2365 Y36.9867
G01 X22.2177 Y36.9414
G01 X22.2095 Y36.9202
G01 X22.1462 Y36.7432
G01 X22.0765 Y36.6915
G01 X22.0585 Y36.6775
G01 X22.0413 Y36.6626
G01 X21.9759 Y36.6033
G01 X21.9675 Y36.5955
G01 X21.9515 Y36.5795
G01 X21.8769 Y36.4972
G01 X21.8695 Y36.4885
G01 X21.8555 Y36.4705
G01 X21.8029 Y36.3996
G01 X21.7898 Y36.3810
G01 X21.7777 Y36.3618
G01 X21.7323 Y36.2860
G01 X21.7210 Y36.2662
G01 X21.7108 Y36.2459
G01 X21.6731 Y36.1661
G01 X21.6638 Y36.1453
G01 X21.6557 Y36.1240
G01 X21.6259 Y36.0409
G01 X21.6188 Y36.0193
G01 X21.6127 Y35.9974
G01 X21.5912 Y35.9117
G01 X21.5863 Y35.8895
G01 X21.5824 Y35.8671
G01 X21.5694 Y35.7797
G01 X21.5666 Y35.7571
G01 X21.5649 Y35.7345
G01 X21.5606 Y35.6462
G01 X21.5601 Y35.6235
G01 X21.5606 Y35.6008
G01 X21.5649 Y35.5125
G01 X21.5666 Y35.4899
G01 X21.5694 Y35.4673
G01 X21.5824 Y35.3799
G01 X21.5863 Y35.3575
G01 X21.5912 Y35.3353
G01 X21.6127 Y35.2496
G01 X21.6156 Y35.2386
G01 X21.6222 Y35.2169
G01 X21.6557 Y35.1230
G01 X21.6638 Y35.1017
G01 X21.6731 Y35.0809
G01 X21.7108 Y35.0011
G01 X21.7210 Y34.9808
G01 X21.7323 Y34.9610
G01 X21.7777 Y34.8852
G01 X21.7898 Y34.8660
G01 X21.8029 Y34.8474
G01 X21.8555 Y34.7765
G01 X21.8695 Y34.7585
G01 X21.8844 Y34.7413
G01 X21.9437 Y34.6759
G01 X21.9594 Y34.6594
G01 X21.9675 Y34.6515
G01 X22.0413 Y34.5844
G01 X22.0585 Y34.5695
G01 X22.0765 Y34.5555
G01 X22.1474 Y34.5029
G01 X22.1660 Y34.4898
G01 X22.1852 Y34.4777
G01 X22.2610 Y34.4323
G01 X22.2808 Y34.4210
G01 X22.3011 Y34.4108
G01 X22.3809 Y34.3731
G01 X22.4017 Y34.3638
G01 X22.4230 Y34.3557
G01 X22.5061 Y34.3259
G01 X22.5277 Y34.3188
G01 X22.5496 Y34.3127
G01 X22.6464 Y34.2886
G01 X22.6687 Y34.2842
G01 X22.6799 Y34.2824
G01 X22.7673 Y34.2694
G01 X22.7899 Y34.2666
G01 X22.8125 Y34.2649
G01 X22.9008 Y34.2606
G01 X22.9235 Y34.2601
G01 X22.9462 Y34.2606
G01 X23.0345 Y34.2649
G01 X23.0571 Y34.2666
G01 X23.0797 Y34.2694
G01 X23.1671 Y34.2824
G01 X23.1895 Y34.2863
G01 X23.2117 Y34.2912
G01 X23.2974 Y34.3127
G01 X23.3193 Y34.3188
G01 X23.3301 Y34.3222
G01 X23.4240 Y34.3557
G01 X23.4453 Y34.3638
G01 X23.4661 Y34.3731
G01 X23.5561 Y34.4158
G01 X23.5662 Y34.4210
G01 X23.5860 Y34.4323
G01 X23.6618 Y34.4777
G01 X23.6810 Y34.4898
G01 X23.6996 Y34.5029
G01 X23.7705 Y34.5555
G01 X23.7885 Y34.5695
G01 X23.8057 Y34.5844
G01 X23.8711 Y34.6437
G01 X23.8876 Y34.6594
G01 X23.9033 Y34.6759
G01 X23.9626 Y34.7413
G01 X23.9775 Y34.7585
G01 X23.9846 Y34.7674
G01 X24.0507 Y34.8566
G01 X24.0572 Y34.8660
G01 X24.0693 Y34.8852
G01 X24.1147 Y34.9610
G01 X24.1205 Y34.9708
G01 X24.1312 Y34.9909
G01 X24.1739 Y35.0809
G01 X24.1832 Y35.1017
G01 X24.1935 Y35.1290
G01 X24.2038 Y35.1017
G01 X24.2083 Y35.0913
G01 X24.2199 Y35.0664
G00 Z2.0000
G00 X24.5178 Y35.1333
G01 F60.00
G01 Z-0.2001
G01 F320.00
G01 X24.5178 Y28.4087
G01 X24.4666 Y28.3519
G01 X24.4171 Y28.2854
G01 X24.4081 Y28.2719
G01 X24.3696 Y28.2078
G01 X24.3620 Y28.1934
G01 X24.3267 Y28.1184
G01 X24.2986 Y28.0404
G01 X24.2939 Y28.0249
G01 X24.2739 Y27.9444
G01 X24.2606 Y27.8544
G01 X24.2561 Y27.7635
G01 X24.2606 Y27.6726
G01 X24.2739 Y27.5825
G01 X24.2960 Y27.4942
G01 X24.3267 Y27.4085
G01 X24.3656 Y27.3263
G01 X24.4124 Y27.2482
G01 X24.4666 Y27.1751
G01 X24.5278 Y27.1076
G01 X24.5952 Y27.0465
G01 X24.6683 Y26.9923
G01 X24.7464 Y26.9455
G01 X24.8287 Y26.9066
G01 X24.9144 Y26.8759
G01 X25.0026 Y26.8538
G01 X25.0927 Y26.8404
G01 X25.1836 Y26.8360
G01 X25.2745 Y26.8404
G01 X25.3645 Y26.8538
G01 X25.4450 Y26.8737
G01 X25.4605 Y26.8785
G01 X25.5310 Y26.9037
G01 X25.5460 Y26.9099
G01 X25.6208 Y26.9455
G01 X25.6989 Y26.9923
G01 X25.7720 Y27.0465
G01 X25.8394 Y27.1076
G01 X25.9006 Y27.1751
G01 X25.9501 Y27.2415
G01 X25.9591 Y27.2550
G01 X25.9976 Y27.3192
G01 X26.0052 Y27.3335
G01 X26.0405 Y27.4085
G01 X26.0712 Y27.4942
G01 X26.0933 Y27.5825
G01 X26.1062 Y27.6685
G01 X26.1072 Y27.6807
G01 X26.1111 Y27.7635
G01 X26.1066 Y27.8544
G01 X26.0933 Y27.9444
G01 X26.0733 Y28.0249
G01 X26.0686 Y28.0404
G01 X26.0405 Y28.1184
G01 X26.0052 Y28.1934
G01 X25.9976 Y28.2078
G01 X25.9591 Y28.2719
G01 X25.9501 Y28.2854
G01 X25.9006 Y28.3519
G01 X25.8493 Y28.4087
G01 X25.8493 Y34.6310
G01 X25.8675 Y34.6376
G01 X25.8750 Y34.6407
G01 X25.9622 Y34.6819
G01 X25.9729 Y34.6878
G01 X26.0521 Y34.7353
G01 X26.0621 Y34.7422
G01 X26.1395 Y34.7998
G01 X26.2170 Y34.8700
G01 X26.2872 Y34.9475
G01 X26.3495 Y35.0315
G01 X26.4032 Y35.1212
G01 X26.4446 Y35.2083
G01 X26.4509 Y35.2233
G01 X26.4832 Y35.3142
G01 X26.5068 Y35.4077
G01 X26.5100 Y35.4236
G01 X26.5239 Y35.5191
G01 X26.5288 Y35.6154
G01 X26.5288 Y35.6316
G01 X26.5245 Y35.7198
G01 X26.5229 Y35.7360
G01 X26.5086 Y35.8314
G01 X26.4832 Y35.9328
G01 X26.4479 Y36.0313
G01 X26.4032 Y36.1258
G01 X26.3495 Y36.2155
G01 X26.2872 Y36.2995
G01 X26.2170 Y36.3770
G01 X26.1395 Y36.4472
G01 X26.0555 Y36.5095
G01 X25.9658 Y36.5632
G01 X25.8713 Y36.6079
G01 X25.7728 Y36.6432
G01 X25.6714 Y36.6686
G01 X25.5679 Y36.6839
G01 X25.4635 Y36.6890
G01 X25.3591 Y36.6839
G01 X25.2556 Y36.6686
G01 X25.1542 Y36.6432
G01 X25.0557 Y36.6079
G01 X24.9612 Y36.5632
G01 X24.8715 Y36.5095
G01 X24.7875 Y36.4472
G01 X24.7100 Y36.3770
G01 X24.6398 Y36.2995
G01 X24.5775 Y36.2155
G01 X24.5238 Y36.1258
G01 X24.4791 Y36.0313
G01 X24.4438 Y35.9328
G01 X24.4184 Y35.8314
G01 X24.4031 Y35.7279
G01 X24.3980 Y35.6235
G01 X24.4031 Y35.5191
G01 X24.4184 Y35.4156
G01 X24.4438 Y35.3142
G01 X24.4791 Y35.2157
G01 X24.5178 Y35.1333
G00 Z2.0000
G00 X26.7420 Y34.5627
G01 F60.00
G01 Z-0.2001
G01 F320.00
G01 X26.7233 Y34.5413
G01 X26.6640 Y34.4758
G01 X26.6382 Y34.4488
G01 X26.6249 Y34.4357
G01 X26.5457 Y34.3637
G01 X26.5174 Y34.3393
G01 X26.4880 Y34.3163
G01 X26.4451 Y34.2845
G01 X26.4451 Y28.6171
G01 X26.4604 Y28.5941
G01 X26.4702 Y28.5782
G01 X26.5086 Y28.5141
G01 X26.5270 Y28.4815
G01 X26.5438 Y28.4482
G01 X26.5758 Y28.3806
G01 X26.5909 Y28.3464
G01 X26.6044 Y28.3115
G01 X26.6296 Y28.2411
G01 X26.6413 Y28.2057
G01 X26.6465 Y28.1877
G01 X26.6737 Y28.0789
G01 X26.6776 Y28.0607
G01 X26.6836 Y28.0264
G01 X26.6896 Y28.0607
G01 X26.6934 Y28.0789
G01 X26.7159 Y28.1696
G01 X26.7259 Y28.2057
G01 X26.7315 Y28.2235
G01 X26.7420 Y28.2533
G01 X26.7420 Y34.5627
G00 Z2.0000
G00 X22.3944 Y36.5474
G01 F60.00
G01 Z-0.2001
G01 F320.00
G01 X22.3315 Y36.5095
G01 X22.2475 Y36.4472
G01 X22.1700 Y36.3770
G01 X22.1024 Y36.3026
G01 X22.0948 Y36.2931
G01 X22.0422 Y36.2221
G01 X22.0332 Y36.2086
G01 X21.9838 Y36.1258
G01 X21.9391 Y36.0313
G01 X21.9038 Y35.9328
G01 X21.8802 Y35.8393
G01 X21.8770 Y35.8234
G01 X21.8641 Y35.7360
G01 X21.8625 Y35.7198
G01 X21.8580 Y35.6235
G01 X21.8631 Y35.5191
G01 X21.8784 Y35.4156
G01 X21.9027 Y35.3181
G01 X21.9064 Y35.3065
G01 X21.9361 Y35.2233
G01 X21.9424 Y35.2083
G01 X21.9838 Y35.1212
G01 X22.0375 Y35.0315
G01 X22.0998 Y34.9475
G01 X22.1644 Y34.8759
G01 X22.1759 Y34.8644
G01 X22.2414 Y34.8051
G01 X22.2539 Y34.7948
G01 X22.3315 Y34.7375
G01 X22.4212 Y34.6838
G01 X22.5157 Y34.6391
G01 X22.6065 Y34.6064
G01 X22.6220 Y34.6017
G01 X22.7077 Y34.5802
G01 X22.7236 Y34.5770
G01 X22.8191 Y34.5631
G01 X22.9154 Y34.5582
G01 X22.9276 Y34.5580
G01 X23.0198 Y34.5625
G01 X23.0360 Y34.5641
G01 X23.1314 Y34.5784
G01 X23.2250 Y34.6017
G01 X23.2405 Y34.6064
G01 X23.3313 Y34.6391
G01 X23.4258 Y34.6838
G01 X23.5086 Y34.7332
G01 X23.5221 Y34.7422
G01 X23.5995 Y34.7998
G01 X23.6711 Y34.8644
G01 X23.6826 Y34.8759
G01 X23.7472 Y34.9475
G01 X23.8048 Y35.0249
G01 X23.8138 Y35.0384
G01 X23.8632 Y35.1212
G01 X23.9079 Y35.2157
G01 X23.9432 Y35.3142
G01 X23.9668 Y35.4077
G01 X23.9700 Y35.4236
G01 X23.9829 Y35.5110
G01 X23.9845 Y35.5272
G01 X23.9890 Y35.6235
G01 X23.9843 Y35.7239
G01 X23.9829 Y35.7360
G01 X23.9700 Y35.8234
G01 X23.9668 Y35.8393
G01 X23.9432 Y35.9328
G01 X23.9109 Y36.0237
G01 X23.9063 Y36.0350
G01 X23.8632 Y36.1258
G01 X23.8117 Y36.2121
G01 X23.8048 Y36.2221
G01 X23.7497 Y36.2963
G01 X23.7446 Y36.3026
G01 X23.7263 Y36.3228
G01 X23.7327 Y36.3404
G01 X23.8113 Y36.5066
G01 X23.9058 Y36.6643
G01 X24.0153 Y36.8120
G01 X24.1388 Y36.9482
G01 X24.2750 Y37.0717
G01 X24.4227 Y37.1812
G01 X24.5804 Y37.2757
G01 X24.7466 Y37.3543
G01 X24.9197 Y37.4163
G01 X25.0980 Y37.4610
G01 X25.2799 Y37.4879
G01 X25.4635 Y37.4970
G01 X25.6471 Y37.4879
G01 X25.8290 Y37.4610
G01 X26.0073 Y37.4163
G01 X26.1804 Y37.3543
G01 X26.3466 Y37.2757
G01 X26.5043 Y37.1812
G01 X26.6520 Y37.0717
G01 X26.7882 Y36.9482
G01 X26.9117 Y36.8120
G01 X27.0212 Y36.6643
G01 X27.1157 Y36.5066
G01 X27.1943 Y36.3404
G01 X27.2563 Y36.1673
G01 X27.3010 Y35.9890
G01 X27.3279 Y35.8071
G01 X27.3378 Y35.6072
G01 X27.3378 Y28.1423
G01 X27.3283 Y28.1221
G01 X27.3252 Y28.1146
G01 X27.2986 Y28.0404
G01 X27.2949 Y28.0288
G01 X27.2739 Y27.9444
G01 X27.2610 Y27.8584
G01 X27.2600 Y27.8463
G01 X27.2563 Y27.7716
G01 X27.2563 Y27.7553
G01 X27.2606 Y27.6726
G01 X27.2732 Y27.5865
G01 X27.2757 Y27.5746
G01 X27.2960 Y27.4942
G01 X27.3238 Y27.4161
G01 X27.3300 Y27.4011
G01 X27.3656 Y27.3263
G01 X27.4081 Y27.2550
G01 X27.4171 Y27.2415
G01 X27.4666 Y27.1751
G01 X27.5221 Y27.1135
G01 X27.5336 Y27.1020
G01 X27.5952 Y27.0465
G01 X27.6617 Y26.9970
G01 X27.6752 Y26.9879
G01 X27.7464 Y26.9455
G01 X27.8286 Y26.9066
G01 X27.9143 Y26.8759
G01 X27.9947 Y26.8556
G01 X28.0106 Y26.8524
G01 X28.0927 Y26.8404
G01 X28.1755 Y26.8362
G01 X28.1917 Y26.8362
G01 X28.2745 Y26.8404
G01 X28.3645 Y26.8538
G01 X28.4450 Y26.8737
G01 X28.4605 Y26.8785
G01 X28.5385 Y26.9066
G01 X28.6135 Y26.9418
G01 X28.6279 Y26.9495
G01 X28.6989 Y26.9923
G01 X28.7656 Y27.0415
G01 X28.7781 Y27.0518
G01 X28.8394 Y27.1076
G01 X28.8952 Y27.1689
G01 X28.9055 Y27.1815
G01 X28.9548 Y27.2482
G01 X28.9976 Y27.3192
G01 X29.0052 Y27.3335
G01 X29.0405 Y27.4085
G01 X29.0686 Y27.4865
G01 X29.0733 Y27.5021
G01 X29.0933 Y27.5825
G01 X29.1056 Y27.6645
G01 X29.1072 Y27.6807
G01 X29.1111 Y27.7635
G01 X29.1072 Y27.8463
G01 X29.1056 Y27.8624
G01 X29.0933 Y27.9444
G01 X29.0733 Y28.0249
G01 X29.0686 Y28.0404
G01 X29.0405 Y28.1184
G01 X29.0052 Y28.1934
G01 X28.9976 Y28.2078
G01 X28.9570 Y28.2754
G01 X28.9501 Y28.2854
G01 X28.9006 Y28.3519
G01 X28.8450 Y28.4134
G01 X28.8365 Y28.4221
G01 X28.7781 Y28.4751
G01 X28.7688 Y28.4830
G01 X28.7022 Y28.5324
G01 X28.6920 Y28.5390
G01 X28.6692 Y28.5526
G01 X28.6692 Y35.6235
G01 X28.6684 Y35.6562
G01 X28.6562 Y35.9051
G01 X28.6498 Y35.9701
G01 X28.6132 Y36.2167
G01 X28.6023 Y36.2729
G01 X28.5399 Y36.5226
G01 X28.5210 Y36.5851
G01 X28.4370 Y36.8198
G01 X28.4153 Y36.8727
G01 X28.3054 Y37.1055
G01 X28.2746 Y37.1631
G01 X28.1421 Y37.3838
G01 X28.1102 Y37.4312
G01 X27.9617 Y37.6314
G01 X27.9202 Y37.6819
G01 X27.7528 Y37.8666
G01 X27.7125 Y37.9072
G01 X27.5158 Y38.0855
G01 X27.4714 Y38.1217
G01 X27.2712 Y38.2702
G01 X27.2169 Y38.3065
G01 X27.0031 Y38.4346
G01 X26.9527 Y38.4618
G01 X26.7202 Y38.5720
G01 X26.6598 Y38.5970
G01 X26.4251 Y38.6810
G01 X26.3704 Y38.6978
G01 X26.1208 Y38.7605
G01 X26.0567 Y38.7732
G01 X25.8101 Y38.8098
G01 X25.7532 Y38.8156
G01 X25.4962 Y38.8284
G01 X25.4308 Y38.8284
G01 X25.1819 Y38.8162
G01 X25.1169 Y38.8098
G01 X24.8703 Y38.7732
G01 X24.8141 Y38.7623
G01 X24.5644 Y38.6999
G01 X24.5019 Y38.6810
G01 X24.2672 Y38.5970
G01 X24.2143 Y38.5753
G01 X23.9743 Y38.4618
G01 X23.9239 Y38.4346
G01 X23.7101 Y38.3065
G01 X23.6558 Y38.2702
G01 X23.4556 Y38.1217
G01 X23.4112 Y38.0855
G01 X23.2145 Y37.9072
G01 X23.1742 Y37.8666
G01 X23.0068 Y37.6819
G01 X22.9653 Y37.6314
G01 X22.8168 Y37.4312
G01 X22.7849 Y37.3838
G01 X22.6484 Y37.1560
G01 X22.6216 Y37.1055
G01 X22.5150 Y36.8802
G01 X22.4900 Y36.8198
G01 X22.4060 Y36.5851
G01 X22.3944 Y36.5474
G00 Z2.0000
G00 X16.3838 Y44.5220
G01 F60.00
G01 Z-0.2001
G01 F320.00
G01 X19.8834 Y44.5220
G01 X19.9453 Y44.5235
G01 X20.1707 Y44.5345
G01 X20.2080 Y44.5373
G01 X20.2568 Y44.5421
G01 X20.2939 Y44.5467
G01 X20.5356 Y44.5828
G01 X20.6021 Y44.5958
G01 X20.6386 Y44.6040
G01 X20.8756 Y44.6636
G01 X20.9584 Y44.6887
G01 X21.1885 Y44.7708
G01 X21.2234 Y44.7842
G01 X21.2859 Y44.8104
G01 X21.5237 Y44.9228
G01 X21.5836 Y44.9546
G01 X21.6161 Y44.9730
G01 X21.8097 Y45.0891
G01 X21.8413 Y45.1090
G01 X21.8821 Y45.1363
G01 X21.9127 Y45.1578
G01 X22.0940 Y45.2923
G01 X22.1234 Y45.3153
G01 X22.1757 Y45.3584
G01 X22.3569 Y45.5224
G01 X22.3840 Y45.5482
G01 X22.4187 Y45.5829
G01 X22.4444 Y45.6099
G01 X22.5960 Y45.7772
G01 X22.6204 Y45.8055
G01 X22.6632 Y45.8580
G01 X22.8090 Y46.0542
G01 X22.8305 Y46.0847
G01 X22.8578 Y46.1255
G01 X22.8778 Y46.1571
G01 X22.9938 Y46.3507
G01 X23.0122 Y46.3832
G01 X23.0354 Y46.4265
G01 X23.0522 Y46.4599
G01 X23.1487 Y46.6639
G01 X23.1638 Y46.6981
G01 X23.1826 Y46.7434
G01 X23.1961 Y46.7783
G01 X23.2721 Y46.9908
G01 X23.2782 Y47.0085
G01 X23.2857 Y47.0326
G01 X23.3367 Y47.0888
G01 X23.3611 Y47.1171
G01 X23.3841 Y47.1466
G01 X23.4287 Y47.2066
G01 X23.4396 Y47.2218
G01 X23.4604 Y47.2528
G01 X23.5086 Y47.3329
G01 X23.5270 Y47.3654
G01 X23.5438 Y47.3988
G01 X23.5758 Y47.4664
G01 X23.5909 Y47.5005
G01 X23.6044 Y47.5354
G01 X23.6296 Y47.6058
G01 X23.6413 Y47.6413
G01 X23.6513 Y47.6773
G01 X23.6738 Y47.7680
G01 X23.6776 Y47.7863
G01 X23.6836 Y47.8205
G01 X23.6896 Y47.7863
G01 X23.6934 Y47.7680
G01 X23.7159 Y47.6773
G01 X23.7259 Y47.6413
G01 X23.7376 Y47.6058
G01 X23.7628 Y47.5354
G01 X23.7762 Y47.5005
