(G-CODE GENERATED BY FLATCAM v8.994 - www.flatcam.org - Version Date: 2020/11/7)

(Name: BBodgepcb - NC Drill Data - [Through Hole].drl_cnc)
(Type: G-code from Geometry)
(Units: MM)

(Created on Sunday, 01 December 2024 at 13:49)

(This preprocessor is the default preprocessor used by FlatCAM.)
(It is made to work with MACH3 compatible motion controllers.)


(TOOLS DIAMETER: )
(Tool: 1 -> Dia: 0.889)
(Tool: 2 -> Dia: 0.899922)

(FEEDRATE Z: )
(Tool: 1 -> Feedrate: 300)
(Tool: 2 -> Feedrate: 300)

(FEEDRATE RAPIDS: )
(Tool: 1 -> Feedrate Rapids: 1500)
(Tool: 2 -> Feedrate Rapids: 1500)

(Z_CUT: )
(Tool: 1 -> Z_Cut: -2.0)
(Tool: 2 -> Z_Cut: -2.0)

(Tools Offset: )
(Tool: 1 -> Offset Z: 0.0)
(Tool: 2 -> Offset Z: 0.0)

(Z_MOVE: )
(Tool: 1 -> Z_Move: 2)
(Tool: 2 -> Z_Move: 2)

(Z Toolchange: 15 mm)
(X,Y Toolchange: 0.0000, 0.0000 mm)
(Z Start: None mm)
(Z End: 0.5 mm)
(X,Y End: None mm)
(Steps per circle: 64)
(Preprocessor Excellon: default)

(X range:    1.9735 ...  140.2080  mm)
(Y range:    4.6990 ...   91.9480  mm)

(Spindle Speed: 0 RPM)
G21
G90
G94

G01 F300.00
G00 Z15.0000

G01 F300.00
M03
G00 X139.7635 Y17.8435
G01 Z-2.0000
G01 Z0
G00 Z2.0000
G00 X139.7635 Y20.3835
G01 Z-2.0000
G01 Z0
G00 Z2.0000
G00 X139.7635 Y22.9235
G01 Z-2.0000
G01 Z0
G00 Z2.0000
G00 X139.7635 Y25.4635
G01 Z-2.0000
G01 Z0
G00 Z2.0000
G00 X139.7635 Y28.0035
G01 Z-2.0000
G01 Z0
G00 Z2.0000
G00 X139.7635 Y30.5435
G01 Z-2.0000
G01 Z0
G00 Z2.0000
G00 X139.7635 Y33.0835
G01 Z-2.0000
G01 Z0
G00 Z2.0000
G00 X139.7635 Y35.6235
G01 Z-2.0000
G01 Z0
G00 Z2.0000
G00 X139.7635 Y38.1635
G01 Z-2.0000
G01 Z0
G00 Z2.0000
G00 X139.7635 Y40.7035
G01 Z-2.0000
G01 Z0
G00 Z2.0000
G00 X139.7635 Y43.2435
G01 Z-2.0000
G01 Z0
G00 Z2.0000
G00 X139.7635 Y45.7835
G01 Z-2.0000
G01 Z0
G00 Z2.0000
G00 X139.7635 Y48.3235
G01 Z-2.0000
G01 Z0
G00 Z2.0000
G00 X139.7635 Y50.8635
G01 Z-2.0000
G01 Z0
G00 Z2.0000
G00 X139.7635 Y81.3435
G01 Z-2.0000
G01 Z0
G00 Z2.0000
G00 X139.7635 Y83.8835
G01 Z-2.0000
G01 Z0
G00 Z2.0000
G00 X139.7635 Y86.4235
G01 Z-2.0000
G01 Z0
G00 Z2.0000
G00 X139.7635 Y88.9635
G01 Z-2.0000
G01 Z0
G00 Z2.0000
G00 X139.7635 Y91.5035
G01 Z-2.0000
G01 Z0
G00 Z2.0000
G00 X127.0635 Y91.5035
G01 Z-2.0000
G01 Z0
G00 Z2.0000
G00 X127.0635 Y88.9635
G01 Z-2.0000
G01 Z0
G00 Z2.0000
G00 X127.0635 Y86.4235
G01 Z-2.0000
G01 Z0
G00 Z2.0000
G00 X127.0635 Y83.8835
G01 Z-2.0000
G01 Z0
G00 Z2.0000
G00 X127.0635 Y81.3435
G01 Z-2.0000
G01 Z0
G00 Z2.0000
G00 X114.3635 Y58.4835
G01 Z-2.0000
G01 Z0
G00 Z2.0000
G00 X114.3635 Y61.0235
G01 Z-2.0000
G01 Z0
G00 Z2.0000
G00 X114.3635 Y63.5635
G01 Z-2.0000
G01 Z0
G00 Z2.0000
G00 X114.3635 Y66.1035
G01 Z-2.0000
G01 Z0
G00 Z2.0000
G00 X114.3635 Y68.6435
G01 Z-2.0000
G01 Z0
G00 Z2.0000
G00 X114.3635 Y71.1835
G01 Z-2.0000
G01 Z0
G00 Z2.0000
G00 X114.3635 Y73.7235
G01 Z-2.0000
G01 Z0
G00 Z2.0000
G00 X114.3635 Y76.2635
G01 Z-2.0000
G01 Z0
G00 Z2.0000
G00 X114.3635 Y78.8035
G01 Z-2.0000
G01 Z0
G00 Z2.0000
G00 X114.3635 Y81.3435
G01 Z-2.0000
G01 Z0
G00 Z2.0000
G00 X114.3635 Y83.8835
G01 Z-2.0000
G01 Z0
G00 Z2.0000
G00 X114.3635 Y86.4235
G01 Z-2.0000
G01 Z0
G00 Z2.0000
G00 X114.3635 Y88.9635
G01 Z-2.0000
G01 Z0
G00 Z2.0000
G00 X114.3635 Y91.5035
G01 Z-2.0000
G01 Z0
G00 Z2.0000
G00 X101.6635 Y91.5035
G01 Z-2.0000
G01 Z0
G00 Z2.0000
G00 X101.6635 Y88.9635
G01 Z-2.0000
G01 Z0
G00 Z2.0000
G00 X101.6635 Y86.4235
G01 Z-2.0000
G01 Z0
G00 Z2.0000
G00 X101.6635 Y83.8835
G01 Z-2.0000
G01 Z0
G00 Z2.0000
G00 X101.6635 Y81.3435
G01 Z-2.0000
G01 Z0
G00 Z2.0000
G00 X101.6635 Y78.8035
G01 Z-2.0000
G01 Z0
G00 Z2.0000
G00 X101.6635 Y76.2635
G01 Z-2.0000
G01 Z0
G00 Z2.0000
G00 X101.6635 Y73.7235
G01 Z-2.0000
G01 Z0
G00 Z2.0000
G00 X101.6635 Y71.1835
G01 Z-2.0000
G01 Z0
G00 Z2.0000
G00 X101.6635 Y68.6435
G01 Z-2.0000
G01 Z0
G00 Z2.0000
G00 X101.6635 Y66.1035
G01 Z-2.0000
G01 Z0
G00 Z2.0000
G00 X101.6635 Y63.5635
G01 Z-2.0000
G01 Z0
G00 Z2.0000
G00 X101.6635 Y61.0235
G01 Z-2.0000
G01 Z0
G00 Z2.0000
G00 X101.6635 Y58.4835
G01 Z-2.0000
G01 Z0
G00 Z2.0000
G00 X88.9635 Y63.5635
G01 Z-2.0000
G01 Z0
G00 Z2.0000
G00 X88.9635 Y66.1035
G01 Z-2.0000
G01 Z0
G00 Z2.0000
G00 X88.9635 Y68.6435
G01 Z-2.0000
G01 Z0
G00 Z2.0000
G00 X88.9635 Y71.1835
G01 Z-2.0000
G01 Z0
G00 Z2.0000
G00 X88.9635 Y73.7235
G01 Z-2.0000
G01 Z0
G00 Z2.0000
G00 X88.9635 Y76.2635
G01 Z-2.0000
G01 Z0
G00 Z2.0000
G00 X88.9635 Y78.8035
G01 Z-2.0000
G01 Z0
G00 Z2.0000
G00 X88.9635 Y81.3435
G01 Z-2.0000
G01 Z0
G00 Z2.0000
G00 X88.9635 Y83.8835
G01 Z-2.0000
G01 Z0
G00 Z2.0000
G00 X88.9635 Y86.4235
G01 Z-2.0000
G01 Z0
G00 Z2.0000
G00 X88.9635 Y88.9635
G01 Z-2.0000
G01 Z0
G00 Z2.0000
G00 X88.9635 Y91.5035
G01 Z-2.0000
G01 Z0
G00 Z2.0000
G00 X76.2635 Y91.5035
G01 Z-2.0000
G01 Z0
G00 Z2.0000
G00 X76.2635 Y88.9635
G01 Z-2.0000
G01 Z0
G00 Z2.0000
G00 X76.2635 Y86.4235
G01 Z-2.0000
G01 Z0
G00 Z2.0000
G00 X76.2635 Y83.8835
G01 Z-2.0000
G01 Z0
G00 Z2.0000
G00 X76.2635 Y81.3435
G01 Z-2.0000
G01 Z0
G00 Z2.0000
G00 X76.2635 Y78.8035
G01 Z-2.0000
G01 Z0
G00 Z2.0000
G00 X76.2635 Y76.2635
G01 Z-2.0000
G01 Z0
G00 Z2.0000
G00 X76.2635 Y73.7235
G01 Z-2.0000
G01 Z0
G00 Z2.0000
G00 X76.2635 Y71.1835
G01 Z-2.0000
G01 Z0
G00 Z2.0000
G00 X76.2635 Y68.6435
G01 Z-2.0000
G01 Z0
G00 Z2.0000
G00 X76.2635 Y66.1035
G01 Z-2.0000
G01 Z0
G00 Z2.0000
G00 X76.2635 Y63.5635
G01 Z-2.0000
G01 Z0
G00 Z2.0000
G00 X61.0235 Y63.5635
G01 Z-2.0000
G01 Z0
G00 Z2.0000
G00 X58.4835 Y63.5635
G01 Z-2.0000
G01 Z0
G00 Z2.0000
G00 X50.8635 Y66.1035
G01 Z-2.0000
G01 Z0
G00 Z2.0000
G00 X43.9834 Y63.8035
G01 Z-2.0000
G01 Z0
G00 Z2.0000
G00 X40.9834 Y63.8035
G01 Z-2.0000
G01 Z0
G00 Z2.0000
G00 X37.9834 Y63.8035
G01 Z-2.0000
G01 Z0
G00 Z2.0000
G00 X30.5435 Y78.8035
G01 Z-2.0000
G01 Z0
G00 Z2.0000
G00 X33.0835 Y78.8035
G01 Z-2.0000
G01 Z0
G00 Z2.0000
G00 X35.6235 Y78.8035
G01 Z-2.0000
G01 Z0
G00 Z2.0000
G00 X38.1635 Y78.8035
G01 Z-2.0000
G01 Z0
G00 Z2.0000
G00 X40.7035 Y78.8035
G01 Z-2.0000
G01 Z0
G00 Z2.0000
G00 X43.2435 Y78.8035
G01 Z-2.0000
G01 Z0
G00 Z2.0000
G00 X45.7835 Y78.8035
G01 Z-2.0000
G01 Z0
G00 Z2.0000
G00 X48.3235 Y78.8035
G01 Z-2.0000
G01 Z0
G00 Z2.0000
G00 X50.8635 Y78.8035
G01 Z-2.0000
G01 Z0
G00 Z2.0000
G00 X53.4035 Y78.8035
G01 Z-2.0000
G01 Z0
G00 Z2.0000
G00 X55.9435 Y78.7438
G01 Z-2.0000
G01 Z0
G00 Z2.0000
G00 X58.4835 Y78.7438
G01 Z-2.0000
G01 Z0
G00 Z2.0000
G00 X61.0235 Y78.7438
G01 Z-2.0000
G01 Z0
G00 Z2.0000
G00 X63.5635 Y78.7438
G01 Z-2.0000
G01 Z0
G00 Z2.0000
G00 X63.5635 Y91.5035
G01 Z-2.0000
G01 Z0
G00 Z2.0000
G00 X61.0235 Y91.5035
G01 Z-2.0000
G01 Z0
G00 Z2.0000
G00 X58.4835 Y91.5035
G01 Z-2.0000
G01 Z0
G00 Z2.0000
G00 X55.9435 Y91.5035
G01 Z-2.0000
G01 Z0
G00 Z2.0000
G00 X53.4035 Y91.5035
G01 Z-2.0000
G01 Z0
G00 Z2.0000
G00 X50.8635 Y91.5035
G01 Z-2.0000
G01 Z0
G00 Z2.0000
G00 X48.3235 Y91.5035
G01 Z-2.0000
G01 Z0
G00 Z2.0000
G00 X45.7835 Y91.5035
G01 Z-2.0000
G01 Z0
G00 Z2.0000
G00 X43.2435 Y91.5035
G01 Z-2.0000
G01 Z0
G00 Z2.0000
G00 X40.7035 Y91.5035
G01 Z-2.0000
G01 Z0
G00 Z2.0000
G00 X38.1635 Y91.5035
G01 Z-2.0000
G01 Z0
G00 Z2.0000
G00 X35.6235 Y91.5035
G01 Z-2.0000
G01 Z0
G00 Z2.0000
G00 X33.0835 Y91.5035
G01 Z-2.0000
G01 Z0
G00 Z2.0000
G00 X30.5435 Y91.5035
G01 Z-2.0000
G01 Z0
G00 Z2.0000
G00 X28.0035 Y91.5035
G01 Z-2.0000
G01 Z0
G00 Z2.0000
G00 X25.4635 Y91.5035
G01 Z-2.0000
G01 Z0
G00 Z2.0000
G00 X22.9235 Y91.5035
G01 Z-2.0000
G01 Z0
G00 Z2.0000
G00 X20.3835 Y91.5035
G01 Z-2.0000
G01 Z0
G00 Z2.0000
G00 X17.8435 Y91.5035
G01 Z-2.0000
G01 Z0
G00 Z2.0000
G00 X15.3035 Y91.5035
G01 Z-2.0000
G01 Z0
G00 Z2.0000
G00 X12.7635 Y91.5035
G01 Z-2.0000
G01 Z0
G00 Z2.0000
G00 X10.2235 Y91.5035
G01 Z-2.0000
G01 Z0
G00 Z2.0000
G00 X7.6835 Y91.5035
G01 Z-2.0000
G01 Z0
G00 Z2.0000
G00 X5.1435 Y91.5035
G01 Z-2.0000
G01 Z0
G00 Z2.0000
G00 X5.1435 Y78.8035
G01 Z-2.0000
G01 Z0
G00 Z2.0000
G00 X7.6835 Y78.8035
G01 Z-2.0000
G01 Z0
G00 Z2.0000
G00 X10.2235 Y78.8035
G01 Z-2.0000
G01 Z0
G00 Z2.0000
G00 X12.7635 Y78.8035
G01 Z-2.0000
G01 Z0
G00 Z2.0000
G00 X15.3035 Y78.8035
G01 Z-2.0000
G01 Z0
G00 Z2.0000
G00 X17.8435 Y78.8035
G01 Z-2.0000
G01 Z0
G00 Z2.0000
G00 X20.3835 Y78.8035
G01 Z-2.0000
G01 Z0
G00 Z2.0000
G00 X22.9235 Y78.8035
G01 Z-2.0000
G01 Z0
G00 Z2.0000
G00 X25.4635 Y78.8035
G01 Z-2.0000
G01 Z0
G00 Z2.0000
G00 X28.0035 Y78.8035
G01 Z-2.0000
G01 Z0
G00 Z2.0000
G00 X15.3035 Y58.4835
G01 Z-2.0000
G01 Z0
G00 Z2.0000
G00 X8.4234 Y56.1835
G01 Z-2.0000
G01 Z0
G00 Z2.0000
G00 X5.4234 Y56.1835
G01 Z-2.0000
G01 Z0
G00 Z2.0000
G00 X2.4234 Y56.1835
G01 Z-2.0000
G01 Z0
G00 Z2.0000
G00 X5.1435 Y48.3235
G01 Z-2.0000
G01 Z0
G00 Z2.0000
G00 X7.6835 Y48.3235
G01 Z-2.0000
G01 Z0
G00 Z2.0000
G00 X22.9235 Y55.9435
G01 Z-2.0000
G01 Z0
G00 Z2.0000
G00 X25.4635 Y55.9435
G01 Z-2.0000
G01 Z0
G00 Z2.0000
G00 X28.1836 Y48.0835
G01 Z-2.0000
G01 Z0
G00 Z2.0000
G00 X25.1836 Y48.0835
G01 Z-2.0000
G01 Z0
G00 Z2.0000
G00 X22.1836 Y48.0835
G01 Z-2.0000
G01 Z0
G00 Z2.0000
G00 X15.3035 Y45.7835
G01 Z-2.0000
G01 Z0
G00 Z2.0000
G00 X15.3035 Y38.1635
G01 Z-2.0000
G01 Z0
G00 Z2.0000
G00 X8.4234 Y35.8635
G01 Z-2.0000
G01 Z0
G00 Z2.0000
G00 X5.4234 Y35.8635
G01 Z-2.0000
G01 Z0
G00 Z2.0000
G00 X2.4234 Y35.8635
G01 Z-2.0000
G01 Z0
G00 Z2.0000
G00 X5.1435 Y28.0035
G01 Z-2.0000
G01 Z0
G00 Z2.0000
G00 X7.6835 Y28.0035
G01 Z-2.0000
G01 Z0
G00 Z2.0000
G00 X15.3035 Y25.4635
G01 Z-2.0000
G01 Z0
G00 Z2.0000
G00 X15.3035 Y17.8435
G01 Z-2.0000
G01 Z0
G00 Z2.0000
G00 X8.4234 Y15.5435
G01 Z-2.0000
G01 Z0
G00 Z2.0000
G00 X5.4234 Y15.5435
G01 Z-2.0000
G01 Z0
G00 Z2.0000
G00 X2.4234 Y15.5435
G01 Z-2.0000
G01 Z0
G00 Z2.0000
G00 X5.1435 Y7.6835
G01 Z-2.0000
G01 Z0
G00 Z2.0000
G00 X7.6835 Y7.6835
G01 Z-2.0000
G01 Z0
G00 Z2.0000
G00 X15.3035 Y5.1435
G01 Z-2.0000
G01 Z0
G00 Z2.0000
G00 X22.1836 Y7.4435
G01 Z-2.0000
G01 Z0
G00 Z2.0000
G00 X25.1836 Y7.4435
G01 Z-2.0000
G01 Z0
G00 Z2.0000
G00 X28.1836 Y7.4435
G01 Z-2.0000
G01 Z0
G00 Z2.0000
G00 X25.4635 Y15.3035
G01 Z-2.0000
G01 Z0
G00 Z2.0000
G00 X22.9235 Y15.3035
G01 Z-2.0000
G01 Z0
G00 Z2.0000
G00 X28.1836 Y27.7635
G01 Z-2.0000
G01 Z0
G00 Z2.0000
G00 X25.1836 Y27.7635
G01 Z-2.0000
G01 Z0
G00 Z2.0000
G00 X22.1836 Y27.7635
G01 Z-2.0000
G01 Z0
G00 Z2.0000
G00 X22.9235 Y35.6235
G01 Z-2.0000
G01 Z0
G00 Z2.0000
G00 X25.4635 Y35.6235
G01 Z-2.0000
G01 Z0
G00 Z2.0000
G00 X38.1635 Y43.2435
G01 Z-2.0000
G01 Z0
G00 Z2.0000
G00 X40.7035 Y55.9435
G01 Z-2.0000
G01 Z0
G00 Z2.0000
G00 X43.2435 Y55.9435
G01 Z-2.0000
G01 Z0
G00 Z2.0000
G00 X50.8635 Y53.4035
G01 Z-2.0000
G01 Z0
G00 Z2.0000
G00 X57.7436 Y55.7035
G01 Z-2.0000
G01 Z0
G00 Z2.0000
G00 X60.7436 Y55.7035
G01 Z-2.0000
G01 Z0
G00 Z2.0000
G00 X63.7436 Y55.7035
G01 Z-2.0000
G01 Z0
G00 Z2.0000
G00 X63.5635 Y43.2435
G01 Z-2.0000
G01 Z0
G00 Z2.0000
G00 X61.0235 Y43.2435
G01 Z-2.0000
G01 Z0
G00 Z2.0000
G00 X58.4835 Y43.2435
G01 Z-2.0000
G01 Z0
G00 Z2.0000
G00 X55.9435 Y43.2435
G01 Z-2.0000
G01 Z0
G00 Z2.0000
G00 X53.4035 Y43.2435
G01 Z-2.0000
G01 Z0
G00 Z2.0000
G00 X50.8635 Y43.2435
G01 Z-2.0000
G01 Z0
G00 Z2.0000
G00 X48.3235 Y43.2435
G01 Z-2.0000
G01 Z0
G00 Z2.0000
G00 X45.7835 Y43.2435
G01 Z-2.0000
G01 Z0
G00 Z2.0000
G00 X43.2435 Y43.2435
G01 Z-2.0000
G01 Z0
G00 Z2.0000
G00 X40.7035 Y43.2435
G01 Z-2.0000
G01 Z0
G00 Z2.0000
G00 X38.1635 Y30.6032
G01 Z-2.0000
G01 Z0
G00 Z2.0000
G00 X40.7035 Y30.6032
G01 Z-2.0000
G01 Z0
G00 Z2.0000
G00 X43.2435 Y30.6032
G01 Z-2.0000
G01 Z0
G00 Z2.0000
G00 X45.7835 Y30.6032
G01 Z-2.0000
G01 Z0
G00 Z2.0000
G00 X48.3235 Y30.6032
G01 Z-2.0000
G01 Z0
G00 Z2.0000
G00 X50.8635 Y30.6032
G01 Z-2.0000
G01 Z0
G00 Z2.0000
G00 X53.4035 Y30.6032
G01 Z-2.0000
G01 Z0
G00 Z2.0000
G00 X55.9435 Y30.6032
G01 Z-2.0000
G01 Z0
G00 Z2.0000
G00 X58.4835 Y30.5435
G01 Z-2.0000
G01 Z0
G00 Z2.0000
G00 X61.0235 Y30.5435
G01 Z-2.0000
G01 Z0
G00 Z2.0000
G00 X63.5635 Y30.5435
G01 Z-2.0000
G01 Z0
G00 Z2.0000
G00 X63.5635 Y17.8435
G01 Z-2.0000
G01 Z0
G00 Z2.0000
G00 X61.0235 Y17.8435
G01 Z-2.0000
G01 Z0
G00 Z2.0000
G00 X58.4835 Y17.8435
G01 Z-2.0000
G01 Z0
G00 Z2.0000
G00 X55.9435 Y17.8435
G01 Z-2.0000
G01 Z0
G00 Z2.0000
G00 X53.4035 Y17.8435
G01 Z-2.0000
G01 Z0
G00 Z2.0000
G00 X50.8635 Y17.8435
G01 Z-2.0000
G01 Z0
G00 Z2.0000
G00 X48.3235 Y17.8435
G01 Z-2.0000
G01 Z0
G00 Z2.0000
G00 X45.7835 Y17.8435
G01 Z-2.0000
G01 Z0
G00 Z2.0000
G00 X43.2435 Y17.8435
G01 Z-2.0000
G01 Z0
G00 Z2.0000
G00 X40.7035 Y17.8435
G01 Z-2.0000
G01 Z0
G00 Z2.0000
G00 X38.1635 Y17.8435
G01 Z-2.0000
G01 Z0
G00 Z2.0000
G00 X38.1635 Y5.1435
G01 Z-2.0000
G01 Z0
G00 Z2.0000
G00 X40.7035 Y5.1435
G01 Z-2.0000
G01 Z0
G00 Z2.0000
G00 X43.2435 Y5.1435
G01 Z-2.0000
G01 Z0
G00 Z2.0000
G00 X45.7835 Y5.1435
G01 Z-2.0000
G01 Z0
G00 Z2.0000
G00 X48.3235 Y5.1435
G01 Z-2.0000
G01 Z0
G00 Z2.0000
G00 X50.8635 Y5.1435
G01 Z-2.0000
G01 Z0
G00 Z2.0000
G00 X53.4035 Y5.1435
G01 Z-2.0000
G01 Z0
G00 Z2.0000
G00 X55.9435 Y5.1435
G01 Z-2.0000
G01 Z0
G00 Z2.0000
G00 X58.4835 Y5.1435
G01 Z-2.0000
G01 Z0
G00 Z2.0000
G00 X61.0235 Y5.1435
G01 Z-2.0000
G01 Z0
G00 Z2.0000
G00 X63.5635 Y5.1435
G01 Z-2.0000
G01 Z0
G00 Z2.0000
G00 X76.2635 Y5.1435
G01 Z-2.0000
G01 Z0
G00 Z2.0000
G00 X76.2635 Y7.6835
G01 Z-2.0000
G01 Z0
G00 Z2.0000
G00 X76.2635 Y10.2235
G01 Z-2.0000
G01 Z0
G00 Z2.0000
G00 X76.2635 Y12.7635
G01 Z-2.0000
G01 Z0
G00 Z2.0000
G00 X76.2635 Y15.3035
G01 Z-2.0000
G01 Z0
G00 Z2.0000
G00 X76.2635 Y28.0035
G01 Z-2.0000
G01 Z0
G00 Z2.0000
G00 X76.2635 Y30.5435
G01 Z-2.0000
G01 Z0
G00 Z2.0000
G00 X88.9635 Y30.5435
G01 Z-2.0000
G01 Z0
G00 Z2.0000
G00 X88.9635 Y28.0035
G01 Z-2.0000
G01 Z0
G00 Z2.0000
G00 X88.9635 Y15.3035
G01 Z-2.0000
G01 Z0
G00 Z2.0000
G00 X88.9635 Y12.7635
G01 Z-2.0000
G01 Z0
G00 Z2.0000
G00 X88.9635 Y10.2235
G01 Z-2.0000
G01 Z0
G00 Z2.0000
G00 X88.9635 Y7.6835
G01 Z-2.0000
G01 Z0
G00 Z2.0000
G00 X88.9635 Y5.1435
G01 Z-2.0000
G01 Z0
G00 Z2.0000
G00 X101.6635 Y10.2235
G01 Z-2.0000
G01 Z0
G00 Z2.0000
G00 X101.6635 Y12.7635
G01 Z-2.0000
G01 Z0
G00 Z2.0000
G00 X101.6635 Y15.3035
G01 Z-2.0000
G01 Z0
G00 Z2.0000
G00 X101.6635 Y17.8435
G01 Z-2.0000
G01 Z0
G00 Z2.0000
G00 X101.6635 Y20.3835
G01 Z-2.0000
G01 Z0
G00 Z2.0000
G00 X114.3635 Y20.3835
G01 Z-2.0000
G01 Z0
G00 Z2.0000
G00 X114.3635 Y17.8435
G01 Z-2.0000
G01 Z0
G00 Z2.0000
G00 X114.3635 Y15.3035
G01 Z-2.0000
G01 Z0
G00 Z2.0000
G00 X114.3635 Y12.7635
G01 Z-2.0000
G01 Z0
G00 Z2.0000
G00 X114.3635 Y10.2235
G01 Z-2.0000
G01 Z0
G00 Z2.0000
G00 X127.0635 Y17.8435
G01 Z-2.0000
G01 Z0
G00 Z2.0000
G00 X127.0635 Y20.3835
G01 Z-2.0000
G01 Z0
G00 Z2.0000
G00 X127.0635 Y22.9235
G01 Z-2.0000
G01 Z0
G00 Z2.0000
G00 X127.0635 Y25.4635
G01 Z-2.0000
G01 Z0
G00 Z2.0000
G00 X127.0635 Y28.0035
G01 Z-2.0000
G01 Z0
G00 Z2.0000
G00 X127.0635 Y30.5435
G01 Z-2.0000
G01 Z0
G00 Z2.0000
G00 X127.0635 Y33.0835
G01 Z-2.0000
G01 Z0
G00 Z2.0000
G00 X127.0635 Y35.6235
G01 Z-2.0000
G01 Z0
G00 Z2.0000
G00 X127.0635 Y38.1635
G01 Z-2.0000
G01 Z0
G00 Z2.0000
G00 X127.0635 Y40.7035
G01 Z-2.0000
G01 Z0
G00 Z2.0000
G00 X127.0635 Y43.2435
G01 Z-2.0000
G01 Z0
G00 Z2.0000
G00 X127.0635 Y45.7835
G01 Z-2.0000
G01 Z0
G00 Z2.0000
G00 X127.0635 Y48.3235
G01 Z-2.0000
G01 Z0
G00 Z2.0000
G00 X127.0635 Y50.8635
G01 Z-2.0000
G01 Z0
G00 Z2.0000
M05
G00 Z0.50


