(G-CODE GENERATED BY FLATCAM v8.994 - www.flatcam.org - Version Date: 2020/11/7)

(Name: BBodgepcb - Cut.gbr_iso_combined_cnc)
(Type: G-code from Geometry)
(Units: MM)

(Created on Sunday, 01 December 2024 at 13:48)

(This preprocessor is the default preprocessor used by FlatCAM.)
(It is made to work with MACH3 compatible motion controllers.)

(TOOL DIAMETER: 1.5 mm)
(Feedrate_XY: 120.0 mm/min)
(Feedrate_Z: 60.0 mm/min)
(Feedrate rapids 1500.0 mm/min)

(Z_Cut: -2.4 mm)
(Z_Move: 2.0 mm)
(Z Start: None mm)
(Z End: 15.0 mm)
(X,Y End: None mm)
(Steps per circle: 64)
(Preprocessor Geometry: default)

(X range:   -0.7500 ...  145.6570  mm)
(Y range:   -0.7500 ...   97.3970  mm)

(Spindle Speed: 0.0 RPM)
G21
G90
G94

G01 F120.00
G00 Z15.0000

M03
G01 F120.00
G00 X7.7023 Y1.7902
G01 F60.00
G01 Z-2.4000
G01 F120.00
G01 X7.9554 Y1.8017
G01 X7.9900 Y1.8041
G01 X8.0131 Y1.8064
G01 X8.0303 Y1.8086
G01 X8.2626 Y1.8410
G01 X8.2797 Y1.8436
G01 X8.3026 Y1.8477
G01 X8.3365 Y1.8548
G01 X8.5649 Y1.9085
G01 X8.5817 Y1.9127
G01 X8.6040 Y1.9189
G01 X8.6371 Y1.9291
G01 X8.8596 Y2.0037
G01 X8.8759 Y2.0094
G01 X8.8976 Y2.0176
G01 X8.9297 Y2.0308
G01 X9.1443 Y2.1256
G01 X9.1600 Y2.1328
G01 X9.1809 Y2.1429
G01 X9.2115 Y2.1591
G01 X9.4165 Y2.2732
G01 X9.4464 Y2.2908
G01 X9.4660 Y2.3032
G01 X9.4804 Y2.3128
G01 X9.6739 Y2.4454
G01 X9.6881 Y2.4553
G01 X9.7068 Y2.4691
G01 X9.7339 Y2.4907
G01 X9.9144 Y2.6405
G01 X9.9276 Y2.6518
G01 X9.9449 Y2.6672
G01 X9.9699 Y2.6912
G01 X10.1358 Y2.8571
G01 X10.1479 Y2.8695
G01 X10.1637 Y2.8865
G01 X10.1865 Y2.9126
G01 X10.3363 Y3.0931
G01 X10.3579 Y3.1202
G01 X10.3717 Y3.1389
G01 X10.3816 Y3.1531
G01 X10.5142 Y3.3466
G01 X10.5238 Y3.3610
G01 X10.5362 Y3.3806
G01 X10.5538 Y3.4105
G01 X10.6679 Y3.6155
G01 X10.6762 Y3.6307
G01 X10.6867 Y3.6514
G01 X10.7014 Y3.6827
G01 X10.7962 Y3.8973
G01 X10.8030 Y3.9133
G01 X10.8116 Y3.9348
G01 X10.8233 Y3.9674
G01 X10.8979 Y4.1899
G01 X10.9032 Y4.2064
G01 X10.9097 Y4.2286
G01 X10.9185 Y4.2621
G01 X10.9722 Y4.4905
G01 X10.9793 Y4.5244
G01 X10.9834 Y4.5473
G01 X10.9860 Y4.5644
G01 X11.0184 Y4.7967
G01 X11.0224 Y4.8312
G01 X11.0243 Y4.8543
G01 X11.0253 Y4.8716
G01 X11.0362 Y5.1059
G01 X11.0370 Y5.1435
G01 X11.0370 Y10.2035
G01 X11.0585 Y10.6416
G01 X11.1200 Y11.0557
G01 X11.2217 Y11.4617
G01 X11.3627 Y11.8558
G01 X11.5417 Y12.2342
G01 X11.7569 Y12.5933
G01 X12.0062 Y12.9295
G01 X12.2873 Y13.2397
G01 X12.5975 Y13.5208
G01 X12.9337 Y13.7701
G01 X13.2928 Y13.9853
G01 X13.6712 Y14.1643
G01 X14.0653 Y14.3053
G01 X14.4713 Y14.4070
G01 X14.8854 Y14.4685
G01 X15.6108 Y14.5043
G01 X15.6353 Y14.5065
G01 X15.6718 Y14.5110
G01 X15.9184 Y14.5476
G01 X15.9547 Y14.5539
G01 X15.9788 Y14.5589
G01 X16.2385 Y14.6237
G01 X16.2740 Y14.6335
G01 X16.2975 Y14.6409
G01 X16.3149 Y14.6469
G01 X16.5496 Y14.7309
G01 X16.5668 Y14.7373
G01 X16.5897 Y14.7465
G01 X16.6233 Y14.7614
G01 X16.8487 Y14.8680
G01 X16.8816 Y14.8845
G01 X16.9032 Y14.8964
G01 X17.1329 Y15.0338
G01 X17.1640 Y15.0535
G01 X17.1843 Y15.0674
G01 X17.1993 Y15.0781
G01 X17.3995 Y15.2266
G01 X17.4141 Y15.2378
G01 X17.4333 Y15.2532
G01 X17.4612 Y15.2773
G01 X17.6459 Y15.4447
G01 X17.6594 Y15.4572
G01 X17.6770 Y15.4745
G01 X17.7023 Y15.5011
G01 X17.8697 Y15.6858
G01 X17.8938 Y15.7137
G01 X17.9092 Y15.7329
G01 X17.9204 Y15.7475
G01 X18.0689 Y15.9477
G01 X18.0796 Y15.9627
G01 X18.0935 Y15.9830
G01 X18.1132 Y16.0141
G01 X18.2414 Y16.2279
G01 X18.2506 Y16.2438
G01 X18.2625 Y16.2654
G01 X18.2790 Y16.2983
G01 X18.3856 Y16.5237
G01 X18.3932 Y16.5404
G01 X18.4029 Y16.5631
G01 X18.4161 Y16.5974
G01 X18.5001 Y16.8321
G01 X18.5061 Y16.8495
G01 X18.5135 Y16.8730
G01 X18.5233 Y16.9085
G01 X18.5838 Y17.1503
G01 X18.5881 Y17.1682
G01 X18.5931 Y17.1923
G01 X18.5994 Y17.2286
G01 X18.6360 Y17.4752
G01 X18.6385 Y17.4934
G01 X18.6411 Y17.5179
G01 X18.6438 Y17.5546
G01 X18.6560 Y17.8036
G01 X18.6570 Y17.8393
G01 X18.6568 Y17.8632
G01 X18.6562 Y17.8811
G01 X18.6453 Y18.1154
G01 X18.6443 Y18.1327
G01 X18.6424 Y18.1558
G01 X18.6384 Y18.1903
G01 X18.6060 Y18.4226
G01 X18.6034 Y18.4397
G01 X18.5993 Y18.4626
G01 X18.5922 Y18.4965
G01 X18.5385 Y18.7249
G01 X18.5343 Y18.7417
G01 X18.5281 Y18.7640
G01 X18.5179 Y18.7971
G01 X18.4433 Y19.0196
G01 X18.4376 Y19.0359
G01 X18.4294 Y19.0576
G01 X18.4162 Y19.0897
G01 X18.3214 Y19.3043
G01 X18.3142 Y19.3200
G01 X18.3041 Y19.3409
G01 X18.2879 Y19.3715
G01 X18.1738 Y19.5765
G01 X18.1652 Y19.5915
G01 X18.1531 Y19.6114
G01 X18.1342 Y19.6404
G01 X18.0016 Y19.8339
G01 X17.9917 Y19.8481
G01 X17.9779 Y19.8668
G01 X17.9563 Y19.8939
G01 X17.8065 Y20.0744
G01 X17.7952 Y20.0876
G01 X17.7798 Y20.1049
G01 X17.7558 Y20.1299
G01 X17.5899 Y20.2958
G01 X17.5649 Y20.3198
G01 X17.5476 Y20.3352
G01 X17.5344 Y20.3465
G01 X17.3539 Y20.4963
G01 X17.3268 Y20.5179
G01 X17.3081 Y20.5317
G01 X17.2939 Y20.5416
G01 X17.1004 Y20.6742
G01 X17.0860 Y20.6838
G01 X17.0664 Y20.6962
G01 X17.0365 Y20.7138
G01 X16.8315 Y20.8279
G01 X16.8009 Y20.8441
G01 X16.7800 Y20.8542
G01 X16.5497 Y20.9562
G01 X16.5337 Y20.9630
G01 X16.5122 Y20.9716
G01 X16.4796 Y20.9833
G01 X16.2571 Y21.0579
G01 X16.2406 Y21.0632
G01 X16.2184 Y21.0697
G01 X16.1849 Y21.0785
G01 X15.9565 Y21.1322
G01 X15.9396 Y21.1359
G01 X15.9168 Y21.1404
G01 X15.8826 Y21.1460
G01 X15.6503 Y21.1784
G01 X15.6158 Y21.1824
G01 X15.5927 Y21.1843
G01 X15.5754 Y21.1853
G01 X15.3208 Y21.1968
G01 X2.6035 Y21.1970
G01 X2.5659 Y21.1962
G01 X2.3316 Y21.1853
G01 X2.2970 Y21.1829
G01 X2.2739 Y21.1806
G01 X2.2567 Y21.1784
G01 X2.0244 Y21.1460
G01 X2.0073 Y21.1434
G01 X1.9844 Y21.1393
G01 X1.9505 Y21.1322
G01 X1.7221 Y21.0785
G01 X1.7053 Y21.0743
G01 X1.6830 Y21.0681
G01 X1.6499 Y21.0579
G01 X1.4274 Y20.9833
G01 X1.3948 Y20.9716
G01 X1.3733 Y20.9630
G01 X1.3573 Y20.9562
G01 X1.1427 Y20.8614
G01 X1.1270 Y20.8542
G01 X1.1061 Y20.8441
G01 X1.0755 Y20.8279
G01 X0.8705 Y20.7138
G01 X0.8555 Y20.7052
G01 X0.8356 Y20.6931
G01 X0.8066 Y20.6742
G01 X0.6131 Y20.5416
G01 X0.5989 Y20.5317
G01 X0.5802 Y20.5179
G01 X0.5531 Y20.4963
G01 X0.3726 Y20.3465
G01 X0.3594 Y20.3352
G01 X0.3421 Y20.3198
G01 X0.3171 Y20.2958
G01 X0.1512 Y20.1299
G01 X0.1391 Y20.1175
G01 X0.1233 Y20.1005
G01 X0.1005 Y20.0744
G01 X-0.0493 Y19.8939
G01 X-0.0603 Y19.8805
G01 X-0.0744 Y19.8621
G01 X-0.0946 Y19.8339
G01 X-0.2272 Y19.6404
G01 X-0.2368 Y19.6260
G01 X-0.2492 Y19.6064
G01 X-0.2668 Y19.5765
G01 X-0.3809 Y19.3715
G01 X-0.3971 Y19.3409
G01 X-0.4072 Y19.3200
G01 X-0.5092 Y19.0897
G01 X-0.5160 Y19.0737
G01 X-0.5246 Y19.0522
G01 X-0.5363 Y19.0196
G01 X-0.6109 Y18.7971
G01 X-0.6162 Y18.7806
G01 X-0.6227 Y18.7584
G01 X-0.6315 Y18.7249
G01 X-0.6852 Y18.4965
G01 X-0.6889 Y18.4796
G01 X-0.6934 Y18.4568
G01 X-0.6990 Y18.4226
G01 X-0.7314 Y18.1903
G01 X-0.7354 Y18.1558
G01 X-0.7373 Y18.1327
G01 X-0.7383 Y18.1154
G01 X-0.7492 Y17.8811
G01 X-0.7500 Y17.8435
G01 X-0.7498 Y5.1251
G01 X-0.7490 Y5.1036
G01 X-0.7368 Y4.8546
G01 X-0.7357 Y4.8362
G01 X-0.7335 Y4.8117
G01 X-0.7290 Y4.7752
G01 X-0.6924 Y4.5286
G01 X-0.6895 Y4.5104
G01 X-0.6849 Y4.4862
G01 X-0.6768 Y4.4503
G01 X-0.6163 Y4.2085
G01 X-0.6116 Y4.1907
G01 X-0.6046 Y4.1671
G01 X-0.5931 Y4.1321
G01 X-0.5091 Y3.8974
G01 X-0.5027 Y3.8802
G01 X-0.4935 Y3.8573
G01 X-0.4786 Y3.8237
G01 X-0.3720 Y3.5983
G01 X-0.3639 Y3.5818
G01 X-0.3525 Y3.5599
G01 X-0.3344 Y3.5279
G01 X-0.2062 Y3.3141
G01 X-0.1966 Y3.2984
G01 X-0.1831 Y3.2778
G01 X-0.1619 Y3.2477
G01 X-0.0134 Y3.0475
G01 X-0.0022 Y3.0329
G01 X0.0132 Y3.0137
G01 X0.0373 Y2.9858
G01 X0.2047 Y2.8011
G01 X0.2300 Y2.7745
G01 X0.2476 Y2.7572
G01 X0.2611 Y2.7447
G01 X0.4458 Y2.5773
G01 X0.4596 Y2.5651
G01 X0.4785 Y2.5493
G01 X0.5075 Y2.5266
G01 X0.7077 Y2.3781
G01 X0.7227 Y2.3674
G01 X0.7430 Y2.3535
G01 X0.7741 Y2.3338
G01 X0.9879 Y2.2056
G01 X1.0038 Y2.1964
G01 X1.0254 Y2.1845
G01 X1.0583 Y2.1680
G01 X1.2837 Y2.0614
G01 X1.3004 Y2.0538
G01 X1.3231 Y2.0441
G01 X1.3574 Y2.0309
G01 X1.5921 Y1.9469
G01 X1.6095 Y1.9409
G01 X1.6330 Y1.9335
G01 X1.6685 Y1.9237
G01 X1.9103 Y1.8632
G01 X1.9282 Y1.8589
G01 X1.9523 Y1.8539
G01 X1.9886 Y1.8476
G01 X2.2352 Y1.8110
G01 X2.2717 Y1.8065
G01 X2.2962 Y1.8043
G01 X2.3146 Y1.8032
G01 X2.5636 Y1.7910
G01 X2.5851 Y1.7902
G01 X7.7023 Y1.7902
G00 Z2.0000
G00 X7.7023 Y22.1102
G01 F60.00
G01 Z-2.4000
G01 F120.00
G01 X7.9554 Y22.1217
G01 X7.9900 Y22.1241
G01 X8.0131 Y22.1264
G01 X8.0303 Y22.1286
G01 X8.2626 Y22.1610
G01 X8.2797 Y22.1636
G01 X8.3026 Y22.1677
G01 X8.3365 Y22.1748
G01 X8.5649 Y22.2285
G01 X8.5817 Y22.2327
G01 X8.6040 Y22.2389
G01 X8.6371 Y22.2491
G01 X8.8596 Y22.3237
G01 X8.8759 Y22.3294
G01 X8.8976 Y22.3376
G01 X8.9297 Y22.3508
G01 X9.1443 Y22.4456
G01 X9.1600 Y22.4528
G01 X9.1809 Y22.4629
G01 X9.2115 Y22.4791
G01 X9.4165 Y22.5932
G01 X9.4464 Y22.6108
G01 X9.4660 Y22.6232
G01 X9.4804 Y22.6328
G01 X9.6739 Y22.7654
G01 X9.6881 Y22.7753
G01 X9.7068 Y22.7891
G01 X9.7339 Y22.8107
G01 X9.9144 Y22.9605
G01 X9.9276 Y22.9718
G01 X9.9449 Y22.9872
G01 X9.9699 Y23.0112
G01 X10.1358 Y23.1771
G01 X10.1479 Y23.1895
G01 X10.1637 Y23.2065
G01 X10.1865 Y23.2326
G01 X10.3363 Y23.4131
G01 X10.3579 Y23.4402
G01 X10.3717 Y23.4589
G01 X10.3816 Y23.4731
G01 X10.5142 Y23.6666
G01 X10.5238 Y23.6810
G01 X10.5362 Y23.7006
G01 X10.5538 Y23.7305
G01 X10.6679 Y23.9355
G01 X10.6762 Y23.9507
G01 X10.6867 Y23.9714
G01 X10.7014 Y24.0027
G01 X10.7962 Y24.2173
G01 X10.8030 Y24.2333
G01 X10.8116 Y24.2548
G01 X10.8233 Y24.2874
G01 X10.8979 Y24.5099
G01 X10.9032 Y24.5264
G01 X10.9097 Y24.5486
G01 X10.9185 Y24.5821
G01 X10.9722 Y24.8105
G01 X10.9793 Y24.8444
G01 X10.9834 Y24.8673
G01 X10.9860 Y24.8844
G01 X11.0184 Y25.1167
G01 X11.0224 Y25.1512
G01 X11.0243 Y25.1743
G01 X11.0253 Y25.1916
G01 X11.0362 Y25.4259
G01 X11.0370 Y25.4635
G01 X11.0370 Y30.5235
G01 X11.0585 Y30.9616
G01 X11.1200 Y31.3757
G01 X11.2217 Y31.7817
G01 X11.3627 Y32.1758
G01 X11.5417 Y32.5542
G01 X11.7569 Y32.9133
G01 X12.0062 Y33.2495
G01 X12.2873 Y33.5597
G01 X12.5975 Y33.8408
G01 X12.9337 Y34.0901
G01 X13.2928 Y34.3053
G01 X13.6712 Y34.4843
G01 X14.0653 Y34.6253
G01 X14.4713 Y34.7270
G01 X14.8854 Y34.7885
G01 X15.6108 Y34.8243
G01 X15.6353 Y34.8265
G01 X15.6718 Y34.8310
G01 X15.9184 Y34.8676
G01 X15.9547 Y34.8739
G01 X15.9788 Y34.8789
G01 X16.2385 Y34.9437
G01 X16.2740 Y34.9535
G01 X16.2975 Y34.9609
G01 X16.3149 Y34.9669
G01 X16.5496 Y35.0509
G01 X16.5668 Y35.0573
G01 X16.5897 Y35.0665
G01 X16.6233 Y35.0814
G01 X16.8487 Y35.1880
G01 X16.8816 Y35.2045
G01 X16.9032 Y35.2164
G01 X17.1329 Y35.3538
G01 X17.1640 Y35.3735
G01 X17.1843 Y35.3874
G01 X17.1993 Y35.3981
G01 X17.3995 Y35.5466
G01 X17.4141 Y35.5578
G01 X17.4333 Y35.5732
G01 X17.4612 Y35.5973
G01 X17.6459 Y35.7647
G01 X17.6594 Y35.7772
G01 X17.6770 Y35.7945
G01 X17.7023 Y35.8211
G01 X17.8697 Y36.0058
G01 X17.8938 Y36.0337
G01 X17.9092 Y36.0529
G01 X17.9204 Y36.0675
G01 X18.0689 Y36.2677
G01 X18.0796 Y36.2827
G01 X18.0935 Y36.3030
G01 X18.1132 Y36.3341
G01 X18.2414 Y36.5479
G01 X18.2506 Y36.5638
G01 X18.2625 Y36.5854
G01 X18.2790 Y36.6183
G01 X18.3856 Y36.8437
G01 X18.3932 Y36.8604
G01 X18.4029 Y36.8831
G01 X18.4161 Y36.9174
G01 X18.5001 Y37.1521
G01 X18.5061 Y37.1695
G01 X18.5135 Y37.1930
G01 X18.5233 Y37.2285
G01 X18.5838 Y37.4703
G01 X18.5881 Y37.4882
G01 X18.5931 Y37.5123
G01 X18.5994 Y37.5486
G01 X18.6360 Y37.7952
G01 X18.6385 Y37.8134
G01 X18.6411 Y37.8379
G01 X18.6438 Y37.8746
G01 X18.6560 Y38.1236
G01 X18.6567 Y38.1420
G01 X18.6570 Y38.1666
G01 X18.6560 Y38.2034
G01 X18.6438 Y38.4524
G01 X18.6427 Y38.4708
G01 X18.6405 Y38.4953
G01 X18.6360 Y38.5318
G01 X18.5994 Y38.7784
G01 X18.5965 Y38.7966
G01 X18.5919 Y38.8208
G01 X18.5838 Y38.8567
G01 X18.5233 Y39.0985
G01 X18.5186 Y39.1163
G01 X18.5116 Y39.1399
G01 X18.5001 Y39.1749
G01 X18.4161 Y39.4096
G01 X18.4097 Y39.4268
G01 X18.4005 Y39.4497
G01 X18.3856 Y39.4833
G01 X18.2790 Y39.7087
G01 X18.2709 Y39.7252
G01 X18.2595 Y39.7471
G01 X18.2414 Y39.7791
G01 X18.1132 Y39.9929
G01 X18.1036 Y40.0086
G01 X18.0901 Y40.0292
G01 X18.0689 Y40.0593
G01 X17.9204 Y40.2595
G01 X17.9092 Y40.2741
G01 X17.8938 Y40.2933
G01 X17.8697 Y40.3212
G01 X17.7023 Y40.5059
G01 X17.6898 Y40.5194
G01 X17.6725 Y40.5370
G01 X17.6459 Y40.5623
G01 X17.4612 Y40.7297
G01 X17.4474 Y40.7419
G01 X17.4285 Y40.7577
G01 X17.3995 Y40.7804
G01 X17.1993 Y40.9289
G01 X17.1843 Y40.9396
G01 X17.1640 Y40.9535
G01 X17.1329 Y40.9732
G01 X16.9191 Y41.1014
G01 X16.9032 Y41.1106
G01 X16.8816 Y41.1225
G01 X16.8487 Y41.1390
G01 X16.6233 Y41.2456
G01 X16.6066 Y41.2532
G01 X16.5839 Y41.2629
G01 X16.5496 Y41.2761
G01 X16.3149 Y41.3601
G01 X16.2975 Y41.3661
G01 X16.2740 Y41.3735
G01 X16.2385 Y41.3833
G01 X15.9967 Y41.4438
G01 X15.9788 Y41.4481
G01 X15.9547 Y41.4531
G01 X15.9184 Y41.4594
G01 X15.6718 Y41.4960
G01 X15.6353 Y41.5005
G01 X15.6108 Y41.5027
G01 X15.5924 Y41.5038
G01 X15.3250 Y41.5167
G01 X15.3035 Y41.5170
G01 X2.6035 Y41.5170
G01 X2.5659 Y41.5162
G01 X2.3316 Y41.5053
G01 X2.2970 Y41.5029
G01 X2.2739 Y41.5006
G01 X2.2567 Y41.4984
G01 X2.0244 Y41.4660
G01 X2.0073 Y41.4634
G01 X1.9844 Y41.4593
G01 X1.9505 Y41.4522
G01 X1.7221 Y41.3985
G01 X1.7053 Y41.3943
G01 X1.6830 Y41.3881
G01 X1.6499 Y41.3779
G01 X1.4274 Y41.3033
G01 X1.3948 Y41.2916
G01 X1.3733 Y41.2830
G01 X1.3573 Y41.2762
G01 X1.1427 Y41.1814
G01 X1.1270 Y41.1742
G01 X1.1061 Y41.1641
G01 X1.0755 Y41.1479
G01 X0.8705 Y41.0338
G01 X0.8555 Y41.0252
G01 X0.8356 Y41.0131
G01 X0.8066 Y40.9942
G01 X0.6131 Y40.8616
G01 X0.5989 Y40.8517
G01 X0.5802 Y40.8379
G01 X0.5531 Y40.8163
G01 X0.3726 Y40.6665
G01 X0.3594 Y40.6552
G01 X0.3421 Y40.6398
G01 X0.3171 Y40.6158
G01 X0.1512 Y40.4499
G01 X0.1391 Y40.4375
G01 X0.1233 Y40.4205
G01 X0.1005 Y40.3944
G01 X-0.0493 Y40.2139
G01 X-0.0603 Y40.2005
G01 X-0.0744 Y40.1821
G01 X-0.0946 Y40.1539
G01 X-0.2272 Y39.9604
G01 X-0.2368 Y39.9460
G01 X-0.2492 Y39.9264
G01 X-0.2668 Y39.8965
G01 X-0.3809 Y39.6915
G01 X-0.3971 Y39.6609
G01 X-0.4072 Y39.6400
G01 X-0.5092 Y39.4097
G01 X-0.5160 Y39.3937
G01 X-0.5246 Y39.3722
G01 X-0.5363 Y39.3396
G01 X-0.6109 Y39.1171
G01 X-0.6162 Y39.1006
G01 X-0.6227 Y39.0784
G01 X-0.6315 Y39.0449
G01 X-0.6852 Y38.8165
G01 X-0.6889 Y38.7996
G01 X-0.6934 Y38.7768
G01 X-0.6990 Y38.7426
G01 X-0.7314 Y38.5103
G01 X-0.7354 Y38.4758
G01 X-0.7373 Y38.4527
G01 X-0.7383 Y38.4354
G01 X-0.7492 Y38.2011
G01 X-0.7500 Y38.1635
G01 X-0.7498 Y25.4451
G01 X-0.7490 Y25.4236
G01 X-0.7368 Y25.1746
G01 X-0.7357 Y25.1562
G01 X-0.7335 Y25.1317
G01 X-0.7290 Y25.0952
G01 X-0.6924 Y24.8486
G01 X-0.6895 Y24.8304
G01 X-0.6849 Y24.8062
G01 X-0.6768 Y24.7703
G01 X-0.6163 Y24.5285
G01 X-0.6116 Y24.5107
G01 X-0.6046 Y24.4871
G01 X-0.5931 Y24.4521
G01 X-0.5091 Y24.2174
G01 X-0.5027 Y24.2002
G01 X-0.4935 Y24.1773
G01 X-0.4786 Y24.1437
G01 X-0.3720 Y23.9183
G01 X-0.3639 Y23.9018
G01 X-0.3525 Y23.8799
G01 X-0.3344 Y23.8479
G01 X-0.2062 Y23.6341
G01 X-0.1966 Y23.6184
G01 X-0.1831 Y23.5978
G01 X-0.1619 Y23.5677
G01 X-0.0134 Y23.3675
G01 X-0.0022 Y23.3529
G01 X0.0132 Y23.3337
G01 X0.0373 Y23.3058
G01 X0.2047 Y23.1211
G01 X0.2300 Y23.0945
G01 X0.2476 Y23.0772
G01 X0.2611 Y23.0647
G01 X0.4458 Y22.8973
G01 X0.4596 Y22.8851
G01 X0.4785 Y22.8693
G01 X0.5075 Y22.8466
G01 X0.7077 Y22.6981
G01 X0.7227 Y22.6874
G01 X0.7430 Y22.6735
G01 X0.7741 Y22.6538
G01 X0.9879 Y22.5256
G01 X1.0038 Y22.5164
G01 X1.0254 Y22.5045
G01 X1.0583 Y22.4880
G01 X1.2837 Y22.3814
G01 X1.3004 Y22.3738
G01 X1.3231 Y22.3641
G01 X1.3574 Y22.3509
G01 X1.5921 Y22.2669
G01 X1.6095 Y22.2609
G01 X1.6330 Y22.2535
G01 X1.6685 Y22.2437
G01 X1.9103 Y22.1832
G01 X1.9282 Y22.1789
G01 X1.9523 Y22.1739
G01 X1.9886 Y22.1676
G01 X2.2352 Y22.1310
G01 X2.2717 Y22.1265
G01 X2.2962 Y22.1243
G01 X2.3146 Y22.1232
G01 X2.5636 Y22.1110
G01 X2.5851 Y22.1102
G01 X7.7023 Y22.1102
G00 Z2.0000
G00 X22.8950 Y21.1965
G01 F60.00
G01 Z-2.4000
G01 F120.00
G01 X22.6516 Y21.1853
G01 X22.6170 Y21.1829
G01 X22.5939 Y21.1806
G01 X22.5767 Y21.1784
G01 X22.3444 Y21.1460
G01 X22.3273 Y21.1434
G01 X22.3044 Y21.1393
G01 X22.2705 Y21.1322
G01 X22.0421 Y21.0785
G01 X22.0253 Y21.0743
G01 X22.0030 Y21.0681
G01 X21.9699 Y21.0579
G01 X21.7474 Y20.9833
G01 X21.7311 Y20.9776
G01 X21.7094 Y20.9694
G01 X21.6773 Y20.9562
G01 X21.4627 Y20.8614
G01 X21.4470 Y20.8542
G01 X21.4261 Y20.8441
G01 X21.3955 Y20.8279
G01 X21.1905 Y20.7138
G01 X21.1606 Y20.6962
G01 X21.1410 Y20.6838
G01 X21.1266 Y20.6742
G01 X20.9331 Y20.5416
G01 X20.9189 Y20.5317
G01 X20.9002 Y20.5179
G01 X20.8731 Y20.4963
G01 X20.6926 Y20.3465
G01 X20.6794 Y20.3352
G01 X20.6621 Y20.3198
G01 X20.6371 Y20.2958
G01 X20.4712 Y20.1299
G01 X20.4591 Y20.1175
G01 X20.4433 Y20.1005
G01 X20.4205 Y20.0744
G01 X20.2707 Y19.8939
G01 X20.2491 Y19.8668
G01 X20.2353 Y19.8481
G01 X20.2254 Y19.8339
G01 X20.0928 Y19.6404
G01 X20.0832 Y19.6260
G01 X20.0708 Y19.6064
G01 X20.0532 Y19.5765
G01 X19.9391 Y19.3715
G01 X19.9308 Y19.3563
G01 X19.9203 Y19.3356
G01 X19.9056 Y19.3043
G01 X19.8108 Y19.0897
G01 X19.8040 Y19.0737
G01 X19.7954 Y19.0522
G01 X19.7837 Y19.0196
G01 X19.7091 Y18.7971
G01 X19.7038 Y18.7806
G01 X19.6973 Y18.7584
G01 X19.6885 Y18.7249
G01 X19.6348 Y18.4965
G01 X19.6277 Y18.4626
G01 X19.6236 Y18.4397
G01 X19.6210 Y18.4226
G01 X19.5886 Y18.1903
G01 X19.5846 Y18.1558
G01 X19.5827 Y18.1327
G01 X19.5817 Y18.1154
G01 X19.5708 Y17.8811
G01 X19.5700 Y17.8435
G01 X19.5700 Y12.7835
G01 X19.5485 Y12.3454
G01 X19.4870 Y11.9313
G01 X19.3853 Y11.5253
G01 X19.2443 Y11.1312
G01 X19.0653 Y10.7528
G01 X18.8501 Y10.3937
G01 X18.6008 Y10.0575
G01 X18.3197 Y9.7473
G01 X18.0095 Y9.4662
G01 X17.6733 Y9.2169
G01 X17.3142 Y9.0017
G01 X16.9358 Y8.8227
G01 X16.5417 Y8.6817
G01 X16.1357 Y8.5800
G01 X15.7216 Y8.5185
G01 X15.2648 Y8.4961
G01 X15.0316 Y8.4853
G01 X14.9970 Y8.4829
G01 X14.9739 Y8.4806
G01 X14.7244 Y8.4460
G01 X14.6902 Y8.4404
G01 X14.6674 Y8.4359
G01 X14.6505 Y8.4322
G01 X14.4221 Y8.3785
G01 X14.4053 Y8.3743
G01 X14.3830 Y8.3681
G01 X14.3499 Y8.3579
G01 X14.1274 Y8.2833
G01 X14.1111 Y8.2776
G01 X14.0894 Y8.2694
G01 X14.0573 Y8.2562
G01 X13.8427 Y8.1614
G01 X13.8270 Y8.1542
G01 X13.8061 Y8.1441
G01 X13.7755 Y8.1279
G01 X13.5555 Y8.0052
G01 X13.5356 Y7.9931
G01 X13.5066 Y7.9742
G01 X13.3131 Y7.8416
G01 X13.2989 Y7.8317
G01 X13.2802 Y7.8179
G01 X13.2531 Y7.7963
G01 X13.0726 Y7.6465
G01 X13.0594 Y7.6352
G01 X13.0421 Y7.6198
G01 X13.0171 Y7.5958
G01 X12.8512 Y7.4299
G01 X12.8391 Y7.4175
G01 X12.8233 Y7.4005
G01 X12.8005 Y7.3744
G01 X12.6507 Y7.1939
G01 X12.6291 Y7.1668
G01 X12.6153 Y7.1481
G01 X12.6054 Y7.1339
G01 X12.4728 Y6.9404
G01 X12.4632 Y6.9260
G01 X12.4508 Y6.9064
G01 X12.4332 Y6.8765
G01 X12.3191 Y6.6715
G01 X12.3029 Y6.6409
G01 X12.2928 Y6.6200
G01 X12.1908 Y6.3897
G01 X12.1840 Y6.3737
G01 X12.1754 Y6.3522
G01 X12.1637 Y6.3196
G01 X12.0891 Y6.0971
G01 X12.0838 Y6.0806
G01 X12.0773 Y6.0584
G01 X12.0685 Y6.0249
G01 X12.0148 Y5.7965
G01 X12.0111 Y5.7796
G01 X12.0066 Y5.7568
G01 X12.0010 Y5.7226
G01 X11.9686 Y5.4903
G01 X11.9664 Y5.4731
G01 X11.9641 Y5.4500
G01 X11.9617 Y5.4154
G01 X11.9508 Y5.1811
G01 X11.9502 Y5.1632
G01 X11.9500 Y5.1393
G01 X11.9510 Y5.1036
G01 X11.9632 Y4.8546
G01 X11.9659 Y4.8179
G01 X11.9685 Y4.7934
G01 X11.9710 Y4.7752
G01 X12.0076 Y4.5286
G01 X12.0139 Y4.4923
G01 X12.0189 Y4.4682
G01 X12.0232 Y4.4503
G01 X12.0837 Y4.2085
G01 X12.0935 Y4.1730
G01 X12.1009 Y4.1495
G01 X12.1069 Y4.1321
G01 X12.1909 Y3.8974
G01 X12.1973 Y3.8802
G01 X12.2065 Y3.8573
G01 X12.2214 Y3.8237
G01 X12.3280 Y3.5983
G01 X12.3445 Y3.5654
G01 X12.3564 Y3.5438
G01 X12.3656 Y3.5279
G01 X12.4938 Y3.3141
G01 X12.5135 Y3.2830
G01 X12.5274 Y3.2627
G01 X12.5381 Y3.2477
G01 X12.6866 Y3.0475
G01 X12.7093 Y3.0185
G01 X12.7251 Y2.9996
G01 X12.7373 Y2.9858
G01 X12.9047 Y2.8011
G01 X12.9300 Y2.7745
G01 X12.9476 Y2.7572
G01 X12.9611 Y2.7447
G01 X13.1458 Y2.5773
G01 X13.1737 Y2.5532
G01 X13.1929 Y2.5378
G01 X13.2075 Y2.5266
G01 X13.4077 Y2.3781
G01 X13.4378 Y2.3569
G01 X13.4584 Y2.3434
G01 X13.4741 Y2.3338
G01 X13.6879 Y2.2056
G01 X13.7199 Y2.1875
G01 X13.7418 Y2.1761
G01 X13.7583 Y2.1680
G01 X13.9837 Y2.0614
G01 X14.0004 Y2.0538
G01 X14.0231 Y2.0441
G01 X14.0574 Y2.0309
G01 X14.2921 Y1.9469
G01 X14.3271 Y1.9354
G01 X14.3507 Y1.9284
G01 X14.3685 Y1.9237
G01 X14.6103 Y1.8632
G01 X14.6462 Y1.8551
G01 X14.6704 Y1.8505
G01 X14.6886 Y1.8476
G01 X14.9352 Y1.8110
G01 X14.9717 Y1.8065
G01 X14.9962 Y1.8043
G01 X15.0146 Y1.8032
G01 X15.2636 Y1.7910
G01 X15.2851 Y1.7902
G01 X28.0035 Y1.7900
G01 X28.0434 Y1.7910
G01 X28.2924 Y1.8032
G01 X28.3108 Y1.8043
G01 X28.3353 Y1.8065
G01 X28.3718 Y1.8110
G01 X28.6184 Y1.8476
G01 X28.6366 Y1.8505
G01 X28.6608 Y1.8551
G01 X28.6967 Y1.8632
G01 X28.9385 Y1.9237
G01 X28.9563 Y1.9284
G01 X28.9799 Y1.9354
G01 X29.0149 Y1.9469
G01 X29.2496 Y2.0309
G01 X29.2668 Y2.0373
G01 X29.2897 Y2.0465
G01 X29.3233 Y2.0614
G01 X29.5487 Y2.1680
G01 X29.5652 Y2.1761
G01 X29.5871 Y2.1875
G01 X29.6191 Y2.2056
G01 X29.8329 Y2.3338
G01 X29.8486 Y2.3434
G01 X29.8692 Y2.3569
G01 X29.8993 Y2.3781
G01 X30.0995 Y2.5266
G01 X30.1141 Y2.5378
G01 X30.1333 Y2.5532
G01 X30.1612 Y2.5773
G01 X30.3459 Y2.7447
G01 X30.3594 Y2.7572
G01 X30.3770 Y2.7745
G01 X30.4023 Y2.8011
G01 X30.5697 Y2.9858
G01 X30.5819 Y2.9996
G01 X30.5977 Y3.0185
G01 X30.6204 Y3.0475
G01 X30.7689 Y3.2477
G01 X30.7796 Y3.2627
G01 X30.7935 Y3.2830
G01 X30.8132 Y3.3141
G01 X30.9414 Y3.5279
G01 X30.9506 Y3.5438
G01 X30.9625 Y3.5654
G01 X30.9790 Y3.5983
G01 X31.0856 Y3.8237
G01 X31.0932 Y3.8404
G01 X31.1029 Y3.8631
G01 X31.1161 Y3.8974
G01 X31.2001 Y4.1321
G01 X31.2116 Y4.1671
G01 X31.2186 Y4.1907
G01 X31.2233 Y4.2085
G01 X31.2838 Y4.4503
G01 X31.2919 Y4.4862
G01 X31.2965 Y4.5104
G01 X31.2994 Y4.5286
G01 X31.3360 Y4.7752
G01 X31.3405 Y4.8117
G01 X31.3427 Y4.8362
G01 X31.3438 Y4.8546
G01 X31.3560 Y5.1036
G01 X31.3568 Y5.1251
G01 X31.3570 Y17.8435
G01 X31.3562 Y17.8811
G01 X31.3453 Y18.1154
G01 X31.3443 Y18.1327
G01 X31.3424 Y18.1558
G01 X31.3384 Y18.1903
G01 X31.3060 Y18.4226
G01 X31.3034 Y18.4397
G01 X31.2993 Y18.4626
G01 X31.2922 Y18.4965
G01 X31.2385 Y18.7249
G01 X31.2343 Y18.7417
G01 X31.2281 Y18.7640
G01 X31.2179 Y18.7971
G01 X31.1433 Y19.0196
G01 X31.1376 Y19.0359
G01 X31.1294 Y19.0576
G01 X31.1162 Y19.0897
G01 X31.0142 Y19.3200
G01 X31.0041 Y19.3409
G01 X30.9879 Y19.3715
G01 X30.8738 Y19.5765
G01 X30.8652 Y19.5915
G01 X30.8531 Y19.6114
G01 X30.8342 Y19.6404
G01 X30.7016 Y19.8339
G01 X30.6917 Y19.8481
G01 X30.6779 Y19.8668
G01 X30.6563 Y19.8939
G01 X30.5065 Y20.0744
G01 X30.4952 Y20.0876
G01 X30.4798 Y20.1049
G01 X30.4558 Y20.1299
G01 X30.2899 Y20.2958
G01 X30.2775 Y20.3079
G01 X30.2605 Y20.3237
G01 X30.2344 Y20.3465
G01 X30.0539 Y20.4963
G01 X30.0268 Y20.5179
G01 X30.0081 Y20.5317
G01 X29.9939 Y20.5416
G01 X29.8004 Y20.6742
G01 X29.7860 Y20.6838
G01 X29.7664 Y20.6962
G01 X29.7365 Y20.7138
G01 X29.5315 Y20.8279
G01 X29.5163 Y20.8362
G01 X29.4956 Y20.8467
G01 X29.4643 Y20.8614
G01 X29.2497 Y20.9562
G01 X29.2337 Y20.9630
G01 X29.2122 Y20.9716
G01 X29.1796 Y20.9833
G01 X28.9571 Y21.0579
G01 X28.9406 Y21.0632
G01 X28.9184 Y21.0697
G01 X28.8849 Y21.0785
G01 X28.6565 Y21.1322
G01 X28.6396 Y21.1359
G01 X28.6168 Y21.1404
G01 X28.5826 Y21.1460
G01 X28.3503 Y21.1784
G01 X28.3158 Y21.1824
G01 X28.2927 Y21.1843
G01 X28.2754 Y21.1853
G01 X28.0411 Y21.1962
G01 X28.0035 Y21.1970
G01 X22.9235 Y21.1970
G01 X22.8950 Y21.1965
G00 Z2.0000
G00 X22.8950 Y41.5165
G01 F60.00
G01 Z-2.4000
G01 F120.00
G01 X22.6516 Y41.5053
G01 X22.6170 Y41.5029
G01 X22.5939 Y41.5006
G01 X22.5767 Y41.4984
G01 X22.3444 Y41.4660
G01 X22.3273 Y41.4634
G01 X22.3044 Y41.4593
G01 X22.2705 Y41.4522
G01 X22.0421 Y41.3985
G01 X22.0253 Y41.3943
G01 X22.0030 Y41.3881
G01 X21.9699 Y41.3779
G01 X21.7474 Y41.3033
G01 X21.7311 Y41.2976
G01 X21.7094 Y41.2894
G01 X21.6773 Y41.2762
G01 X21.4627 Y41.1814
G01 X21.4470 Y41.1742
G01 X21.4261 Y41.1641
G01 X21.3955 Y41.1479
G01 X21.1905 Y41.0338
G01 X21.1606 Y41.0162
G01 X21.1410 Y41.0038
G01 X21.1266 Y40.9942
G01 X20.9331 Y40.8616
G01 X20.9189 Y40.8517
G01 X20.9002 Y40.8379
G01 X20.8731 Y40.8163
G01 X20.6926 Y40.6665
G01 X20.6794 Y40.6552
G01 X20.6621 Y40.6398
G01 X20.6371 Y40.6158
G01 X20.4712 Y40.4499
G01 X20.4591 Y40.4375
G01 X20.4433 Y40.4205
G01 X20.4205 Y40.3944
G01 X20.2707 Y40.2139
G01 X20.2491 Y40.1868
G01 X20.2353 Y40.1681
G01 X20.2254 Y40.1539
G01 X20.0928 Y39.9604
G01 X20.0832 Y39.9460
G01 X20.0708 Y39.9264
G01 X20.0532 Y39.8965
G01 X19.9391 Y39.6915
G01 X19.9308 Y39.6763
G01 X19.9203 Y39.6556
G01 X19.9056 Y39.6243
G01 X19.8108 Y39.4097
G01 X19.8040 Y39.3937
G01 X19.7954 Y39.3722
G01 X19.7837 Y39.3396
G01 X19.7091 Y39.1171
G01 X19.7038 Y39.1006
G01 X19.6973 Y39.0784
G01 X19.6885 Y39.0449
G01 X19.6348 Y38.8165
G01 X19.6277 Y38.7826
G01 X19.6236 Y38.7597
G01 X19.6210 Y38.7426
G01 X19.5886 Y38.5103
G01 X19.5846 Y38.4758
G01 X19.5827 Y38.4527
G01 X19.5817 Y38.4354
G01 X19.5708 Y38.2011
G01 X19.5700 Y38.1635
G01 X19.5700 Y33.1023
G01 X19.5509 Y32.6899
G01 X19.4965 Y32.2997
G01 X19.4063 Y31.9162
G01 X19.2811 Y31.5426
G01 X19.1219 Y31.1822
G01 X18.9302 Y30.8380
G01 X18.7075 Y30.5129
G01 X18.4558 Y30.2098
G01 X18.1772 Y29.9312
G01 X17.8741 Y29.6795
G01 X17.5491 Y29.4568
G01 X17.2048 Y29.2651
G01 X16.8444 Y29.1059
G01 X16.4708 Y28.9807
G01 X16.0873 Y28.8905
G01 X15.6971 Y28.8361
G01 X15.0143 Y28.8043
G01 X14.9912 Y28.8024
G01 X14.9567 Y28.7984
G01 X14.7244 Y28.7660
G01 X14.6902 Y28.7604
G01 X14.6674 Y28.7559
G01 X14.4221 Y28.6985
G01 X14.3886 Y28.6897
G01 X14.3664 Y28.6832
G01 X14.3499 Y28.6779
G01 X14.1274 Y28.6033
G01 X14.1111 Y28.5976
G01 X14.0894 Y28.5894
G01 X14.0573 Y28.5762
G01 X13.8427 Y28.4814
G01 X13.8270 Y28.4742
G01 X13.8061 Y28.4641
G01 X13.7755 Y28.4479
G01 X13.5705 Y28.3338
G01 X13.5555 Y28.3252
G01 X13.5356 Y28.3131
G01 X13.5066 Y28.2942
G01 X13.3131 Y28.1616
G01 X13.2989 Y28.1517
G01 X13.2802 Y28.1379
G01 X13.2531 Y28.1163
G01 X13.0726 Y27.9665
G01 X13.0465 Y27.9437
G01 X13.0295 Y27.9279
G01 X13.0171 Y27.9158
G01 X12.8512 Y27.7499
G01 X12.8391 Y27.7375
G01 X12.8233 Y27.7205
G01 X12.8005 Y27.6944
G01 X12.6507 Y27.5139
G01 X12.6397 Y27.5005
G01 X12.6256 Y27.4821
G01 X12.6054 Y27.4539
G01 X12.4728 Y27.2604
G01 X12.4632 Y27.2460
G01 X12.4508 Y27.2264
G01 X12.4332 Y27.1965
G01 X12.3191 Y26.9915
G01 X12.3029 Y26.9609
G01 X12.2928 Y26.9400
G01 X12.1908 Y26.7097
G01 X12.1840 Y26.6937
G01 X12.1754 Y26.6722
G01 X12.1637 Y26.6396
G01 X12.0891 Y26.4171
G01 X12.0838 Y26.4006
G01 X12.0773 Y26.3784
G01 X12.0685 Y26.3449
G01 X12.0148 Y26.1165
G01 X12.0111 Y26.0996
G01 X12.0066 Y26.0768
G01 X12.0010 Y26.0426
G01 X11.9686 Y25.8103
G01 X11.9664 Y25.7931
G01 X11.9641 Y25.7700
G01 X11.9617 Y25.7354
G01 X11.9508 Y25.5011
G01 X11.9502 Y25.4832
G01 X11.9500 Y25.4593
G01 X11.9510 Y25.4236
G01 X11.9632 Y25.1746
G01 X11.9659 Y25.1379
G01 X11.9685 Y25.1134
G01 X11.9710 Y25.0952
G01 X12.0076 Y24.8486
G01 X12.0139 Y24.8123
G01 X12.0189 Y24.7882
G01 X12.0232 Y24.7703
G01 X12.0837 Y24.5285
G01 X12.0935 Y24.4930
G01 X12.1009 Y24.4695
G01 X12.1069 Y24.4521
G01 X12.1909 Y24.2174
G01 X12.1973 Y24.2002
G01 X12.2065 Y24.1773
G01 X12.2214 Y24.1437
G01 X12.3280 Y23.9183
G01 X12.3445 Y23.8854
G01 X12.3564 Y23.8638
G01 X12.3656 Y23.8479
G01 X12.4938 Y23.6341
G01 X12.5135 Y23.6030
G01 X12.5274 Y23.5827
G01 X12.5381 Y23.5677
G01 X12.6866 Y23.3675
G01 X12.7093 Y23.3385
G01 X12.7251 Y23.3196
G01 X12.7373 Y23.3058
G01 X12.9047 Y23.1211
G01 X12.9300 Y23.0945
G01 X12.9476 Y23.0772
G01 X12.9611 Y23.0647
G01 X13.1458 Y22.8973
G01 X13.1737 Y22.8732
G01 X13.1929 Y22.8578
G01 X13.2075 Y22.8466
G01 X13.4077 Y22.6981
G01 X13.4378 Y22.6769
G01 X13.4584 Y22.6634
G01 X13.4741 Y22.6538
G01 X13.6879 Y22.5256
G01 X13.7199 Y22.5075
G01 X13.7418 Y22.4961
G01 X13.7583 Y22.4880
G01 X13.9837 Y22.3814
G01 X14.0004 Y22.3738
G01 X14.0231 Y22.3641
G01 X14.0574 Y22.3509
G01 X14.2921 Y22.2669
G01 X14.3271 Y22.2554
G01 X14.3507 Y22.2484
G01 X14.3685 Y22.2437
G01 X14.6103 Y22.1832
G01 X14.6462 Y22.1751
G01 X14.6704 Y22.1705
G01 X14.6886 Y22.1676
G01 X14.9352 Y22.1310
G01 X14.9717 Y22.1265
G01 X14.9962 Y22.1243
G01 X15.0146 Y22.1232
G01 X15.2636 Y22.1110
G01 X15.2851 Y22.1102
G01 X28.0035 Y22.1100
G01 X28.0434 Y22.1110
G01 X28.2924 Y22.1232
G01 X28.3108 Y22.1243
G01 X28.3353 Y22.1265
G01 X28.3718 Y22.1310
G01 X28.6184 Y22.1676
G01 X28.6366 Y22.1705
G01 X28.6608 Y22.1751
G01 X28.6967 Y22.1832
G01 X28.9385 Y22.2437
G01 X28.9563 Y22.2484
G01 X28.9799 Y22.2554
G01 X29.0149 Y22.2669
G01 X29.2496 Y22.3509
G01 X29.2668 Y22.3573
G01 X29.2897 Y22.3665
G01 X29.3233 Y22.3814
G01 X29.5487 Y22.4880
G01 X29.5652 Y22.4961
G01 X29.5871 Y22.5075
G01 X29.6191 Y22.5256
G01 X29.8329 Y22.6538
G01 X29.8486 Y22.6634
G01 X29.8692 Y22.6769
G01 X29.8993 Y22.6981
G01 X30.0995 Y22.8466
G01 X30.1141 Y22.8578
G01 X30.1333 Y22.8732
G01 X30.1612 Y22.8973
G01 X30.3459 Y23.0647
G01 X30.3594 Y23.0772
G01 X30.3770 Y23.0945
G01 X30.4023 Y23.1211
G01 X30.5697 Y23.3058
G01 X30.5819 Y23.3196
G01 X30.5977 Y23.3385
G01 X30.6204 Y23.3675
G01 X30.7689 Y23.5677
G01 X30.7796 Y23.5827
G01 X30.7935 Y23.6030
G01 X30.8132 Y23.6341
G01 X30.9414 Y23.8479
G01 X30.9506 Y23.8638
G01 X30.9625 Y23.8854
G01 X30.9790 Y23.9183
G01 X31.0856 Y24.1437
G01 X31.0932 Y24.1604
G01 X31.1029 Y24.1831
G01 X31.1161 Y24.2174
G01 X31.2001 Y24.4521
G01 X31.2116 Y24.4871
G01 X31.2186 Y24.5107
G01 X31.2233 Y24.5285
G01 X31.2838 Y24.7703
G01 X31.2919 Y24.8062
G01 X31.2965 Y24.8304
G01 X31.2994 Y24.8486
G01 X31.3360 Y25.0952
G01 X31.3405 Y25.1317
G01 X31.3427 Y25.1562
G01 X31.3438 Y25.1746
G01 X31.3560 Y25.4236
G01 X31.3570 Y25.4635
G01 X31.3568 Y38.1819
G01 X31.3560 Y38.2034
G01 X31.3438 Y38.4524
G01 X31.3427 Y38.4708
G01 X31.3405 Y38.4953
G01 X31.3360 Y38.5318
G01 X31.2994 Y38.7784
G01 X31.2965 Y38.7966
G01 X31.2919 Y38.8208
G01 X31.2838 Y38.8567
G01 X31.2233 Y39.0985
G01 X31.2186 Y39.1163
G01 X31.2116 Y39.1399
G01 X31.2001 Y39.1749
G01 X31.1161 Y39.4096
G01 X31.1097 Y39.4268
G01 X31.1005 Y39.4497
G01 X31.0856 Y39.4833
G01 X30.9790 Y39.7087
G01 X30.9709 Y39.7252
G01 X30.9595 Y39.7471
G01 X30.9414 Y39.7791
G01 X30.8132 Y39.9929
G01 X30.8036 Y40.0086
G01 X30.7901 Y40.0292
G01 X30.7689 Y40.0593
G01 X30.6204 Y40.2595
G01 X30.6092 Y40.2741
G01 X30.5938 Y40.2933
G01 X30.5697 Y40.3212
G01 X30.4023 Y40.5059
G01 X30.3770 Y40.5325
G01 X30.3594 Y40.5498
G01 X30.3459 Y40.5623
G01 X30.1612 Y40.7297
G01 X30.1474 Y40.7419
G01 X30.1285 Y40.7577
G01 X30.0995 Y40.7804
G01 X29.8993 Y40.9289
G01 X29.8843 Y40.9396
G01 X29.8640 Y40.9535
G01 X29.8329 Y40.9732
G01 X29.6191 Y41.1014
G01 X29.6032 Y41.1106
G01 X29.5816 Y41.1225
G01 X29.5487 Y41.1390
G01 X29.3233 Y41.2456
G01 X29.3066 Y41.2532
G01 X29.2839 Y41.2629
G01 X29.2496 Y41.2761
G01 X29.0149 Y41.3601
G01 X28.9975 Y41.3661
G01 X28.9740 Y41.3735
G01 X28.9385 Y41.3833
G01 X28.6967 Y41.4438
G01 X28.6788 Y41.4481
G01 X28.6547 Y41.4531
G01 X28.6184 Y41.4594
G01 X28.3718 Y41.4960
G01 X28.3353 Y41.5005
G01 X28.3108 Y41.5027
G01 X28.2924 Y41.5038
G01 X28.0434 Y41.5160
G01 X28.0219 Y41.5168
G01 X22.9235 Y41.5170
G01 X22.8950 Y41.5165
G00 Z2.0000
G00 X33.0835 Y49.1370
G01 F60.00
G01 Z-2.4000
G01 F120.00
G01 X33.0467 Y49.1361
G01 X33.0221 Y49.1347
G01 X33.0038 Y49.1331
G01 X32.9855 Y49.1311
G01 X32.9611 Y49.1277
G01 X32.9248 Y49.1214
G01 X32.9068 Y49.1176
G01 X32.8828 Y49.1118
G01 X32.8473 Y49.1020
G01 X32.8298 Y49.0964
G01 X32.8065 Y49.0884
G01 X32.7722 Y49.0751
G01 X32.7385 Y49.0602
G01 X32.7163 Y49.0494
G01 X32.7000 Y49.0410
G01 X32.6839 Y49.0321
G01 X32.6626 Y49.0196
G01 X32.6315 Y48.9999
G01 X32.6163 Y48.9895
G01 X32.5964 Y48.9750
G01 X32.5674 Y48.9524
G01 X32.5395 Y48.9283
G01 X32.5214 Y48.9116
G01 X32.5082 Y48.8988
G01 X32.4954 Y48.8856
G01 X32.4787 Y48.8675
G01 X32.4546 Y48.8396
G01 X32.4320 Y48.8106
G01 X32.4175 Y48.7907
G01 X32.4071 Y48.7755
G01 X32.3970 Y48.7600
G01 X32.3842 Y48.7390
G01 X32.3660 Y48.7070
G01 X32.3495 Y48.6741
G01 X32.3391 Y48.6517
G01 X32.3319 Y48.6348
G01 X32.3186 Y48.6005
G01 X32.3106 Y48.5772
G01 X32.3050 Y48.5597
G01 X32.2952 Y48.5242
G01 X32.2894 Y48.5002
G01 X32.2856 Y48.4822
G01 X32.2822 Y48.4641
G01 X32.2784 Y48.4398
G01 X32.2739 Y48.4032
G01 X32.2712 Y48.3665
G01 X32.2702 Y48.3419
G01 X32.2702 Y25.4451
G01 X32.2723 Y25.4021
G01 X32.2759 Y25.3655
G01 X32.2784 Y25.3472
G01 X32.2822 Y25.3229
G01 X32.2856 Y25.3048
G01 X32.2894 Y25.2868
G01 X32.2952 Y25.2628
G01 X32.3050 Y25.2273
G01 X32.3106 Y25.2098
G01 X32.3251 Y25.1693
G01 X32.3319 Y25.1522
G01 X32.3468 Y25.1185
G01 X32.3576 Y25.0963
G01 X32.3660 Y25.0800
G01 X32.3749 Y25.0639
G01 X32.3874 Y25.0426
G01 X32.3970 Y25.0270
G01 X32.4175 Y24.9963
G01 X32.4431 Y24.9618
G01 X32.4546 Y24.9474
G01 X32.4787 Y24.9195
G01 X32.4954 Y24.9014
G01 X32.5082 Y24.8882
G01 X32.5349 Y24.8629
G01 X32.5533 Y24.8465
G01 X32.5674 Y24.8346
G01 X32.5964 Y24.8120
G01 X32.6163 Y24.7975
G01 X32.6315 Y24.7871
G01 X32.6626 Y24.7674
G01 X32.6839 Y24.7549
G01 X32.7163 Y24.7376
G01 X32.7385 Y24.7268
G01 X32.7553 Y24.7191
G01 X32.7893 Y24.7051
G01 X32.8124 Y24.6965
G01 X32.8473 Y24.6850
G01 X32.8828 Y24.6752
G01 X32.9068 Y24.6694
G01 X32.9429 Y24.6622
G01 X32.9672 Y24.6584
G01 X33.0038 Y24.6539
G01 X33.0221 Y24.6523
G01 X33.0467 Y24.6509
G01 X33.0835 Y24.6500
G01 X68.6435 Y24.6500
G01 X68.6619 Y24.6502
G01 X68.6865 Y24.6512
G01 X68.7232 Y24.6539
G01 X68.7415 Y24.6559
G01 X68.7659 Y24.6593
G01 X68.8022 Y24.6656
G01 X68.8202 Y24.6694
G01 X68.8442 Y24.6752
G01 X68.8620 Y24.6799
G01 X68.8972 Y24.6906
G01 X68.9377 Y24.7051
G01 X68.9717 Y24.7191
G01 X68.9885 Y24.7268
G01 X69.0107 Y24.7376
G01 X69.0270 Y24.7460
G01 X69.0431 Y24.7549
G01 X69.0644 Y24.7674
G01 X69.0955 Y24.7871
G01 X69.1107 Y24.7975
G01 X69.1452 Y24.8231
G01 X69.1596 Y24.8346
G01 X69.1875 Y24.8587
G01 X69.2056 Y24.8754
G01 X69.2188 Y24.8882
G01 X69.2441 Y24.9149
G01 X69.2605 Y24.9333
G01 X69.2839 Y24.9618
G01 X69.2950 Y24.9764
G01 X69.3095 Y24.9963
G01 X69.3199 Y25.0115
G01 X69.3396 Y25.0426
G01 X69.3521 Y25.0639
G01 X69.3694 Y25.0963
G01 X69.3802 Y25.1185
G01 X69.3951 Y25.1522
G01 X69.4019 Y25.1693
G01 X69.4105 Y25.1924
G01 X69.4220 Y25.2273
G01 X69.4318 Y25.2628
G01 X69.4376 Y25.2868
G01 X69.4448 Y25.3229
G01 X69.4486 Y25.3472
G01 X69.4511 Y25.3655
G01 X69.4547 Y25.4021
G01 X69.4561 Y25.4267
G01 X69.4570 Y25.4635
G01 X69.4570 Y48.3235
G01 X69.4568 Y48.3419
G01 X69.4558 Y48.3665
G01 X69.4531 Y48.4032
G01 X69.4511 Y48.4215
G01 X69.4477 Y48.4459
G01 X69.4414 Y48.4822
G01 X69.4376 Y48.5002
G01 X69.4318 Y48.5242
G01 X69.4271 Y48.5420
G01 X69.4164 Y48.5772
G01 X69.4019 Y48.6177
G01 X69.3879 Y48.6517
G01 X69.3802 Y48.6685
G01 X69.3694 Y48.6907
G01 X69.3610 Y48.7070
G01 X69.3521 Y48.7231
G01 X69.3396 Y48.7444
G01 X69.3300 Y48.7600
G01 X69.3095 Y48.7907
G01 X69.2839 Y48.8252
G01 X69.2724 Y48.8396
G01 X69.2483 Y48.8675
G01 X69.2316 Y48.8856
G01 X69.2188 Y48.8988
G01 X69.1921 Y48.9241
G01 X69.1737 Y48.9405
G01 X69.1452 Y48.9639
G01 X69.1306 Y48.9750
G01 X69.1107 Y48.9895
G01 X69.0955 Y48.9999
G01 X69.0644 Y49.0196
G01 X69.0431 Y49.0321
G01 X69.0270 Y49.0410
G01 X68.9941 Y49.0575
G01 X68.9717 Y49.0679
G01 X68.9377 Y49.0819
G01 X68.9146 Y49.0905
G01 X68.8797 Y49.1020
G01 X68.8442 Y49.1118
G01 X68.8202 Y49.1176
G01 X68.7841 Y49.1248
G01 X68.7598 Y49.1286
G01 X68.7232 Y49.1331
G01 X68.7049 Y49.1347
G01 X68.6803 Y49.1361
G01 X68.6435 Y49.1370
G01 X33.0835 Y49.1370
G00 Z2.0000
G00 X43.2635 Y50.0503
G01 F60.00
G01 Z-2.4000
G01 F120.00
G01 X43.2834 Y50.0510
G01 X43.5324 Y50.0632
G01 X43.5691 Y50.0659
G01 X43.5936 Y50.0685
G01 X43.6118 Y50.0710
G01 X43.8584 Y50.1076
G01 X43.8766 Y50.1105
G01 X43.9008 Y50.1151
G01 X43.9367 Y50.1232
G01 X44.1785 Y50.1837
G01 X44.1963 Y50.1884
G01 X44.2199 Y50.1954
G01 X44.2549 Y50.2069
G01 X44.4896 Y50.2909
G01 X44.5239 Y50.3041
G01 X44.5466 Y50.3138
G01 X44.5633 Y50.3214
G01 X44.7887 Y50.4280
G01 X44.8052 Y50.4361
G01 X44.8271 Y50.4475
G01 X44.8591 Y50.4656
G01 X45.0729 Y50.5938
G01 X45.0886 Y50.6034
G01 X45.1092 Y50.6169
G01 X45.1393 Y50.6381
G01 X45.3395 Y50.7866
G01 X45.3685 Y50.8093
G01 X45.3874 Y50.8251
G01 X45.4012 Y50.8373
G01 X45.5859 Y51.0047
G01 X45.5994 Y51.0172
G01 X45.6170 Y51.0345
G01 X45.6423 Y51.0611
G01 X45.8097 Y51.2458
G01 X45.8219 Y51.2596
G01 X45.8377 Y51.2785
G01 X45.8604 Y51.3075
G01 X46.0089 Y51.5077
G01 X46.0301 Y51.5378
G01 X46.0436 Y51.5584
G01 X46.0532 Y51.5741
G01 X46.1814 Y51.7879
G01 X46.1906 Y51.8038
G01 X46.2025 Y51.8254
G01 X46.2190 Y51.8583
G01 X46.3256 Y52.0837
G01 X46.3405 Y52.1173
G01 X46.3497 Y52.1402
G01 X46.4401 Y52.3921
G01 X46.4461 Y52.4095
G01 X46.4535 Y52.4330
G01 X46.4633 Y52.4685
G01 X46.5238 Y52.7103
G01 X46.5319 Y52.7462
G01 X46.5365 Y52.7704
G01 X46.5394 Y52.7886
G01 X46.5760 Y53.0352
G01 X46.5805 Y53.0717
G01 X46.5827 Y53.0962
G01 X46.5838 Y53.1146
G01 X46.5960 Y53.3636
G01 X46.5970 Y53.4035
G01 X46.5970 Y58.4635
G01 X46.6185 Y58.9016
G01 X46.6800 Y59.3157
G01 X46.7817 Y59.7217
G01 X46.9227 Y60.1158
G01 X47.1017 Y60.4942
G01 X47.3169 Y60.8533
G01 X47.5662 Y61.1895
G01 X47.8473 Y61.4997
G01 X48.1575 Y61.7808
G01 X48.4937 Y62.0301
G01 X48.8528 Y62.2453
G01 X49.2312 Y62.4243
G01 X49.6253 Y62.5653
G01 X50.0313 Y62.6670
G01 X50.4454 Y62.7285
G01 X51.1708 Y62.7643
G01 X51.1953 Y62.7665
G01 X51.2318 Y62.7710
G01 X51.4784 Y62.8076
G01 X51.5147 Y62.8139
G01 X51.5388 Y62.8189
G01 X51.7985 Y62.8837
G01 X51.8340 Y62.8935
G01 X51.8575 Y62.9009
G01 X51.8749 Y62.9069
G01 X52.1096 Y62.9909
G01 X52.1268 Y62.9973
G01 X52.1497 Y63.0065
G01 X52.1833 Y63.0214
G01 X52.4087 Y63.1280
G01 X52.4416 Y63.1445
G01 X52.4632 Y63.1564
G01 X52.6929 Y63.2938
G01 X52.7240 Y63.3135
G01 X52.7443 Y63.3274
G01 X52.7593 Y63.3381
G01 X52.9595 Y63.4866
G01 X52.9741 Y63.4978
G01 X52.9933 Y63.5132
G01 X53.0212 Y63.5373
G01 X53.2059 Y63.7047
G01 X53.2194 Y63.7172
G01 X53.2370 Y63.7345
G01 X53.2623 Y63.7611
G01 X53.4297 Y63.9458
G01 X53.4538 Y63.9737
G01 X53.4692 Y63.9929
G01 X53.4804 Y64.0075
G01 X53.6289 Y64.2077
G01 X53.6396 Y64.2227
G01 X53.6535 Y64.2430
G01 X53.6732 Y64.2741
G01 X53.8014 Y64.4879
G01 X53.8106 Y64.5038
G01 X53.8225 Y64.5254
G01 X53.8390 Y64.5583
G01 X53.9456 Y64.7837
G01 X53.9532 Y64.8004
G01 X53.9629 Y64.8231
G01 X53.9761 Y64.8574
G01 X54.0601 Y65.0921
G01 X54.0661 Y65.1095
G01 X54.0735 Y65.1330
G01 X54.0833 Y65.1685
G01 X54.1438 Y65.4103
G01 X54.1481 Y65.4282
G01 X54.1531 Y65.4523
G01 X54.1594 Y65.4886
G01 X54.1960 Y65.7352
G01 X54.1985 Y65.7534
G01 X54.2011 Y65.7779
G01 X54.2038 Y65.8146
G01 X54.2160 Y66.0636
G01 X54.2167 Y66.0820
G01 X54.2170 Y66.1066
G01 X54.2160 Y66.1434
G01 X54.2038 Y66.3924
G01 X54.2027 Y66.4108
G01 X54.2005 Y66.4353
G01 X54.1960 Y66.4718
G01 X54.1594 Y66.7184
G01 X54.1565 Y66.7366
G01 X54.1519 Y66.7608
G01 X54.1438 Y66.7967
G01 X54.0833 Y67.0385
G01 X54.0786 Y67.0563
G01 X54.0716 Y67.0799
G01 X54.0601 Y67.1149
G01 X53.9761 Y67.3496
G01 X53.9697 Y67.3668
G01 X53.9605 Y67.3897
G01 X53.9456 Y67.4233
G01 X53.8390 Y67.6487
G01 X53.8309 Y67.6652
G01 X53.8195 Y67.6871
G01 X53.8014 Y67.7191
G01 X53.6732 Y67.9329
G01 X53.6636 Y67.9486
G01 X53.6501 Y67.9692
G01 X53.6289 Y67.9993
G01 X53.4804 Y68.1995
G01 X53.4692 Y68.2141
G01 X53.4538 Y68.2333
G01 X53.4297 Y68.2612
G01 X53.2623 Y68.4459
G01 X53.2498 Y68.4594
G01 X53.2325 Y68.4770
G01 X53.2059 Y68.5023
G01 X53.0212 Y68.6697
G01 X53.0074 Y68.6819
G01 X52.9885 Y68.6977
G01 X52.9595 Y68.7204
G01 X52.7593 Y68.8689
G01 X52.7443 Y68.8796
G01 X52.7240 Y68.8935
G01 X52.6929 Y68.9132
G01 X52.4791 Y69.0414
G01 X52.4632 Y69.0506
G01 X52.4416 Y69.0625
G01 X52.4087 Y69.0790
G01 X52.1833 Y69.1856
G01 X52.1666 Y69.1932
G01 X52.1439 Y69.2029
G01 X52.1096 Y69.2161
G01 X51.8749 Y69.3001
G01 X51.8575 Y69.3061
G01 X51.8340 Y69.3135
G01 X51.7985 Y69.3233
G01 X51.5567 Y69.3838
G01 X51.5388 Y69.3881
G01 X51.5147 Y69.3931
G01 X51.4784 Y69.3994
G01 X51.2318 Y69.4360
G01 X51.1953 Y69.4405
G01 X51.1708 Y69.4427
G01 X51.1524 Y69.4438
G01 X50.8850 Y69.4567
G01 X50.8635 Y69.4570
G01 X38.1635 Y69.4570
G01 X38.1236 Y69.4560
G01 X37.8562 Y69.4427
G01 X37.8317 Y69.4405
G01 X37.7952 Y69.4360
G01 X37.5486 Y69.3994
G01 X37.5304 Y69.3965
G01 X37.5062 Y69.3919
G01 X37.4703 Y69.3838
G01 X37.2285 Y69.3233
G01 X37.2107 Y69.3186
G01 X37.1871 Y69.3116
G01 X37.1521 Y69.3001
G01 X36.9174 Y69.2161
G01 X36.9002 Y69.2097
G01 X36.8773 Y69.2005
G01 X36.8437 Y69.1856
G01 X36.6183 Y69.0790
G01 X36.6018 Y69.0709
G01 X36.5799 Y69.0595
G01 X36.5479 Y69.0414
G01 X36.3341 Y68.9132
G01 X36.3184 Y68.9036
G01 X36.2978 Y68.8901
G01 X36.2677 Y68.8689
G01 X36.0675 Y68.7204
G01 X36.0529 Y68.7092
G01 X36.0337 Y68.6938
G01 X36.0058 Y68.6697
G01 X35.8211 Y68.5023
G01 X35.8076 Y68.4898
G01 X35.7900 Y68.4725
G01 X35.7647 Y68.4459
G01 X35.5973 Y68.2612
G01 X35.5851 Y68.2474
G01 X35.5693 Y68.2285
G01 X35.5466 Y68.1995
G01 X35.3981 Y67.9993
G01 X35.3874 Y67.9843
G01 X35.3735 Y67.9640
G01 X35.3538 Y67.9329
G01 X35.2256 Y67.7191
G01 X35.2164 Y67.7032
G01 X35.2045 Y67.6816
G01 X35.1880 Y67.6487
G01 X35.0814 Y67.4233
G01 X35.0738 Y67.4066
G01 X35.0641 Y67.3839
G01 X35.0509 Y67.3496
G01 X34.9669 Y67.1149
G01 X34.9609 Y67.0975
G01 X34.9535 Y67.0740
G01 X34.9437 Y67.0385
G01 X34.8832 Y66.7967
G01 X34.8789 Y66.7788
G01 X34.8739 Y66.7547
G01 X34.8676 Y66.7184
G01 X34.8310 Y66.4718
G01 X34.8265 Y66.4353
G01 X34.8243 Y66.4108
G01 X34.8232 Y66.3924
G01 X34.8110 Y66.1434
G01 X34.8100 Y66.1035
G01 X34.8102 Y53.3851
G01 X34.8110 Y53.3636
G01 X34.8232 Y53.1146
G01 X34.8243 Y53.0962
G01 X34.8265 Y53.0717
G01 X34.8310 Y53.0352
G01 X34.8676 Y52.7886
G01 X34.8705 Y52.7704
G01 X34.8751 Y52.7462
G01 X34.8832 Y52.7103
G01 X34.9437 Y52.4685
G01 X34.9484 Y52.4507
G01 X34.9554 Y52.4271
G01 X34.9669 Y52.3921
G01 X35.0509 Y52.1574
G01 X35.0573 Y52.1402
G01 X35.0665 Y52.1173
G01 X35.0814 Y52.0837
G01 X35.1880 Y51.8583
G01 X35.1961 Y51.8418
G01 X35.2075 Y51.8199
G01 X35.2256 Y51.7879
G01 X35.3538 Y51.5741
G01 X35.3634 Y51.5584
G01 X35.3769 Y51.5378
G01 X35.3981 Y51.5077
G01 X35.5466 Y51.3075
G01 X35.5578 Y51.2929
G01 X35.5732 Y51.2737
G01 X35.5973 Y51.2458
G01 X35.7647 Y51.0611
G01 X35.7900 Y51.0345
G01 X35.8076 Y51.0172
G01 X35.8211 Y51.0047
G01 X36.0058 Y50.8373
G01 X36.0196 Y50.8251
G01 X36.0385 Y50.8093
G01 X36.0675 Y50.7866
G01 X36.2677 Y50.6381
G01 X36.2827 Y50.6274
G01 X36.3030 Y50.6135
G01 X36.3341 Y50.5938
G01 X36.5479 Y50.4656
G01 X36.5638 Y50.4564
G01 X36.5854 Y50.4445
G01 X36.6183 Y50.4280
G01 X36.8437 Y50.3214
G01 X36.8604 Y50.3138
G01 X36.8831 Y50.3041
G01 X36.9174 Y50.2909
G01 X37.1521 Y50.2069
G01 X37.1695 Y50.2009
G01 X37.1930 Y50.1935
G01 X37.2285 Y50.1837
G01 X37.4703 Y50.1232
G01 X37.4882 Y50.1189
G01 X37.5123 Y50.1139
G01 X37.5486 Y50.1076
G01 X37.7952 Y50.0710
G01 X37.8317 Y50.0665
G01 X37.8562 Y50.0643
G01 X37.8746 Y50.0632
G01 X38.1236 Y50.0510
G01 X38.1451 Y50.0502
G01 X43.2435 Y50.0500
G01 X43.2635 Y50.0503
G00 Z2.0000
G00 X22.8950 Y61.8365
G01 F60.00
G01 Z-2.4000
G01 F120.00
G01 X22.6516 Y61.8253
G01 X22.6170 Y61.8229
G01 X22.5939 Y61.8206
G01 X22.5767 Y61.8184
G01 X22.3444 Y61.7860
G01 X22.3273 Y61.7834
G01 X22.3044 Y61.7793
G01 X22.2705 Y61.7722
G01 X22.0421 Y61.7185
G01 X22.0253 Y61.7143
G01 X22.0030 Y61.7081
G01 X21.9699 Y61.6979
G01 X21.7474 Y61.6233
G01 X21.7311 Y61.6176
G01 X21.7094 Y61.6094
G01 X21.6773 Y61.5962
G01 X21.4627 Y61.5014
G01 X21.4470 Y61.4942
G01 X21.4261 Y61.4841
G01 X21.3955 Y61.4679
G01 X21.1905 Y61.3538
G01 X21.1606 Y61.3362
G01 X21.1410 Y61.3238
G01 X21.1266 Y61.3142
G01 X20.9331 Y61.1816
G01 X20.9189 Y61.1717
G01 X20.9002 Y61.1579
G01 X20.8731 Y61.1363
G01 X20.6926 Y60.9865
G01 X20.6794 Y60.9752
G01 X20.6621 Y60.9598
G01 X20.6371 Y60.9358
G01 X20.4712 Y60.7699
G01 X20.4591 Y60.7575
G01 X20.4433 Y60.7405
G01 X20.4205 Y60.7144
G01 X20.2707 Y60.5339
G01 X20.2491 Y60.5068
G01 X20.2353 Y60.4881
G01 X20.2254 Y60.4739
G01 X20.0928 Y60.2804
G01 X20.0832 Y60.2660
G01 X20.0708 Y60.2464
G01 X20.0532 Y60.2165
G01 X19.9391 Y60.0115
G01 X19.9308 Y59.9963
G01 X19.9203 Y59.9756
G01 X19.9056 Y59.9443
G01 X19.8108 Y59.7297
G01 X19.8040 Y59.7137
G01 X19.7954 Y59.6922
G01 X19.7837 Y59.6596
G01 X19.7091 Y59.4371
G01 X19.7038 Y59.4206
G01 X19.6973 Y59.3984
G01 X19.6885 Y59.3649
G01 X19.6348 Y59.1365
G01 X19.6277 Y59.1026
G01 X19.6236 Y59.0797
G01 X19.6210 Y59.0626
G01 X19.5886 Y58.8303
G01 X19.5846 Y58.7958
G01 X19.5827 Y58.7727
G01 X19.5817 Y58.7554
G01 X19.5708 Y58.5211
G01 X19.5700 Y58.4835
G01 X19.5700 Y53.4235
G01 X19.5485 Y52.9854
G01 X19.4870 Y52.5713
G01 X19.3853 Y52.1653
G01 X19.2443 Y51.7712
G01 X19.0653 Y51.3928
G01 X18.8501 Y51.0337
G01 X18.6008 Y50.6975
G01 X18.3197 Y50.3873
G01 X18.0095 Y50.1062
G01 X17.6733 Y49.8569
G01 X17.3142 Y49.6417
G01 X16.9358 Y49.4627
G01 X16.5417 Y49.3217
G01 X16.1357 Y49.2200
G01 X15.7216 Y49.1585
G01 X15.2648 Y49.1361
G01 X15.0316 Y49.1253
G01 X14.9970 Y49.1229
G01 X14.9739 Y49.1206
G01 X14.7244 Y49.0860
G01 X14.6902 Y49.0804
G01 X14.6674 Y49.0759
G01 X14.6505 Y49.0722
G01 X14.4221 Y49.0185
G01 X14.4053 Y49.0143
G01 X14.3830 Y49.0081
G01 X14.3499 Y48.9979
G01 X14.1274 Y48.9233
G01 X14.1111 Y48.9176
G01 X14.0894 Y48.9094
G01 X14.0573 Y48.8962
G01 X13.8427 Y48.8014
G01 X13.8270 Y48.7942
G01 X13.8061 Y48.7841
G01 X13.7755 Y48.7679
G01 X13.5555 Y48.6452
G01 X13.5356 Y48.6331
G01 X13.5066 Y48.6142
G01 X13.3131 Y48.4816
G01 X13.2989 Y48.4717
G01 X13.2802 Y48.4579
G01 X13.2531 Y48.4363
G01 X13.0726 Y48.2865
G01 X13.0594 Y48.2752
G01 X13.0421 Y48.2598
G01 X13.0171 Y48.2358
G01 X12.8512 Y48.0699
G01 X12.8391 Y48.0575
G01 X12.8233 Y48.0405
G01 X12.8005 Y48.0144
G01 X12.6507 Y47.8339
G01 X12.6291 Y47.8068
G01 X12.6153 Y47.7881
G01 X12.6054 Y47.7739
G01 X12.4728 Y47.5804
G01 X12.4632 Y47.5660
G01 X12.4508 Y47.5464
G01 X12.4332 Y47.5165
G01 X12.3191 Y47.3115
G01 X12.3029 Y47.2809
G01 X12.2928 Y47.2600
G01 X12.1908 Y47.0297
G01 X12.1840 Y47.0137
G01 X12.1754 Y46.9922
G01 X12.1637 Y46.9596
G01 X12.0891 Y46.7371
G01 X12.0838 Y46.7206
G01 X12.0773 Y46.6984
G01 X12.0685 Y46.6649
G01 X12.0148 Y46.4365
G01 X12.0111 Y46.4196
G01 X12.0066 Y46.3968
G01 X12.0010 Y46.3626
G01 X11.9686 Y46.1303
G01 X11.9664 Y46.1131
G01 X11.9641 Y46.0900
G01 X11.9617 Y46.0554
G01 X11.9508 Y45.8211
G01 X11.9502 Y45.8032
G01 X11.9500 Y45.7793
G01 X11.9510 Y45.7436
G01 X11.9632 Y45.4946
G01 X11.9659 Y45.4579
G01 X11.9685 Y45.4334
G01 X11.9710 Y45.4152
G01 X12.0076 Y45.1686
G01 X12.0139 Y45.1323
G01 X12.0189 Y45.1082
G01 X12.0232 Y45.0903
G01 X12.0837 Y44.8485
G01 X12.0935 Y44.8130
G01 X12.1009 Y44.7895
G01 X12.1069 Y44.7721
G01 X12.1909 Y44.5374
G01 X12.1973 Y44.5202
G01 X12.2065 Y44.4973
G01 X12.2214 Y44.4637
G01 X12.3280 Y44.2383
G01 X12.3445 Y44.2054
G01 X12.3564 Y44.1838
G01 X12.3656 Y44.1679
G01 X12.4938 Y43.9541
G01 X12.5135 Y43.9230
G01 X12.5274 Y43.9027
G01 X12.5381 Y43.8877
G01 X12.6866 Y43.6875
G01 X12.7093 Y43.6585
G01 X12.7251 Y43.6396
G01 X12.7373 Y43.6258
G01 X12.9047 Y43.4411
G01 X12.9300 Y43.4145
G01 X12.9476 Y43.3972
G01 X12.9611 Y43.3847
G01 X13.1458 Y43.2173
G01 X13.1737 Y43.1932
G01 X13.1929 Y43.1778
G01 X13.2075 Y43.1666
G01 X13.4077 Y43.0181
G01 X13.4378 Y42.9969
G01 X13.4584 Y42.9834
G01 X13.4741 Y42.9738
G01 X13.6879 Y42.8456
G01 X13.7199 Y42.8275
G01 X13.7418 Y42.8161
G01 X13.7583 Y42.8080
G01 X13.9837 Y42.7014
G01 X14.0004 Y42.6938
G01 X14.0231 Y42.6841
G01 X14.0574 Y42.6709
G01 X14.2921 Y42.5869
G01 X14.3271 Y42.5754
G01 X14.3507 Y42.5684
G01 X14.3685 Y42.5637
G01 X14.6103 Y42.5032
G01 X14.6462 Y42.4951
G01 X14.6704 Y42.4905
G01 X14.6886 Y42.4876
G01 X14.9352 Y42.4510
G01 X14.9717 Y42.4465
G01 X14.9962 Y42.4443
G01 X15.0146 Y42.4432
G01 X15.2636 Y42.4310
G01 X15.2851 Y42.4302
G01 X28.0035 Y42.4300
G01 X28.0434 Y42.4310
G01 X28.2924 Y42.4432
G01 X28.3108 Y42.4443
G01 X28.3353 Y42.4465
G01 X28.3718 Y42.4510
G01 X28.6184 Y42.4876
G01 X28.6366 Y42.4905
G01 X28.6608 Y42.4951
G01 X28.6967 Y42.5032
G01 X28.9385 Y42.5637
G01 X28.9563 Y42.5684
G01 X28.9799 Y42.5754
G01 X29.0149 Y42.5869
G01 X29.2496 Y42.6709
G01 X29.2668 Y42.6773
G01 X29.2897 Y42.6865
G01 X29.3233 Y42.7014
G01 X29.5487 Y42.8080
G01 X29.5652 Y42.8161
G01 X29.5871 Y42.8275
G01 X29.6191 Y42.8456
G01 X29.8329 Y42.9738
G01 X29.8486 Y42.9834
G01 X29.8692 Y42.9969
G01 X29.8993 Y43.0181
G01 X30.0995 Y43.1666
G01 X30.1141 Y43.1778
G01 X30.1333 Y43.1932
G01 X30.1612 Y43.2173
G01 X30.3459 Y43.3847
G01 X30.3594 Y43.3972
G01 X30.3770 Y43.4145
G01 X30.4023 Y43.4411
G01 X30.5697 Y43.6258
G01 X30.5819 Y43.6396
G01 X30.5977 Y43.6585
G01 X30.6204 Y43.6875
G01 X30.7689 Y43.8877
G01 X30.7796 Y43.9027
G01 X30.7935 Y43.9230
G01 X30.8132 Y43.9541
G01 X30.9414 Y44.1679
G01 X30.9506 Y44.1838
G01 X30.9625 Y44.2054
G01 X30.9790 Y44.2383
G01 X31.0856 Y44.4637
G01 X31.0932 Y44.4804
G01 X31.1029 Y44.5031
G01 X31.1161 Y44.5374
G01 X31.2001 Y44.7721
G01 X31.2116 Y44.8071
G01 X31.2186 Y44.8307
G01 X31.2233 Y44.8485
G01 X31.2838 Y45.0903
G01 X31.2919 Y45.1262
G01 X31.2965 Y45.1504
G01 X31.2994 Y45.1686
G01 X31.3360 Y45.4152
G01 X31.3405 Y45.4517
G01 X31.3427 Y45.4762
G01 X31.3438 Y45.4946
G01 X31.3560 Y45.7436
G01 X31.3570 Y45.7835
G01 X31.3568 Y58.5019
G01 X31.3560 Y58.5234
G01 X31.3438 Y58.7724
G01 X31.3427 Y58.7908
G01 X31.3405 Y58.8153
G01 X31.3360 Y58.8518
G01 X31.2994 Y59.0984
G01 X31.2965 Y59.1166
G01 X31.2919 Y59.1408
G01 X31.2838 Y59.1767
G01 X31.2233 Y59.4185
G01 X31.2186 Y59.4363
G01 X31.2116 Y59.4599
G01 X31.2001 Y59.4949
G01 X31.1161 Y59.7296
G01 X31.1097 Y59.7468
G01 X31.1005 Y59.7697
G01 X31.0856 Y59.8033
G01 X30.9790 Y60.0287
G01 X30.9709 Y60.0452
G01 X30.9595 Y60.0671
G01 X30.9414 Y60.0991
G01 X30.8132 Y60.3129
G01 X30.8036 Y60.3286
G01 X30.7901 Y60.3492
G01 X30.7689 Y60.3793
G01 X30.6204 Y60.5795
G01 X30.6092 Y60.5941
G01 X30.5938 Y60.6133
G01 X30.5697 Y60.6412
G01 X30.4023 Y60.8259
G01 X30.3770 Y60.8525
G01 X30.3594 Y60.8698
G01 X30.3459 Y60.8823
G01 X30.1612 Y61.0497
G01 X30.1474 Y61.0619
G01 X30.1285 Y61.0777
G01 X30.0995 Y61.1004
G01 X29.8993 Y61.2489
G01 X29.8843 Y61.2596
G01 X29.8640 Y61.2735
G01 X29.8329 Y61.2932
G01 X29.6191 Y61.4214
G01 X29.6032 Y61.4306
G01 X29.5816 Y61.4425
G01 X29.5487 Y61.4590
G01 X29.3233 Y61.5656
G01 X29.3066 Y61.5732
G01 X29.2839 Y61.5829
G01 X29.2496 Y61.5961
G01 X29.0149 Y61.6801
G01 X28.9975 Y61.6861
G01 X28.9740 Y61.6935
G01 X28.9385 Y61.7033
G01 X28.6967 Y61.7638
G01 X28.6788 Y61.7681
G01 X28.6547 Y61.7731
G01 X28.6184 Y61.7794
G01 X28.3718 Y61.8160
G01 X28.3353 Y61.8205
G01 X28.3108 Y61.8227
G01 X28.2924 Y61.8238
G01 X28.0434 Y61.8360
G01 X28.0219 Y61.8368
G01 X22.9235 Y61.8370
G01 X22.8950 Y61.8365
G00 Z2.0000
G00 X7.7023 Y42.4302
G01 F60.00
G01 Z-2.4000
G01 F120.00
G01 X7.9554 Y42.4417
G01 X7.9900 Y42.4441
G01 X8.0131 Y42.4464
G01 X8.0303 Y42.4486
G01 X8.2626 Y42.4810
G01 X8.2797 Y42.4836
G01 X8.3026 Y42.4877
G01 X8.3365 Y42.4948
G01 X8.5649 Y42.5485
G01 X8.5817 Y42.5527
G01 X8.6040 Y42.5589
G01 X8.6371 Y42.5691
G01 X8.8596 Y42.6437
G01 X8.8759 Y42.6494
G01 X8.8976 Y42.6576
G01 X8.9297 Y42.6708
G01 X9.1443 Y42.7656
G01 X9.1600 Y42.7728
G01 X9.1809 Y42.7829
G01 X9.2115 Y42.7991
G01 X9.4165 Y42.9132
G01 X9.4464 Y42.9308
G01 X9.4660 Y42.9432
G01 X9.4804 Y42.9528
G01 X9.6739 Y43.0854
G01 X9.6881 Y43.0953
G01 X9.7068 Y43.1091
G01 X9.7339 Y43.1307
G01 X9.9144 Y43.2805
G01 X9.9276 Y43.2918
G01 X9.9449 Y43.3072
G01 X9.9699 Y43.3312
G01 X10.1358 Y43.4971
G01 X10.1479 Y43.5095
G01 X10.1637 Y43.5265
G01 X10.1865 Y43.5526
G01 X10.3363 Y43.7331
G01 X10.3579 Y43.7602
G01 X10.3717 Y43.7789
G01 X10.3816 Y43.7931
G01 X10.5142 Y43.9866
G01 X10.5238 Y44.0010
G01 X10.5362 Y44.0206
G01 X10.5538 Y44.0505
G01 X10.6679 Y44.2555
G01 X10.6762 Y44.2707
G01 X10.6867 Y44.2914
G01 X10.7014 Y44.3227
G01 X10.7962 Y44.5373
G01 X10.8030 Y44.5533
G01 X10.8116 Y44.5748
G01 X10.8233 Y44.6074
G01 X10.8979 Y44.8299
G01 X10.9032 Y44.8464
G01 X10.9097 Y44.8686
G01 X10.9185 Y44.9021
G01 X10.9722 Y45.1305
G01 X10.9793 Y45.1644
G01 X10.9834 Y45.1873
G01 X10.9860 Y45.2044
G01 X11.0184 Y45.4367
G01 X11.0224 Y45.4712
G01 X11.0243 Y45.4943
G01 X11.0253 Y45.5116
G01 X11.0362 Y45.7459
G01 X11.0370 Y45.7835
G01 X11.0370 Y50.8435
G01 X11.0585 Y51.2816
G01 X11.1200 Y51.6957
G01 X11.2217 Y52.1017
G01 X11.3627 Y52.4958
G01 X11.5417 Y52.8742
G01 X11.7569 Y53.2333
G01 X12.0062 Y53.5695
G01 X12.2873 Y53.8797
G01 X12.5975 Y54.1608
G01 X12.9337 Y54.4101
G01 X13.2928 Y54.6253
G01 X13.6712 Y54.8043
G01 X14.0653 Y54.9453
G01 X14.4713 Y55.0470
G01 X14.8854 Y55.1085
G01 X15.6108 Y55.1443
G01 X15.6353 Y55.1465
G01 X15.6718 Y55.1510
G01 X15.9184 Y55.1876
G01 X15.9547 Y55.1939
G01 X15.9788 Y55.1989
G01 X16.2385 Y55.2637
G01 X16.2740 Y55.2735
G01 X16.2975 Y55.2809
G01 X16.3149 Y55.2869
G01 X16.5496 Y55.3709
G01 X16.5668 Y55.3773
G01 X16.5897 Y55.3865
G01 X16.6233 Y55.4014
G01 X16.8487 Y55.5080
G01 X16.8816 Y55.5245
G01 X16.9032 Y55.5364
G01 X17.1329 Y55.6738
G01 X17.1640 Y55.6935
G01 X17.1843 Y55.7074
G01 X17.1993 Y55.7181
G01 X17.3995 Y55.8666
G01 X17.4141 Y55.8778
G01 X17.4333 Y55.8932
G01 X17.4612 Y55.9173
G01 X17.6459 Y56.0847
G01 X17.6594 Y56.0972
G01 X17.6770 Y56.1145
G01 X17.7023 Y56.1411
G01 X17.8697 Y56.3258
G01 X17.8938 Y56.3537
G01 X17.9092 Y56.3729
G01 X17.9204 Y56.3875
G01 X18.0689 Y56.5877
G01 X18.0796 Y56.6027
G01 X18.0935 Y56.6230
G01 X18.1132 Y56.6541
G01 X18.2414 Y56.8679
G01 X18.2506 Y56.8838
G01 X18.2625 Y56.9054
G01 X18.2790 Y56.9383
G01 X18.3856 Y57.1637
G01 X18.3932 Y57.1804
G01 X18.4029 Y57.2031
G01 X18.4161 Y57.2374
G01 X18.5001 Y57.4721
G01 X18.5061 Y57.4895
G01 X18.5135 Y57.5130
G01 X18.5233 Y57.5485
G01 X18.5838 Y57.7903
G01 X18.5881 Y57.8082
G01 X18.5931 Y57.8323
G01 X18.5994 Y57.8686
G01 X18.6360 Y58.1152
G01 X18.6385 Y58.1334
G01 X18.6411 Y58.1579
G01 X18.6438 Y58.1946
G01 X18.6560 Y58.4436
G01 X18.6567 Y58.4620
G01 X18.6570 Y58.4866
G01 X18.6560 Y58.5234
G01 X18.6438 Y58.7724
G01 X18.6427 Y58.7908
G01 X18.6405 Y58.8153
G01 X18.6360 Y58.8518
G01 X18.5994 Y59.0984
G01 X18.5965 Y59.1166
G01 X18.5919 Y59.1408
G01 X18.5838 Y59.1767
G01 X18.5233 Y59.4185
G01 X18.5186 Y59.4363
G01 X18.5116 Y59.4599
G01 X18.5001 Y59.4949
G01 X18.4161 Y59.7296
G01 X18.4097 Y59.7468
G01 X18.4005 Y59.7697
G01 X18.3856 Y59.8033
G01 X18.2790 Y60.0287
G01 X18.2709 Y60.0452
G01 X18.2595 Y60.0671
G01 X18.2414 Y60.0991
G01 X18.1132 Y60.3129
G01 X18.1036 Y60.3286
G01 X18.0901 Y60.3492
G01 X18.0689 Y60.3793
G01 X17.9204 Y60.5795
G01 X17.9092 Y60.5941
G01 X17.8938 Y60.6133
G01 X17.8697 Y60.6412
G01 X17.7023 Y60.8259
G01 X17.6898 Y60.8394
G01 X17.6725 Y60.8570
G01 X17.6459 Y60.8823
G01 X17.4612 Y61.0497
G01 X17.4474 Y61.0619
G01 X17.4285 Y61.0777
G01 X17.3995 Y61.1004
G01 X17.1993 Y61.2489
G01 X17.1843 Y61.2596
G01 X17.1640 Y61.2735
G01 X17.1329 Y61.2932
G01 X16.9191 Y61.4214
G01 X16.9032 Y61.4306
G01 X16.8816 Y61.4425
G01 X16.8487 Y61.4590
G01 X16.6233 Y61.5656
G01 X16.6066 Y61.5732
G01 X16.5839 Y61.5829
G01 X16.5496 Y61.5961
G01 X16.3149 Y61.6801
G01 X16.2975 Y61.6861
G01 X16.2740 Y61.6935
G01 X16.2385 Y61.7033
G01 X15.9967 Y61.7638
G01 X15.9788 Y61.7681
G01 X15.9547 Y61.7731
G01 X15.9184 Y61.7794
G01 X15.6718 Y61.8160
G01 X15.6353 Y61.8205
G01 X15.6108 Y61.8227
G01 X15.5924 Y61.8238
G01 X15.3250 Y61.8367
G01 X15.3035 Y61.8370
G01 X2.6035 Y61.8370
G01 X2.5659 Y61.8362
G01 X2.3316 Y61.8253
G01 X2.2970 Y61.8229
G01 X2.2739 Y61.8206
G01 X2.2567 Y61.8184
G01 X2.0244 Y61.7860
G01 X2.0073 Y61.7834
G01 X1.9844 Y61.7793
G01 X1.9505 Y61.7722
G01 X1.7221 Y61.7185
G01 X1.7053 Y61.7143
G01 X1.6830 Y61.7081
G01 X1.6499 Y61.6979
G01 X1.4274 Y61.6233
G01 X1.3948 Y61.6116
G01 X1.3733 Y61.6030
G01 X1.3573 Y61.5962
G01 X1.1427 Y61.5014
G01 X1.1270 Y61.4942
G01 X1.1061 Y61.4841
G01 X1.0755 Y61.4679
G01 X0.8705 Y61.3538
G01 X0.8555 Y61.3452
G01 X0.8356 Y61.3331
G01 X0.8066 Y61.3142
G01 X0.6131 Y61.1816
G01 X0.5989 Y61.1717
G01 X0.5802 Y61.1579
G01 X0.5531 Y61.1363
G01 X0.3726 Y60.9865
G01 X0.3594 Y60.9752
G01 X0.3421 Y60.9598
G01 X0.3171 Y60.9358
G01 X0.1512 Y60.7699
G01 X0.1391 Y60.7575
G01 X0.1233 Y60.7405
G01 X0.1005 Y60.7144
G01 X-0.0493 Y60.5339
G01 X-0.0603 Y60.5205
G01 X-0.0744 Y60.5021
G01 X-0.0946 Y60.4739
G01 X-0.2272 Y60.2804
G01 X-0.2368 Y60.2660
G01 X-0.2492 Y60.2464
G01 X-0.2668 Y60.2165
G01 X-0.3809 Y60.0115
G01 X-0.3971 Y59.9809
G01 X-0.4072 Y59.9600
G01 X-0.5092 Y59.7297
G01 X-0.5160 Y59.7137
G01 X-0.5246 Y59.6922
G01 X-0.5363 Y59.6596
G01 X-0.6109 Y59.4371
G01 X-0.6162 Y59.4206
G01 X-0.6227 Y59.3984
G01 X-0.6315 Y59.3649
G01 X-0.6852 Y59.1365
G01 X-0.6889 Y59.1196
G01 X-0.6934 Y59.0968
G01 X-0.6990 Y59.0626
G01 X-0.7314 Y58.8303
G01 X-0.7354 Y58.7958
G01 X-0.7373 Y58.7727
G01 X-0.7383 Y58.7554
G01 X-0.7492 Y58.5211
G01 X-0.7500 Y58.4835
G01 X-0.7498 Y45.7651
G01 X-0.7490 Y45.7436
G01 X-0.7368 Y45.4946
G01 X-0.7357 Y45.4762
G01 X-0.7335 Y45.4517
G01 X-0.7290 Y45.4152
G01 X-0.6924 Y45.1686
G01 X-0.6895 Y45.1504
G01 X-0.6849 Y45.1262
G01 X-0.6768 Y45.0903
G01 X-0.6163 Y44.8485
G01 X-0.6116 Y44.8307
G01 X-0.6046 Y44.8071
G01 X-0.5931 Y44.7721
G01 X-0.5091 Y44.5374
G01 X-0.5027 Y44.5202
G01 X-0.4935 Y44.4973
G01 X-0.4786 Y44.4637
G01 X-0.3720 Y44.2383
G01 X-0.3639 Y44.2218
G01 X-0.3525 Y44.1999
G01 X-0.3344 Y44.1679
G01 X-0.2062 Y43.9541
G01 X-0.1966 Y43.9384
G01 X-0.1831 Y43.9178
G01 X-0.1619 Y43.8877
G01 X-0.0134 Y43.6875
G01 X-0.0022 Y43.6729
G01 X0.0132 Y43.6537
G01 X0.0373 Y43.6258
G01 X0.2047 Y43.4411
G01 X0.2300 Y43.4145
G01 X0.2476 Y43.3972
G01 X0.2611 Y43.3847
G01 X0.4458 Y43.2173
G01 X0.4596 Y43.2051
G01 X0.4785 Y43.1893
G01 X0.5075 Y43.1666
G01 X0.7077 Y43.0181
G01 X0.7227 Y43.0074
G01 X0.7430 Y42.9935
G01 X0.7741 Y42.9738
G01 X0.9879 Y42.8456
G01 X1.0038 Y42.8364
G01 X1.0254 Y42.8245
G01 X1.0583 Y42.8080
G01 X1.2837 Y42.7014
G01 X1.3004 Y42.6938
G01 X1.3231 Y42.6841
G01 X1.3574 Y42.6709
G01 X1.5921 Y42.5869
G01 X1.6095 Y42.5809
G01 X1.6330 Y42.5735
G01 X1.6685 Y42.5637
G01 X1.9103 Y42.5032
G01 X1.9282 Y42.4989
G01 X1.9523 Y42.4939
G01 X1.9886 Y42.4876
G01 X2.2352 Y42.4510
G01 X2.2717 Y42.4465
G01 X2.2962 Y42.4443
G01 X2.3146 Y42.4432
G01 X2.5636 Y42.4310
G01 X2.5851 Y42.4302
G01 X7.7023 Y42.4302
G00 Z2.0000
G00 X0.0635 Y97.3970
G01 F60.00
G01 Z-2.4000
G01 F120.00
G01 X0.0267 Y97.3961
G01 X0.0021 Y97.3947
G01 X-0.0162 Y97.3931
G01 X-0.0345 Y97.3911
G01 X-0.0589 Y97.3877
G01 X-0.0952 Y97.3814
G01 X-0.1132 Y97.3776
G01 X-0.1372 Y97.3718
G01 X-0.1727 Y97.3620
G01 X-0.2076 Y97.3505
G01 X-0.2307 Y97.3419
G01 X-0.2478 Y97.3351
G01 X-0.2815 Y97.3202
G01 X-0.3037 Y97.3094
G01 X-0.3200 Y97.3010
G01 X-0.3361 Y97.2921
G01 X-0.3574 Y97.2796
G01 X-0.3885 Y97.2599
G01 X-0.4037 Y97.2495
G01 X-0.4236 Y97.2350
G01 X-0.4526 Y97.2124
G01 X-0.4805 Y97.1883
G01 X-0.4986 Y97.1716
G01 X-0.5118 Y97.1588
G01 X-0.5246 Y97.1456
G01 X-0.5413 Y97.1275
G01 X-0.5654 Y97.0996
G01 X-0.5769 Y97.0852
G01 X-0.5917 Y97.0656
G01 X-0.6129 Y97.0355
G01 X-0.6326 Y97.0044
G01 X-0.6451 Y96.9831
G01 X-0.6540 Y96.9670
G01 X-0.6624 Y96.9507
G01 X-0.6732 Y96.9285
G01 X-0.6881 Y96.8948
G01 X-0.7014 Y96.8605
G01 X-0.7094 Y96.8372
G01 X-0.7150 Y96.8197
G01 X-0.7248 Y96.7842
G01 X-0.7306 Y96.7602
G01 X-0.7344 Y96.7422
G01 X-0.7378 Y96.7241
G01 X-0.7416 Y96.6998
G01 X-0.7461 Y96.6632
G01 X-0.7477 Y96.6449
G01 X-0.7491 Y96.6203
G01 X-0.7500 Y96.5835
G01 X-0.7498 Y73.7051
G01 X-0.7488 Y73.6805
G01 X-0.7461 Y73.6438
G01 X-0.7416 Y73.6072
G01 X-0.7378 Y73.5829
G01 X-0.7344 Y73.5648
G01 X-0.7263 Y73.5289
G01 X-0.7201 Y73.5050
G01 X-0.7094 Y73.4698
G01 X-0.7014 Y73.4465
G01 X-0.6881 Y73.4122
G01 X-0.6732 Y73.3785
G01 X-0.6624 Y73.3563
G01 X-0.6451 Y73.3239
G01 X-0.6326 Y73.3026
G01 X-0.6129 Y73.2715
G01 X-0.5917 Y73.2414
G01 X-0.5769 Y73.2218
G01 X-0.5535 Y73.1933
G01 X-0.5371 Y73.1749
G01 X-0.5118 Y73.1482
G01 X-0.4851 Y73.1229
G01 X-0.4667 Y73.1065
G01 X-0.4382 Y73.0831
G01 X-0.4186 Y73.0683
G01 X-0.4037 Y73.0575
G01 X-0.3730 Y73.0370
G01 X-0.3520 Y73.0242
G01 X-0.3200 Y73.0060
G01 X-0.2871 Y72.9895
G01 X-0.2647 Y72.9791
G01 X-0.2307 Y72.9651
G01 X-0.2076 Y72.9565
G01 X-0.1727 Y72.9450
G01 X-0.1372 Y72.9352
G01 X-0.1132 Y72.9294
G01 X-0.0771 Y72.9222
G01 X-0.0528 Y72.9184
G01 X-0.0162 Y72.9139
G01 X0.0021 Y72.9123
G01 X0.0267 Y72.9109
G01 X0.0635 Y72.9100
G01 X68.6435 Y72.9100
G01 X68.6803 Y72.9109
G01 X68.7049 Y72.9123
G01 X68.7415 Y72.9159
G01 X68.7659 Y72.9193
G01 X68.8022 Y72.9256
G01 X68.8202 Y72.9294
G01 X68.8442 Y72.9352
G01 X68.8797 Y72.9450
G01 X68.9146 Y72.9565
G01 X68.9377 Y72.9651
G01 X68.9717 Y72.9791
G01 X68.9941 Y72.9895
G01 X69.0270 Y73.0060
G01 X69.0590 Y73.0242
G01 X69.0800 Y73.0370
G01 X69.1107 Y73.0575
G01 X69.1306 Y73.0720
G01 X69.1596 Y73.0946
G01 X69.1875 Y73.1187
G01 X69.2056 Y73.1354
G01 X69.2316 Y73.1614
G01 X69.2483 Y73.1795
G01 X69.2724 Y73.2074
G01 X69.2950 Y73.2364
G01 X69.3095 Y73.2563
G01 X69.3300 Y73.2870
G01 X69.3428 Y73.3080
G01 X69.3610 Y73.3400
G01 X69.3775 Y73.3729
G01 X69.3879 Y73.3953
G01 X69.4019 Y73.4293
G01 X69.4105 Y73.4524
G01 X69.4220 Y73.4873
G01 X69.4318 Y73.5228
G01 X69.4376 Y73.5468
G01 X69.4448 Y73.5829
G01 X69.4486 Y73.6072
G01 X69.4531 Y73.6438
G01 X69.4547 Y73.6621
G01 X69.4561 Y73.6867
G01 X69.4570 Y73.7235
G01 X69.4568 Y96.6019
G01 X69.4558 Y96.6265
G01 X69.4531 Y96.6632
G01 X69.4486 Y96.6998
G01 X69.4448 Y96.7241
G01 X69.4376 Y96.7602
G01 X69.4318 Y96.7842
G01 X69.4271 Y96.8020
G01 X69.4164 Y96.8372
G01 X69.4084 Y96.8605
G01 X69.3951 Y96.8948
G01 X69.3802 Y96.9285
G01 X69.3694 Y96.9507
G01 X69.3521 Y96.9831
G01 X69.3396 Y97.0044
G01 X69.3199 Y97.0355
G01 X69.2987 Y97.0656
G01 X69.2839 Y97.0852
G01 X69.2605 Y97.1137
G01 X69.2441 Y97.1321
G01 X69.2188 Y97.1588
G01 X69.1921 Y97.1841
G01 X69.1737 Y97.2005
G01 X69.1596 Y97.2124
G01 X69.1306 Y97.2350
G01 X69.1107 Y97.2495
G01 X69.0800 Y97.2700
G01 X69.0590 Y97.2828
G01 X69.0270 Y97.3010
G01 X68.9941 Y97.3175
G01 X68.9717 Y97.3279
G01 X68.9377 Y97.3419
G01 X68.9146 Y97.3505
G01 X68.8797 Y97.3620
G01 X68.8442 Y97.3718
G01 X68.8202 Y97.3776
G01 X68.7841 Y97.3848
G01 X68.7598 Y97.3886
G01 X68.7232 Y97.3931
G01 X68.7049 Y97.3947
G01 X68.6803 Y97.3961
G01 X68.6435 Y97.3970
G01 X0.0635 Y97.3970
G00 Z2.0000
G00 X58.4635 Y69.4567
G01 F60.00
G01 Z-2.4000
G01 F120.00
G01 X58.4436 Y69.4560
G01 X58.1946 Y69.4438
G01 X58.1579 Y69.4411
G01 X58.1334 Y69.4385
G01 X58.1152 Y69.4360
G01 X57.8686 Y69.3994
G01 X57.8504 Y69.3965
G01 X57.8262 Y69.3919
G01 X57.7903 Y69.3838
G01 X57.5485 Y69.3233
G01 X57.5307 Y69.3186
G01 X57.5071 Y69.3116
G01 X57.4721 Y69.3001
G01 X57.2374 Y69.2161
G01 X57.2031 Y69.2029
G01 X57.1804 Y69.1932
G01 X57.1637 Y69.1856
G01 X56.9383 Y69.0790
G01 X56.9218 Y69.0709
G01 X56.8999 Y69.0595
G01 X56.8679 Y69.0414
G01 X56.6541 Y68.9132
G01 X56.6384 Y68.9036
G01 X56.6178 Y68.8901
G01 X56.5877 Y68.8689
G01 X56.3875 Y68.7204
G01 X56.3585 Y68.6977
G01 X56.3396 Y68.6819
G01 X56.3258 Y68.6697
G01 X56.1411 Y68.5023
G01 X56.1276 Y68.4898
G01 X56.1100 Y68.4725
G01 X56.0847 Y68.4459
G01 X55.9173 Y68.2612
G01 X55.9051 Y68.2474
G01 X55.8893 Y68.2285
G01 X55.8666 Y68.1995
G01 X55.7181 Y67.9993
G01 X55.6969 Y67.9692
G01 X55.6834 Y67.9486
G01 X55.6738 Y67.9329
G01 X55.5456 Y67.7191
G01 X55.5364 Y67.7032
G01 X55.5245 Y67.6816
G01 X55.5080 Y67.6487
G01 X55.4014 Y67.4233
G01 X55.3865 Y67.3897
G01 X55.3773 Y67.3668
G01 X55.2869 Y67.1149
G01 X55.2809 Y67.0975
G01 X55.2735 Y67.0740
G01 X55.2637 Y67.0385
G01 X55.2032 Y66.7967
G01 X55.1951 Y66.7608
G01 X55.1905 Y66.7366
G01 X55.1876 Y66.7184
G01 X55.1510 Y66.4718
G01 X55.1465 Y66.4353
G01 X55.1443 Y66.4108
G01 X55.1432 Y66.3924
G01 X55.1310 Y66.1434
G01 X55.1300 Y66.1035
G01 X55.1300 Y61.0435
G01 X55.1085 Y60.6054
G01 X55.0470 Y60.1913
G01 X54.9453 Y59.7853
G01 X54.8043 Y59.3912
G01 X54.6253 Y59.0128
G01 X54.4101 Y58.6537
G01 X54.1608 Y58.3175
G01 X53.8797 Y58.0073
G01 X53.5695 Y57.7262
G01 X53.2333 Y57.4769
G01 X52.8742 Y57.2617
G01 X52.4958 Y57.0827
G01 X52.1017 Y56.9417
G01 X51.6957 Y56.8400
G01 X51.2816 Y56.7785
G01 X50.5562 Y56.7427
G01 X50.5317 Y56.7405
G01 X50.4952 Y56.7360
G01 X50.2486 Y56.6994
G01 X50.2123 Y56.6931
G01 X50.1882 Y56.6881
G01 X49.9285 Y56.6233
G01 X49.8930 Y56.6135
G01 X49.8695 Y56.6061
G01 X49.8521 Y56.6001
G01 X49.6174 Y56.5161
G01 X49.6002 Y56.5097
G01 X49.5773 Y56.5005
G01 X49.5437 Y56.4856
G01 X49.3183 Y56.3790
G01 X49.2854 Y56.3625
G01 X49.2638 Y56.3506
G01 X49.0341 Y56.2132
G01 X49.0030 Y56.1935
G01 X48.9827 Y56.1796
G01 X48.9677 Y56.1689
G01 X48.7675 Y56.0204
G01 X48.7529 Y56.0092
G01 X48.7337 Y55.9938
G01 X48.7058 Y55.9697
G01 X48.5211 Y55.8023
G01 X48.5076 Y55.7898
G01 X48.4900 Y55.7725
G01 X48.4647 Y55.7459
G01 X48.2973 Y55.5612
G01 X48.2732 Y55.5333
G01 X48.2578 Y55.5141
G01 X48.2466 Y55.4995
G01 X48.0981 Y55.2993
G01 X48.0874 Y55.2843
G01 X48.0735 Y55.2640
G01 X48.0538 Y55.2329
G01 X47.9256 Y55.0191
G01 X47.9164 Y55.0032
G01 X47.9045 Y54.9816
G01 X47.8880 Y54.9487
G01 X47.7814 Y54.7233
G01 X47.7738 Y54.7066
G01 X47.7641 Y54.6839
G01 X47.7509 Y54.6496
G01 X47.6669 Y54.4149
G01 X47.6609 Y54.3975
G01 X47.6535 Y54.3740
G01 X47.6437 Y54.3385
G01 X47.5832 Y54.0967
G01 X47.5789 Y54.0788
G01 X47.5739 Y54.0547
G01 X47.5676 Y54.0184
G01 X47.5310 Y53.7718
G01 X47.5285 Y53.7536
G01 X47.5259 Y53.7291
G01 X47.5232 Y53.6924
G01 X47.5110 Y53.4434
G01 X47.5103 Y53.4250
G01 X47.5100 Y53.4004
G01 X47.5110 Y53.3636
G01 X47.5232 Y53.1146
G01 X47.5243 Y53.0962
G01 X47.5265 Y53.0717
G01 X47.5310 Y53.0352
G01 X47.5676 Y52.7886
G01 X47.5705 Y52.7704
G01 X47.5751 Y52.7462
G01 X47.5832 Y52.7103
G01 X47.6437 Y52.4685
G01 X47.6484 Y52.4507
G01 X47.6554 Y52.4271
G01 X47.6669 Y52.3921
G01 X47.7509 Y52.1574
G01 X47.7573 Y52.1402
G01 X47.7665 Y52.1173
G01 X47.7814 Y52.0837
G01 X47.8880 Y51.8583
G01 X47.8961 Y51.8418
G01 X47.9075 Y51.8199
G01 X47.9256 Y51.7879
G01 X48.0538 Y51.5741
G01 X48.0634 Y51.5584
G01 X48.0769 Y51.5378
G01 X48.0981 Y51.5077
G01 X48.2466 Y51.3075
G01 X48.2578 Y51.2929
G01 X48.2732 Y51.2737
G01 X48.2973 Y51.2458
G01 X48.4647 Y51.0611
G01 X48.4772 Y51.0476
G01 X48.4945 Y51.0300
G01 X48.5211 Y51.0047
G01 X48.7058 Y50.8373
G01 X48.7196 Y50.8251
G01 X48.7385 Y50.8093
G01 X48.7675 Y50.7866
G01 X48.9677 Y50.6381
G01 X48.9827 Y50.6274
G01 X49.0030 Y50.6135
G01 X49.0341 Y50.5938
G01 X49.2479 Y50.4656
G01 X49.2638 Y50.4564
G01 X49.2854 Y50.4445
G01 X49.3183 Y50.4280
G01 X49.5437 Y50.3214
G01 X49.5604 Y50.3138
G01 X49.5831 Y50.3041
G01 X49.6174 Y50.2909
G01 X49.8521 Y50.2069
G01 X49.8695 Y50.2009
G01 X49.8930 Y50.1935
G01 X49.9285 Y50.1837
G01 X50.1703 Y50.1232
G01 X50.1882 Y50.1189
G01 X50.2123 Y50.1139
G01 X50.2486 Y50.1076
G01 X50.4952 Y50.0710
G01 X50.5317 Y50.0665
G01 X50.5562 Y50.0643
G01 X50.5746 Y50.0632
G01 X50.8420 Y50.0503
G01 X50.8635 Y50.0500
G01 X63.5635 Y50.0500
G01 X63.6034 Y50.0510
G01 X63.8708 Y50.0643
G01 X63.8953 Y50.0665
G01 X63.9318 Y50.0710
G01 X64.1784 Y50.1076
G01 X64.1966 Y50.1105
G01 X64.2208 Y50.1151
G01 X64.2567 Y50.1232
G01 X64.4985 Y50.1837
G01 X64.5163 Y50.1884
G01 X64.5399 Y50.1954
G01 X64.5749 Y50.2069
G01 X64.8096 Y50.2909
G01 X64.8268 Y50.2973
G01 X64.8497 Y50.3065
G01 X64.8833 Y50.3214
G01 X65.1087 Y50.4280
G01 X65.1252 Y50.4361
G01 X65.1471 Y50.4475
G01 X65.1791 Y50.4656
G01 X65.3929 Y50.5938
G01 X65.4086 Y50.6034
G01 X65.4292 Y50.6169
G01 X65.4593 Y50.6381
G01 X65.6595 Y50.7866
G01 X65.6741 Y50.7978
G01 X65.6933 Y50.8132
G01 X65.7212 Y50.8373
G01 X65.9059 Y51.0047
G01 X65.9194 Y51.0172
G01 X65.9370 Y51.0345
G01 X65.9623 Y51.0611
G01 X66.1297 Y51.2458
G01 X66.1419 Y51.2596
G01 X66.1577 Y51.2785
G01 X66.1804 Y51.3075
G01 X66.3289 Y51.5077
G01 X66.3396 Y51.5227
G01 X66.3535 Y51.5430
G01 X66.3732 Y51.5741
G01 X66.5014 Y51.7879
G01 X66.5106 Y51.8038
G01 X66.5225 Y51.8254
G01 X66.5390 Y51.8583
G01 X66.6456 Y52.0837
G01 X66.6532 Y52.1004
G01 X66.6629 Y52.1231
G01 X66.6761 Y52.1574
G01 X66.7601 Y52.3921
G01 X66.7661 Y52.4095
G01 X66.7735 Y52.4330
G01 X66.7833 Y52.4685
G01 X66.8438 Y52.7103
G01 X66.8481 Y52.7282
G01 X66.8531 Y52.7523
G01 X66.8594 Y52.7886
G01 X66.8960 Y53.0352
G01 X66.9005 Y53.0717
G01 X66.9027 Y53.0962
G01 X66.9038 Y53.1146
G01 X66.9160 Y53.3636
G01 X66.9170 Y53.4035
G01 X66.9168 Y66.1219
G01 X66.9160 Y66.1434
G01 X66.9038 Y66.3924
G01 X66.9027 Y66.4108
G01 X66.9005 Y66.4353
G01 X66.8960 Y66.4718
G01 X66.8594 Y66.7184
G01 X66.8565 Y66.7366
G01 X66.8519 Y66.7608
G01 X66.8438 Y66.7967
G01 X66.7833 Y67.0385
G01 X66.7786 Y67.0563
G01 X66.7716 Y67.0799
G01 X66.7601 Y67.1149
G01 X66.6761 Y67.3496
G01 X66.6697 Y67.3668
G01 X66.6605 Y67.3897
G01 X66.6456 Y67.4233
G01 X66.5390 Y67.6487
G01 X66.5309 Y67.6652
G01 X66.5195 Y67.6871
G01 X66.5014 Y67.7191
G01 X66.3732 Y67.9329
G01 X66.3636 Y67.9486
G01 X66.3501 Y67.9692
G01 X66.3289 Y67.9993
G01 X66.1804 Y68.1995
G01 X66.1692 Y68.2141
G01 X66.1538 Y68.2333
G01 X66.1297 Y68.2612
G01 X65.9623 Y68.4459
G01 X65.9370 Y68.4725
G01 X65.9194 Y68.4898
G01 X65.9059 Y68.5023
G01 X65.7212 Y68.6697
G01 X65.7074 Y68.6819
G01 X65.6885 Y68.6977
G01 X65.6595 Y68.7204
G01 X65.4593 Y68.8689
G01 X65.4443 Y68.8796
G01 X65.4240 Y68.8935
G01 X65.3929 Y68.9132
G01 X65.1791 Y69.0414
G01 X65.1632 Y69.0506
G01 X65.1416 Y69.0625
G01 X65.1087 Y69.0790
G01 X64.8833 Y69.1856
G01 X64.8666 Y69.1932
G01 X64.8439 Y69.2029
G01 X64.8096 Y69.2161
G01 X64.5749 Y69.3001
G01 X64.5575 Y69.3061
G01 X64.5340 Y69.3135
G01 X64.4985 Y69.3233
G01 X64.2567 Y69.3838
G01 X64.2388 Y69.3881
G01 X64.2147 Y69.3931
G01 X64.1784 Y69.3994
G01 X63.9318 Y69.4360
G01 X63.8953 Y69.4405
G01 X63.8708 Y69.4427
G01 X63.8524 Y69.4438
G01 X63.6034 Y69.4560
G01 X63.5819 Y69.4568
G01 X58.4835 Y69.4570
G01 X58.4635 Y69.4567
G00 Z2.0000
G00 X69.4570 Y22.9235
G01 F60.00
G01 Z-2.4000
G01 F120.00
G01 X69.4561 Y22.9603
G01 X69.4547 Y22.9849
G01 X69.4531 Y23.0032
G01 X69.4511 Y23.0215
G01 X69.4477 Y23.0459
G01 X69.4414 Y23.0822
G01 X69.4376 Y23.1002
G01 X69.4318 Y23.1242
G01 X69.4220 Y23.1597
G01 X69.4164 Y23.1772
G01 X69.4084 Y23.2005
G01 X69.3951 Y23.2348
G01 X69.3802 Y23.2685
G01 X69.3694 Y23.2907
G01 X69.3610 Y23.3070
G01 X69.3521 Y23.3231
G01 X69.3396 Y23.3444
G01 X69.3199 Y23.3755
G01 X69.3095 Y23.3907
G01 X69.2950 Y23.4106
G01 X69.2724 Y23.4396
G01 X69.2483 Y23.4675
G01 X69.2316 Y23.4856
G01 X69.2188 Y23.4988
G01 X69.2056 Y23.5116
G01 X69.1875 Y23.5283
G01 X69.1596 Y23.5524
G01 X69.1306 Y23.5750
G01 X69.1107 Y23.5895
G01 X69.0955 Y23.5999
G01 X69.0644 Y23.6196
G01 X69.0431 Y23.6321
G01 X69.0270 Y23.6410
G01 X69.0107 Y23.6494
G01 X68.9885 Y23.6602
G01 X68.9548 Y23.6751
G01 X68.9205 Y23.6884
G01 X68.8972 Y23.6964
G01 X68.8797 Y23.7020
G01 X68.8620 Y23.7071
G01 X68.8381 Y23.7133
G01 X68.8022 Y23.7214
G01 X68.7841 Y23.7248
G01 X68.7598 Y23.7286
G01 X68.7232 Y23.7331
G01 X68.6865 Y23.7358
G01 X68.6619 Y23.7368
G01 X33.0835 Y23.7370
G01 X33.0467 Y23.7361
G01 X33.0221 Y23.7347
G01 X32.9855 Y23.7311
G01 X32.9611 Y23.7277
G01 X32.9429 Y23.7248
G01 X32.9068 Y23.7176
G01 X32.8828 Y23.7118
G01 X32.8473 Y23.7020
G01 X32.8124 Y23.6905
G01 X32.7893 Y23.6819
G01 X32.7553 Y23.6679
G01 X32.7385 Y23.6602
G01 X32.7163 Y23.6494
G01 X32.7000 Y23.6410
G01 X32.6680 Y23.6228
G01 X32.6470 Y23.6100
G01 X32.6163 Y23.5895
G01 X32.6014 Y23.5787
G01 X32.5818 Y23.5639
G01 X32.5674 Y23.5524
G01 X32.5395 Y23.5283
G01 X32.5214 Y23.5116
G01 X32.4954 Y23.4856
G01 X32.4829 Y23.4721
G01 X32.4665 Y23.4537
G01 X32.4546 Y23.4396
G01 X32.4320 Y23.4106
G01 X32.4175 Y23.3907
G01 X32.3970 Y23.3600
G01 X32.3874 Y23.3444
G01 X32.3749 Y23.3231
G01 X32.3660 Y23.3070
G01 X32.3576 Y23.2907
G01 X32.3468 Y23.2685
G01 X32.3391 Y23.2517
G01 X32.3251 Y23.2177
G01 X32.3165 Y23.1946
G01 X32.3050 Y23.1597
G01 X32.2999 Y23.1420
G01 X32.2937 Y23.1181
G01 X32.2894 Y23.1002
G01 X32.2822 Y23.0641
G01 X32.2759 Y23.0215
G01 X32.2723 Y22.9849
G01 X32.2712 Y22.9665
G01 X32.2702 Y22.9419
G01 X32.2700 Y22.9235
G01 X32.2700 Y0.0635
G01 X32.2709 Y0.0267
G01 X32.2723 Y0.0021
G01 X32.2759 Y-0.0345
G01 X32.2793 Y-0.0589
G01 X32.2856 Y-0.0952
G01 X32.2894 Y-0.1132
G01 X32.2952 Y-0.1372
G01 X32.3050 Y-0.1727
G01 X32.3165 Y-0.2076
G01 X32.3251 Y-0.2307
G01 X32.3391 Y-0.2647
G01 X32.3468 Y-0.2815
G01 X32.3576 Y-0.3037
G01 X32.3660 Y-0.3200
G01 X32.3842 Y-0.3520
G01 X32.3970 Y-0.3730
G01 X32.4071 Y-0.3885
G01 X32.4283 Y-0.4186
G01 X32.4431 Y-0.4382
G01 X32.4546 Y-0.4526
G01 X32.4787 Y-0.4805
G01 X32.4954 Y-0.4986
G01 X32.5082 Y-0.5118
G01 X32.5349 Y-0.5371
G01 X32.5533 Y-0.5535
G01 X32.5674 Y-0.5654
G01 X32.5964 Y-0.5880
G01 X32.6163 Y-0.6025
G01 X32.6470 Y-0.6230
G01 X32.6626 Y-0.6326
G01 X32.6839 Y-0.6451
G01 X32.7000 Y-0.6540
G01 X32.7163 Y-0.6624
G01 X32.7385 Y-0.6732
G01 X32.7553 Y-0.6809
G01 X32.7893 Y-0.6949
G01 X32.8124 Y-0.7035
G01 X32.8473 Y-0.7150
G01 X32.8650 Y-0.7201
G01 X32.8889 Y-0.7263
G01 X32.9068 Y-0.7306
G01 X32.9429 Y-0.7378
G01 X32.9855 Y-0.7441
G01 X33.0221 Y-0.7477
G01 X33.0405 Y-0.7488
G01 X33.0651 Y-0.7498
G01 X33.0835 Y-0.7500
G01 X68.6435 Y-0.7500
G01 X68.6803 Y-0.7491
G01 X68.7049 Y-0.7477
G01 X68.7415 Y-0.7441
G01 X68.7659 Y-0.7407
G01 X68.7841 Y-0.7378
G01 X68.8202 Y-0.7306
G01 X68.8442 Y-0.7248
G01 X68.8797 Y-0.7150
G01 X68.9146 Y-0.7035
G01 X68.9377 Y-0.6949
G01 X68.9717 Y-0.6809
G01 X68.9885 Y-0.6732
G01 X69.0107 Y-0.6624
G01 X69.0270 Y-0.6540
G01 X69.0590 Y-0.6358
G01 X69.0800 Y-0.6230
G01 X69.0955 Y-0.6129
G01 X69.1256 Y-0.5917
G01 X69.1452 Y-0.5769
G01 X69.1596 Y-0.5654
G01 X69.1737 Y-0.5535
G01 X69.1921 Y-0.5371
G01 X69.2188 Y-0.5118
G01 X69.2316 Y-0.4986
G01 X69.2483 Y-0.4805
G01 X69.2724 Y-0.4526
G01 X69.2839 Y-0.4382
G01 X69.2987 Y-0.4186
G01 X69.3199 Y-0.3885
G01 X69.3300 Y-0.3730
G01 X69.3521 Y-0.3361
G01 X69.3694 Y-0.3037
G01 X69.3775 Y-0.2871
G01 X69.3879 Y-0.2647
G01 X69.3951 Y-0.2478
G01 X69.4019 Y-0.2307
G01 X69.4105 Y-0.2076
G01 X69.4164 Y-0.1902
G01 X69.4271 Y-0.1550
G01 X69.4333 Y-0.1311
G01 X69.4414 Y-0.0952
G01 X69.4448 Y-0.0771
G01 X69.4486 Y-0.0528
G01 X69.4511 Y-0.0345
G01 X69.4547 Y0.0021
G01 X69.4568 Y0.0451
G01 X69.4570 Y22.9235
G00 Z2.0000
G00 X71.1467 Y22.1109
G01 F60.00
G01 Z-2.4000
G01 F120.00
G01 X71.1835 Y22.1100
G01 X94.0619 Y22.1102
G01 X94.0865 Y22.1112
G01 X94.1232 Y22.1139
G01 X94.1598 Y22.1184
G01 X94.1841 Y22.1222
G01 X94.2202 Y22.1294
G01 X94.2442 Y22.1352
G01 X94.2797 Y22.1450
G01 X94.3146 Y22.1565
G01 X94.3377 Y22.1651
G01 X94.3717 Y22.1791
G01 X94.3941 Y22.1895
G01 X94.4270 Y22.2060
G01 X94.4590 Y22.2242
G01 X94.4800 Y22.2370
G01 X94.5107 Y22.2575
G01 X94.5306 Y22.2720
G01 X94.5596 Y22.2946
G01 X94.5875 Y22.3187
G01 X94.6056 Y22.3354
G01 X94.6316 Y22.3614
G01 X94.6483 Y22.3795
G01 X94.6724 Y22.4074
G01 X94.6950 Y22.4364
G01 X94.7095 Y22.4563
G01 X94.7300 Y22.4870
G01 X94.7428 Y22.5080
G01 X94.7610 Y22.5400
G01 X94.7775 Y22.5729
G01 X94.7879 Y22.5953
G01 X94.8019 Y22.6293
G01 X94.8105 Y22.6524
G01 X94.8220 Y22.6873
G01 X94.8318 Y22.7228
G01 X94.8376 Y22.7468
G01 X94.8448 Y22.7829
G01 X94.8486 Y22.8072
G01 X94.8511 Y22.8255
G01 X94.8547 Y22.8621
G01 X94.8561 Y22.8867
G01 X94.8570 Y22.9235
G01 X94.8570 Y33.0835
G01 X94.8567 Y33.1050
G01 X94.8438 Y33.3724
G01 X94.8427 Y33.3908
G01 X94.8405 Y33.4153
G01 X94.8360 Y33.4518
G01 X94.7994 Y33.6984
G01 X94.7965 Y33.7166
G01 X94.7919 Y33.7408
G01 X94.7838 Y33.7767
G01 X94.7233 Y34.0185
G01 X94.7186 Y34.0363
G01 X94.7116 Y34.0599
G01 X94.7001 Y34.0949
G01 X94.6161 Y34.3296
G01 X94.6097 Y34.3468
G01 X94.6005 Y34.3697
G01 X94.5856 Y34.4033
G01 X94.4709 Y34.6452
G01 X94.4595 Y34.6671
G01 X94.4414 Y34.6991
G01 X94.3132 Y34.9129
G01 X94.2935 Y34.9440
G01 X94.2796 Y34.9643
G01 X94.2689 Y34.9793
G01 X94.1204 Y35.1795
G01 X94.0977 Y35.2085
G01 X94.0819 Y35.2274
G01 X94.0697 Y35.2412
G01 X93.9023 Y35.4259
G01 X93.8770 Y35.4525
G01 X93.8594 Y35.4698
G01 X93.8459 Y35.4823
G01 X93.6612 Y35.6497
G01 X93.6333 Y35.6738
G01 X93.6141 Y35.6892
G01 X93.5995 Y35.7004
G01 X93.3993 Y35.8489
G01 X93.3692 Y35.8701
G01 X93.3486 Y35.8836
G01 X93.3329 Y35.8932
G01 X93.1191 Y36.0214
G01 X93.0871 Y36.0395
G01 X93.0652 Y36.0509
G01 X93.0487 Y36.0590
G01 X92.8233 Y36.1656
G01 X92.7897 Y36.1805
G01 X92.7668 Y36.1897
G01 X92.7496 Y36.1961
G01 X92.5149 Y36.2801
G01 X92.4799 Y36.2916
G01 X92.4563 Y36.2986
G01 X92.4385 Y36.3033
G01 X92.1967 Y36.3638
G01 X92.1788 Y36.3681
G01 X92.1547 Y36.3731
G01 X92.1184 Y36.3794
G01 X91.8718 Y36.4160
G01 X91.8536 Y36.4185
G01 X91.8291 Y36.4211
G01 X91.7924 Y36.4238
G01 X91.5434 Y36.4360
G01 X91.5035 Y36.4370
G01 X88.9835 Y36.4370
G01 X88.7944 Y36.4463
G01 X88.6269 Y36.4712
G01 X88.4626 Y36.5123
G01 X88.3032 Y36.5694
G01 X88.1501 Y36.6418
G01 X88.0049 Y36.7288
G01 X87.8689 Y36.8297
G01 X87.7434 Y36.9434
G01 X87.6297 Y37.0689
G01 X87.5288 Y37.2049
G01 X87.4418 Y37.3501
G01 X87.3694 Y37.5032
G01 X87.3123 Y37.6626
G01 X87.2712 Y37.8269
G01 X87.2463 Y37.9944
G01 X87.2370 Y38.1835
G01 X87.2370 Y55.9235
G01 X87.2463 Y56.1126
G01 X87.2712 Y56.2801
G01 X87.3123 Y56.4444
G01 X87.3694 Y56.6038
G01 X87.4418 Y56.7569
G01 X87.5288 Y56.9021
G01 X87.6297 Y57.0381
G01 X87.7434 Y57.1636
G01 X87.8689 Y57.2773
G01 X88.0049 Y57.3782
G01 X88.1501 Y57.4652
G01 X88.3032 Y57.5376
G01 X88.4626 Y57.5947
G01 X88.6269 Y57.6358
G01 X88.7944 Y57.6607
G01 X88.9835 Y57.6700
G01 X91.5035 Y57.6700
G01 X91.5434 Y57.6710
G01 X91.7924 Y57.6832
G01 X91.8108 Y57.6843
G01 X91.8353 Y57.6865
G01 X91.8718 Y57.6910
G01 X92.1184 Y57.7276
G01 X92.1366 Y57.7305
G01 X92.1608 Y57.7351
G01 X92.1967 Y57.7432
G01 X92.4385 Y57.8037
G01 X92.4563 Y57.8084
G01 X92.4799 Y57.8154
G01 X92.5149 Y57.8269
G01 X92.7496 Y57.9109
G01 X92.7668 Y57.9173
G01 X92.7897 Y57.9265
G01 X92.8233 Y57.9414
G01 X93.0487 Y58.0480
G01 X93.0816 Y58.0645
G01 X93.1032 Y58.0764
G01 X93.3329 Y58.2138
G01 X93.3486 Y58.2234
G01 X93.3692 Y58.2369
G01 X93.3993 Y58.2581
G01 X93.5995 Y58.4066
G01 X93.6141 Y58.4178
G01 X93.6333 Y58.4332
G01 X93.6612 Y58.4573
G01 X93.8459 Y58.6247
G01 X93.8594 Y58.6372
G01 X93.8770 Y58.6545
G01 X93.9023 Y58.6811
G01 X94.0697 Y58.8658
G01 X94.0938 Y58.8937
G01 X94.1092 Y58.9129
G01 X94.1204 Y58.9275
G01 X94.2689 Y59.1277
G01 X94.2796 Y59.1427
G01 X94.2935 Y59.1630
G01 X94.3132 Y59.1941
G01 X94.4414 Y59.4079
G01 X94.4506 Y59.4238
G01 X94.4625 Y59.4454
G01 X94.4790 Y59.4783
G01 X94.5856 Y59.7037
G01 X94.5932 Y59.7204
G01 X94.6029 Y59.7431
G01 X94.6161 Y59.7774
G01 X94.7001 Y60.0121
G01 X94.7061 Y60.0295
G01 X94.7135 Y60.0530
G01 X94.7233 Y60.0885
G01 X94.7838 Y60.3303
G01 X94.7881 Y60.3482
G01 X94.7931 Y60.3723
G01 X94.7994 Y60.4086
G01 X94.8385 Y60.6734
G01 X94.8411 Y60.6979
G01 X94.8438 Y60.7346
G01 X94.8560 Y60.9836
G01 X94.8570 Y61.0235
G01 X94.8568 Y96.6019
G01 X94.8558 Y96.6265
G01 X94.8531 Y96.6632
G01 X94.8486 Y96.6998
G01 X94.8448 Y96.7241
G01 X94.8376 Y96.7602
G01 X94.8318 Y96.7842
G01 X94.8220 Y96.8197
G01 X94.8105 Y96.8546
G01 X94.8019 Y96.8777
G01 X94.7879 Y96.9117
G01 X94.7775 Y96.9341
G01 X94.7610 Y96.9670
G01 X94.7428 Y96.9990
G01 X94.7300 Y97.0200
G01 X94.7095 Y97.0507
G01 X94.6950 Y97.0706
G01 X94.6724 Y97.0996
G01 X94.6483 Y97.1275
G01 X94.6316 Y97.1456
G01 X94.6056 Y97.1716
G01 X94.5875 Y97.1883
G01 X94.5596 Y97.2124
G01 X94.5306 Y97.2350
G01 X94.5107 Y97.2495
G01 X94.4800 Y97.2700
G01 X94.4590 Y97.2828
G01 X94.4270 Y97.3010
G01 X94.3941 Y97.3175
G01 X94.3717 Y97.3279
G01 X94.3377 Y97.3419
G01 X94.3146 Y97.3505
G01 X94.2797 Y97.3620
G01 X94.2442 Y97.3718
G01 X94.2202 Y97.3776
G01 X94.1841 Y97.3848
G01 X94.1598 Y97.3886
G01 X94.1415 Y97.3911
G01 X94.1049 Y97.3947
G01 X94.0803 Y97.3961
G01 X94.0435 Y97.3970
G01 X71.1651 Y97.3968
G01 X71.1405 Y97.3958
G01 X71.1038 Y97.3931
G01 X71.0672 Y97.3886
G01 X71.0429 Y97.3848
G01 X71.0068 Y97.3776
G01 X70.9828 Y97.3718
G01 X70.9473 Y97.3620
G01 X70.9124 Y97.3505
G01 X70.8893 Y97.3419
G01 X70.8553 Y97.3279
G01 X70.8329 Y97.3175
G01 X70.8000 Y97.3010
G01 X70.7680 Y97.2828
G01 X70.7470 Y97.2700
G01 X70.7163 Y97.2495
G01 X70.6964 Y97.2350
G01 X70.6674 Y97.2124
G01 X70.6395 Y97.1883
G01 X70.6214 Y97.1716
G01 X70.5954 Y97.1456
G01 X70.5787 Y97.1275
G01 X70.5546 Y97.0996
G01 X70.5320 Y97.0706
G01 X70.5175 Y97.0507
G01 X70.4970 Y97.0200
G01 X70.4842 Y96.9990
G01 X70.4660 Y96.9670
G01 X70.4495 Y96.9341
G01 X70.4391 Y96.9117
G01 X70.4251 Y96.8777
G01 X70.4165 Y96.8546
G01 X70.4050 Y96.8197
G01 X70.3952 Y96.7842
G01 X70.3894 Y96.7602
G01 X70.3822 Y96.7241
G01 X70.3784 Y96.6998
G01 X70.3739 Y96.6632
G01 X70.3723 Y96.6449
G01 X70.3709 Y96.6203
G01 X70.3700 Y96.5835
G01 X70.3700 Y61.0235
G01 X70.3710 Y60.9836
G01 X70.3832 Y60.7346
G01 X70.3859 Y60.6979
G01 X70.3885 Y60.6734
G01 X70.3910 Y60.6552
G01 X70.4305 Y60.3904
G01 X70.4351 Y60.3662
G01 X70.4432 Y60.3303
G01 X70.5037 Y60.0885
G01 X70.5135 Y60.0530
G01 X70.5209 Y60.0295
G01 X70.5269 Y60.0121
G01 X70.6109 Y59.7774
G01 X70.6173 Y59.7602
G01 X70.6265 Y59.7373
G01 X70.6414 Y59.7037
G01 X70.7480 Y59.4783
G01 X70.7561 Y59.4618
G01 X70.7675 Y59.4399
G01 X70.7856 Y59.4079
G01 X70.9138 Y59.1941
G01 X70.9234 Y59.1784
G01 X70.9369 Y59.1578
G01 X70.9581 Y59.1277
G01 X71.1066 Y58.9275
G01 X71.1178 Y58.9129
G01 X71.1332 Y58.8937
G01 X71.1573 Y58.8658
G01 X71.3247 Y58.6811
G01 X71.3372 Y58.6676
G01 X71.3545 Y58.6500
G01 X71.3811 Y58.6247
G01 X71.5658 Y58.4573
G01 X71.5796 Y58.4451
G01 X71.5985 Y58.4293
G01 X71.6275 Y58.4066
G01 X71.8277 Y58.2581
G01 X71.8427 Y58.2474
G01 X71.8630 Y58.2335
G01 X71.8941 Y58.2138
G01 X72.1079 Y58.0856
G01 X72.1238 Y58.0764
G01 X72.1454 Y58.0645
G01 X72.1783 Y58.0480
G01 X72.4037 Y57.9414
G01 X72.4373 Y57.9265
G01 X72.4602 Y57.9173
G01 X72.4774 Y57.9109
G01 X72.7121 Y57.8269
G01 X72.7471 Y57.8154
G01 X72.7707 Y57.8084
G01 X72.7885 Y57.8037
G01 X73.0303 Y57.7432
G01 X73.0662 Y57.7351
G01 X73.0904 Y57.7305
G01 X73.1086 Y57.7276
G01 X73.3734 Y57.6885
G01 X73.3979 Y57.6859
G01 X73.4346 Y57.6832
G01 X73.6836 Y57.6710
G01 X73.7235 Y57.6700
G01 X76.2435 Y57.6700
G01 X76.4326 Y57.6607
G01 X76.6001 Y57.6358
G01 X76.7644 Y57.5947
G01 X76.9238 Y57.5376
G01 X77.0769 Y57.4652
G01 X77.2221 Y57.3782
G01 X77.3581 Y57.2773
G01 X77.4836 Y57.1636
G01 X77.5973 Y57.0381
G01 X77.6982 Y56.9021
G01 X77.7852 Y56.7569
G01 X77.8576 Y56.6038
G01 X77.9147 Y56.4444
G01 X77.9558 Y56.2801
G01 X77.9807 Y56.1126
G01 X77.9900 Y55.9235
G01 X77.9900 Y38.1835
G01 X77.9807 Y37.9944
G01 X77.9558 Y37.8269
G01 X77.9147 Y37.6626
G01 X77.8576 Y37.5032
G01 X77.7852 Y37.3501
G01 X77.6982 Y37.2049
G01 X77.5973 Y37.0689
G01 X77.4836 Y36.9434
G01 X77.3581 Y36.8297
G01 X77.2221 Y36.7288
G01 X77.0769 Y36.6418
G01 X76.9238 Y36.5694
G01 X76.7644 Y36.5123
G01 X76.6001 Y36.4712
G01 X76.4326 Y36.4463
G01 X76.2435 Y36.4370
G01 X73.7235 Y36.4370
G01 X73.6836 Y36.4360
G01 X73.4162 Y36.4227
G01 X73.3917 Y36.4205
G01 X73.3552 Y36.4160
G01 X73.1086 Y36.3794
G01 X73.0723 Y36.3731
G01 X73.0482 Y36.3681
G01 X73.0303 Y36.3638
G01 X72.7885 Y36.3033
G01 X72.7707 Y36.2986
G01 X72.7471 Y36.2916
G01 X72.7121 Y36.2801
G01 X72.4774 Y36.1961
G01 X72.4602 Y36.1897
G01 X72.4373 Y36.1805
G01 X72.4037 Y36.1656
G01 X72.1783 Y36.0590
G01 X72.1618 Y36.0509
G01 X72.1399 Y36.0395
G01 X72.1079 Y36.0214
G01 X71.8941 Y35.8932
G01 X71.8784 Y35.8836
G01 X71.8578 Y35.8701
G01 X71.8277 Y35.8489
G01 X71.6275 Y35.7004
G01 X71.6129 Y35.6892
G01 X71.5937 Y35.6738
G01 X71.5658 Y35.6497
G01 X71.3811 Y35.4823
G01 X71.3676 Y35.4698
G01 X71.3500 Y35.4525
G01 X71.3247 Y35.4259
G01 X71.1573 Y35.2412
G01 X71.1451 Y35.2274
G01 X71.1293 Y35.2085
G01 X71.1066 Y35.1795
G01 X70.9581 Y34.9793
G01 X70.9369 Y34.9492
G01 X70.9234 Y34.9286
G01 X70.9138 Y34.9129
G01 X70.7856 Y34.6991
G01 X70.7675 Y34.6671
G01 X70.7561 Y34.6452
G01 X70.7480 Y34.6287
G01 X70.6338 Y34.3866
G01 X70.6241 Y34.3639
G01 X70.6109 Y34.3296
G01 X70.5269 Y34.0949
G01 X70.5154 Y34.0599
G01 X70.5084 Y34.0363
G01 X70.5037 Y34.0185
G01 X70.4432 Y33.7767
G01 X70.4351 Y33.7408
G01 X70.4305 Y33.7166
G01 X70.4276 Y33.6984
G01 X70.3910 Y33.4518
G01 X70.3865 Y33.4153
G01 X70.3843 Y33.3908
G01 X70.3832 Y33.3724
G01 X70.3710 Y33.1234
G01 X70.3702 Y33.1019
G01 X70.3700 Y22.9235
G01 X70.3709 Y22.8867
G01 X70.3723 Y22.8621
G01 X70.3759 Y22.8255
G01 X70.3822 Y22.7829
G01 X70.3894 Y22.7468
G01 X70.3999 Y22.7050
G01 X70.4106 Y22.6698
G01 X70.4251 Y22.6293
G01 X70.4391 Y22.5953
G01 X70.4495 Y22.5729
G01 X70.4660 Y22.5400
G01 X70.4749 Y22.5239
G01 X70.4874 Y22.5026
G01 X70.5071 Y22.4715
G01 X70.5175 Y22.4563
G01 X70.5320 Y22.4364
G01 X70.5546 Y22.4074
G01 X70.5787 Y22.3795
G01 X70.5954 Y22.3614
G01 X70.6082 Y22.3482
G01 X70.6214 Y22.3354
G01 X70.6395 Y22.3187
G01 X70.6674 Y22.2946
G01 X70.6964 Y22.2720
G01 X70.7163 Y22.2575
G01 X70.7315 Y22.2471
G01 X70.7470 Y22.2370
G01 X70.7680 Y22.2242
G01 X70.8000 Y22.2060
G01 X70.8329 Y22.1895
G01 X70.8553 Y22.1791
G01 X70.8893 Y22.1651
G01 X70.9298 Y22.1506
G01 X70.9650 Y22.1399
G01 X71.0068 Y22.1294
G01 X71.0429 Y22.1222
G01 X71.0855 Y22.1159
G01 X71.1221 Y22.1123
G01 X71.1467 Y22.1109
G00 Z2.0000
G00 X94.8570 Y20.3835
G01 F60.00
G01 Z-2.4000
G01 F120.00
G01 X94.8561 Y20.4203
G01 X94.8547 Y20.4449
G01 X94.8531 Y20.4632
G01 X94.8511 Y20.4815
G01 X94.8477 Y20.5059
G01 X94.8414 Y20.5422
G01 X94.8376 Y20.5602
G01 X94.8318 Y20.5842
G01 X94.8220 Y20.6197
G01 X94.8164 Y20.6372
G01 X94.8084 Y20.6605
G01 X94.7951 Y20.6948
G01 X94.7802 Y20.7285
G01 X94.7694 Y20.7507
G01 X94.7610 Y20.7670
G01 X94.7521 Y20.7831
G01 X94.7396 Y20.8044
G01 X94.7199 Y20.8355
G01 X94.6987 Y20.8656
G01 X94.6839 Y20.8852
G01 X94.6724 Y20.8996
G01 X94.6483 Y20.9275
G01 X94.6316 Y20.9456
G01 X94.6188 Y20.9588
G01 X94.6056 Y20.9716
G01 X94.5875 Y20.9883
G01 X94.5596 Y21.0124
G01 X94.5306 Y21.0350
G01 X94.5107 Y21.0495
G01 X94.4955 Y21.0599
G01 X94.4800 Y21.0700
G01 X94.4590 Y21.0828
G01 X94.4270 Y21.1010
G01 X94.3941 Y21.1175
G01 X94.3717 Y21.1279
G01 X94.3548 Y21.1351
G01 X94.3205 Y21.1484
G01 X94.2972 Y21.1564
G01 X94.2797 Y21.1620
G01 X94.2442 Y21.1718
G01 X94.2202 Y21.1776
G01 X94.2022 Y21.1814
G01 X94.1841 Y21.1848
G01 X94.1598 Y21.1886
G01 X94.1232 Y21.1931
G01 X94.0865 Y21.1958
G01 X94.0619 Y21.1968
G01 X71.1835 Y21.1970
G01 X71.1467 Y21.1961
G01 X71.1221 Y21.1947
G01 X71.1038 Y21.1931
G01 X71.0672 Y21.1886
G01 X71.0429 Y21.1848
G01 X71.0068 Y21.1776
G01 X70.9650 Y21.1671
G01 X70.9298 Y21.1564
G01 X70.9065 Y21.1484
G01 X70.8722 Y21.1351
G01 X70.8553 Y21.1279
G01 X70.8329 Y21.1175
G01 X70.8000 Y21.1010
G01 X70.7680 Y21.0828
G01 X70.7470 Y21.0700
G01 X70.7163 Y21.0495
G01 X70.6818 Y21.0239
G01 X70.6533 Y21.0005
G01 X70.6214 Y20.9716
G01 X70.5954 Y20.9456
G01 X70.5665 Y20.9137
G01 X70.5431 Y20.8852
G01 X70.5320 Y20.8706
G01 X70.5175 Y20.8507
G01 X70.5071 Y20.8355
G01 X70.4874 Y20.8044
G01 X70.4749 Y20.7831
G01 X70.4660 Y20.7670
G01 X70.4576 Y20.7507
G01 X70.4468 Y20.7285
G01 X70.4319 Y20.6948
G01 X70.4251 Y20.6777
G01 X70.4106 Y20.6372
G01 X70.3999 Y20.6020
G01 X70.3894 Y20.5602
G01 X70.3822 Y20.5241
G01 X70.3793 Y20.5059
G01 X70.3759 Y20.4815
G01 X70.3739 Y20.4632
G01 X70.3723 Y20.4449
G01 X70.3709 Y20.4203
G01 X70.3700 Y20.3835
G01 X70.3700 Y0.0635
G01 X70.3709 Y0.0267
G01 X70.3723 Y0.0021
G01 X70.3739 Y-0.0162
G01 X70.3784 Y-0.0528
G01 X70.3822 Y-0.0771
G01 X70.3894 Y-0.1132
G01 X70.3999 Y-0.1550
G01 X70.4106 Y-0.1902
G01 X70.4186 Y-0.2135
G01 X70.4319 Y-0.2478
G01 X70.4468 Y-0.2815
G01 X70.4576 Y-0.3037
G01 X70.4660 Y-0.3200
G01 X70.4842 Y-0.3520
G01 X70.4970 Y-0.3730
G01 X70.5175 Y-0.4037
G01 X70.5431 Y-0.4382
G01 X70.5665 Y-0.4667
G01 X70.5954 Y-0.4986
G01 X70.6214 Y-0.5246
G01 X70.6533 Y-0.5535
G01 X70.6818 Y-0.5769
G01 X70.6964 Y-0.5880
G01 X70.7163 Y-0.6025
G01 X70.7315 Y-0.6129
G01 X70.7626 Y-0.6326
G01 X70.7839 Y-0.6451
G01 X70.8000 Y-0.6540
G01 X70.8163 Y-0.6624
G01 X70.8385 Y-0.6732
G01 X70.8553 Y-0.6809
G01 X70.8893 Y-0.6949
G01 X70.9298 Y-0.7094
G01 X70.9650 Y-0.7201
G01 X71.0068 Y-0.7306
G01 X71.0248 Y-0.7344
G01 X71.0611 Y-0.7407
G01 X71.0855 Y-0.7441
G01 X71.1038 Y-0.7461
G01 X71.1221 Y-0.7477
G01 X71.1467 Y-0.7491
G01 X71.1835 Y-0.7500
G01 X94.0435 Y-0.7500
G01 X94.0803 Y-0.7491
G01 X94.1049 Y-0.7477
G01 X94.1232 Y-0.7461
G01 X94.1598 Y-0.7416
G01 X94.1841 Y-0.7378
G01 X94.2202 Y-0.7306
G01 X94.2620 Y-0.7201
G01 X94.2972 Y-0.7094
G01 X94.3205 Y-0.7014
G01 X94.3548 Y-0.6881
G01 X94.3717 Y-0.6809
G01 X94.3941 Y-0.6705
G01 X94.4270 Y-0.6540
G01 X94.4590 Y-0.6358
G01 X94.4800 Y-0.6230
G01 X94.5107 Y-0.6025
G01 X94.5452 Y-0.5769
G01 X94.5737 Y-0.5535
G01 X94.6056 Y-0.5246
G01 X94.6316 Y-0.4986
G01 X94.6605 Y-0.4667
G01 X94.6839 Y-0.4382
G01 X94.6950 Y-0.4236
G01 X94.7095 Y-0.4037
G01 X94.7199 Y-0.3885
G01 X94.7300 Y-0.3730
G01 X94.7428 Y-0.3520
G01 X94.7610 Y-0.3200
G01 X94.7694 Y-0.3037
G01 X94.7802 Y-0.2815
G01 X94.7951 Y-0.2478
G01 X94.8019 Y-0.2307
G01 X94.8164 Y-0.1902
G01 X94.8271 Y-0.1550
G01 X94.8376 Y-0.1132
G01 X94.8448 Y-0.0771
G01 X94.8511 Y-0.0345
G01 X94.8547 Y0.0021
G01 X94.8568 Y0.0451
G01 X94.8570 Y20.3835
G00 Z2.0000
G00 X144.8435 Y11.9500
G01 F60.00
G01 Z-2.4000
G01 F120.00
G01 X144.8803 Y11.9509
G01 X144.9049 Y11.9523
G01 X144.9232 Y11.9539
G01 X144.9415 Y11.9559
G01 X144.9659 Y11.9593
G01 X145.0022 Y11.9656
G01 X145.0381 Y11.9737
G01 X145.0620 Y11.9799
G01 X145.0797 Y11.9850
G01 X145.0972 Y11.9906
G01 X145.1205 Y11.9986
G01 X145.1548 Y12.0119
G01 X145.1717 Y12.0191
G01 X145.1941 Y12.0295
G01 X145.2270 Y12.0460
G01 X145.2590 Y12.0642
G01 X145.2800 Y12.0770
G01 X145.2955 Y12.0871
G01 X145.3107 Y12.0975
G01 X145.3306 Y12.1120
G01 X145.3596 Y12.1346
G01 X145.3875 Y12.1587
G01 X145.4056 Y12.1754
G01 X145.4188 Y12.1882
G01 X145.4441 Y12.2149
G01 X145.4605 Y12.2333
G01 X145.4724 Y12.2474
G01 X145.4839 Y12.2618
G01 X145.4987 Y12.2814
G01 X145.5199 Y12.3115
G01 X145.5396 Y12.3426
G01 X145.5521 Y12.3639
G01 X145.5610 Y12.3800
G01 X145.5694 Y12.3963
G01 X145.5802 Y12.4185
G01 X145.5951 Y12.4522
G01 X145.6084 Y12.4865
G01 X145.6164 Y12.5098
G01 X145.6220 Y12.5273
G01 X145.6271 Y12.5450
G01 X145.6333 Y12.5689
G01 X145.6414 Y12.6048
G01 X145.6448 Y12.6229
G01 X145.6486 Y12.6472
G01 X145.6531 Y12.6838
G01 X145.6558 Y12.7205
G01 X145.6568 Y12.7451
G01 X145.6570 Y53.4035
G01 X145.6560 Y53.4434
G01 X145.6438 Y53.6924
G01 X145.6427 Y53.7108
G01 X145.6405 Y53.7353
G01 X145.6360 Y53.7718
G01 X145.5994 Y54.0184
G01 X145.5965 Y54.0366
G01 X145.5919 Y54.0608
G01 X145.5838 Y54.0967
G01 X145.5233 Y54.3385
G01 X145.5186 Y54.3563
G01 X145.5116 Y54.3799
G01 X145.5001 Y54.4149
G01 X145.4161 Y54.6496
G01 X145.4097 Y54.6668
G01 X145.4005 Y54.6897
G01 X145.3856 Y54.7233
G01 X145.2790 Y54.9487
G01 X145.2625 Y54.9816
G01 X145.2506 Y55.0032
G01 X145.2414 Y55.0191
G01 X145.1132 Y55.2329
G01 X145.1036 Y55.2486
G01 X145.0901 Y55.2692
G01 X145.0689 Y55.2993
G01 X144.9204 Y55.4995
G01 X144.9092 Y55.5141
G01 X144.8938 Y55.5333
G01 X144.8697 Y55.5612
G01 X144.7023 Y55.7459
G01 X144.6898 Y55.7594
G01 X144.6725 Y55.7770
G01 X144.6459 Y55.8023
G01 X144.4612 Y55.9697
G01 X144.4474 Y55.9819
G01 X144.4285 Y55.9977
G01 X144.3995 Y56.0204
G01 X144.1993 Y56.1689
G01 X144.1843 Y56.1796
G01 X144.1640 Y56.1935
G01 X144.1329 Y56.2132
G01 X143.9191 Y56.3414
G01 X143.8871 Y56.3595
G01 X143.8652 Y56.3709
G01 X143.8487 Y56.3790
G01 X143.6233 Y56.4856
G01 X143.5897 Y56.5005
G01 X143.5668 Y56.5097
G01 X143.5496 Y56.5161
G01 X143.3149 Y56.6001
G01 X143.2799 Y56.6116
G01 X143.2563 Y56.6186
G01 X143.2385 Y56.6233
G01 X142.9967 Y56.6838
G01 X142.9608 Y56.6919
G01 X142.9366 Y56.6965
G01 X142.9184 Y56.6994
G01 X142.6718 Y56.7360
G01 X142.6353 Y56.7405
G01 X142.6108 Y56.7427
G01 X142.5924 Y56.7438
G01 X142.3434 Y56.7560
G01 X142.3035 Y56.7570
G01 X139.7835 Y56.7570
G01 X139.5944 Y56.7663
G01 X139.4269 Y56.7912
G01 X139.2626 Y56.8323
G01 X139.1032 Y56.8894
G01 X138.9501 Y56.9618
G01 X138.8049 Y57.0488
G01 X138.6689 Y57.1497
G01 X138.5434 Y57.2634
G01 X138.4297 Y57.3889
G01 X138.3288 Y57.5249
G01 X138.2418 Y57.6701
G01 X138.1694 Y57.8232
G01 X138.1123 Y57.9826
G01 X138.0712 Y58.1469
G01 X138.0463 Y58.3144
G01 X138.0370 Y58.5035
G01 X138.0370 Y73.7047
G01 X138.0453 Y73.8827
G01 X138.0673 Y74.0406
G01 X138.1038 Y74.1957
G01 X138.1544 Y74.3469
G01 X138.2188 Y74.4927
G01 X138.2964 Y74.6319
G01 X138.3864 Y74.7634
G01 X138.4883 Y74.8860
G01 X138.6010 Y74.9987
G01 X138.7236 Y75.1006
G01 X138.8551 Y75.1906
G01 X138.9943 Y75.2682
G01 X139.1401 Y75.3326
G01 X139.2913 Y75.3832
G01 X139.4464 Y75.4197
G01 X139.6043 Y75.4417
G01 X139.7823 Y75.4500
G01 X142.3035 Y75.4500
G01 X142.3434 Y75.4510
G01 X142.5924 Y75.4632
G01 X142.6108 Y75.4643
G01 X142.6353 Y75.4665
G01 X142.6718 Y75.4710
G01 X142.9184 Y75.5076
G01 X142.9366 Y75.5105
G01 X142.9608 Y75.5151
G01 X142.9967 Y75.5232
G01 X143.2385 Y75.5837
G01 X143.2563 Y75.5884
G01 X143.2799 Y75.5954
G01 X143.3149 Y75.6069
G01 X143.5496 Y75.6909
G01 X143.5668 Y75.6973
G01 X143.5897 Y75.7065
G01 X143.6233 Y75.7214
G01 X143.8487 Y75.8280
G01 X143.8652 Y75.8361
G01 X143.8871 Y75.8475
G01 X143.9191 Y75.8656
G01 X144.1329 Y75.9938
G01 X144.1486 Y76.0034
G01 X144.1692 Y76.0169
G01 X144.1993 Y76.0381
G01 X144.3995 Y76.1866
G01 X144.4141 Y76.1978
G01 X144.4333 Y76.2132
G01 X144.4612 Y76.2373
G01 X144.6459 Y76.4047
G01 X144.6594 Y76.4172
G01 X144.6770 Y76.4345
G01 X144.7023 Y76.4611
G01 X144.8697 Y76.6458
G01 X144.8938 Y76.6737
G01 X144.9092 Y76.6929
G01 X144.9204 Y76.7075
G01 X145.0689 Y76.9077
G01 X145.0901 Y76.9378
G01 X145.1036 Y76.9584
G01 X145.1132 Y76.9741
G01 X145.2414 Y77.1879
G01 X145.2595 Y77.2199
G01 X145.2709 Y77.2418
G01 X145.2790 Y77.2583
G01 X145.3856 Y77.4837
G01 X145.4005 Y77.5173
G01 X145.4097 Y77.5402
G01 X145.4161 Y77.5574
G01 X145.5061 Y77.8095
G01 X145.5135 Y77.8330
G01 X145.5233 Y77.8685
G01 X145.5838 Y78.1103
G01 X145.5881 Y78.1282
G01 X145.5931 Y78.1523
G01 X145.5994 Y78.1886
G01 X145.6360 Y78.4352
G01 X145.6385 Y78.4534
G01 X145.6411 Y78.4779
G01 X145.6438 Y78.5146
G01 X145.6560 Y78.7636
G01 X145.6570 Y78.8035
G01 X145.6570 Y96.5835
G01 X145.6561 Y96.6203
G01 X145.6547 Y96.6449
G01 X145.6531 Y96.6632
G01 X145.6486 Y96.6998
G01 X145.6448 Y96.7241
G01 X145.6414 Y96.7422
G01 X145.6333 Y96.7781
G01 X145.6271 Y96.8020
G01 X145.6164 Y96.8372
G01 X145.6084 Y96.8605
G01 X145.5951 Y96.8948
G01 X145.5802 Y96.9285
G01 X145.5694 Y96.9507
G01 X145.5521 Y96.9831
G01 X145.5396 Y97.0044
G01 X145.5199 Y97.0355
G01 X145.4987 Y97.0656
G01 X145.4839 Y97.0852
G01 X145.4605 Y97.1137
G01 X145.4441 Y97.1321
G01 X145.4188 Y97.1588
G01 X145.3921 Y97.1841
G01 X145.3737 Y97.2005
G01 X145.3452 Y97.2239
G01 X145.3256 Y97.2387
G01 X145.2955 Y97.2599
G01 X145.2800 Y97.2700
G01 X145.2590 Y97.2828
G01 X145.2270 Y97.3010
G01 X145.1941 Y97.3175
G01 X145.1717 Y97.3279
G01 X145.1377 Y97.3419
G01 X145.1146 Y97.3505
G01 X145.0797 Y97.3620
G01 X145.0442 Y97.3718
G01 X145.0202 Y97.3776
G01 X144.9841 Y97.3848
G01 X144.9598 Y97.3886
G01 X144.9232 Y97.3931
G01 X144.8865 Y97.3958
G01 X144.8619 Y97.3968
G01 X121.9835 Y97.3970
G01 X121.9467 Y97.3961
G01 X121.9221 Y97.3947
G01 X121.9038 Y97.3931
G01 X121.8672 Y97.3886
G01 X121.8429 Y97.3848
G01 X121.8248 Y97.3814
G01 X121.7889 Y97.3733
G01 X121.7650 Y97.3671
G01 X121.7298 Y97.3564
G01 X121.7065 Y97.3484
G01 X121.6722 Y97.3351
G01 X121.6385 Y97.3202
G01 X121.6163 Y97.3094
G01 X121.5839 Y97.2921
G01 X121.5626 Y97.2796
G01 X121.5315 Y97.2599
G01 X121.5014 Y97.2387
G01 X121.4818 Y97.2239
G01 X121.4533 Y97.2005
G01 X121.4349 Y97.1841
G01 X121.4082 Y97.1588
G01 X121.3829 Y97.1321
G01 X121.3665 Y97.1137
G01 X121.3431 Y97.0852
G01 X121.3283 Y97.0656
G01 X121.3071 Y97.0355
G01 X121.2874 Y97.0044
G01 X121.2749 Y96.9831
G01 X121.2660 Y96.9670
G01 X121.2495 Y96.9341
G01 X121.2391 Y96.9117
G01 X121.2251 Y96.8777
G01 X121.2165 Y96.8546
G01 X121.2050 Y96.8197
G01 X121.1952 Y96.7842
G01 X121.1894 Y96.7602
G01 X121.1822 Y96.7241
G01 X121.1784 Y96.6998
G01 X121.1739 Y96.6632
G01 X121.1712 Y96.6265
G01 X121.1702 Y96.6019
G01 X121.1700 Y78.8035
G01 X121.1710 Y78.7636
G01 X121.1832 Y78.5146
G01 X121.1859 Y78.4779
G01 X121.1885 Y78.4534
G01 X121.1910 Y78.4352
G01 X121.2305 Y78.1704
G01 X121.2351 Y78.1462
G01 X121.2432 Y78.1103
G01 X121.3037 Y77.8685
G01 X121.3135 Y77.8330
G01 X121.3209 Y77.8095
G01 X121.3269 Y77.7921
G01 X121.4109 Y77.5574
G01 X121.4173 Y77.5402
G01 X121.4265 Y77.5173
G01 X121.4414 Y77.4837
G01 X121.5480 Y77.2583
G01 X121.5561 Y77.2418
G01 X121.5675 Y77.2199
G01 X121.5856 Y77.1879
G01 X121.7138 Y76.9741
G01 X121.7234 Y76.9584
G01 X121.7369 Y76.9378
G01 X121.7581 Y76.9077
G01 X121.9066 Y76.7075
G01 X121.9178 Y76.6929
G01 X121.9332 Y76.6737
G01 X121.9573 Y76.6458
G01 X122.1247 Y76.4611
G01 X122.1372 Y76.4476
G01 X122.1545 Y76.4300
G01 X122.1811 Y76.4047
G01 X122.3658 Y76.2373
G01 X122.3796 Y76.2251
G01 X122.3985 Y76.2093
G01 X122.4275 Y76.1866
G01 X122.6277 Y76.0381
G01 X122.6578 Y76.0169
G01 X122.6784 Y76.0034
G01 X122.6941 Y75.9938
G01 X122.9079 Y75.8656
G01 X122.9399 Y75.8475
G01 X122.9618 Y75.8361
G01 X123.2037 Y75.7214
G01 X123.2204 Y75.7138
G01 X123.2431 Y75.7041
G01 X123.2774 Y75.6909
G01 X123.5121 Y75.6069
G01 X123.5295 Y75.6009
G01 X123.5530 Y75.5935
G01 X123.5885 Y75.5837
G01 X123.8303 Y75.5232
G01 X123.8482 Y75.5189
G01 X123.8723 Y75.5139
G01 X123.9086 Y75.5076
G01 X124.1552 Y75.4710
G01 X124.1917 Y75.4665
G01 X124.2162 Y75.4643
G01 X124.2346 Y75.4632
G01 X124.4836 Y75.4510
G01 X124.5235 Y75.4500
G01 X127.0435 Y75.4500
G01 X127.2326 Y75.4407
G01 X127.4001 Y75.4158
G01 X127.5644 Y75.3747
G01 X127.7238 Y75.3176
G01 X127.8769 Y75.2452
G01 X128.0221 Y75.1582
G01 X128.1581 Y75.0573
G01 X128.2836 Y74.9436
G01 X128.3973 Y74.8181
G01 X128.4982 Y74.6821
G01 X128.5852 Y74.5369
G01 X128.6576 Y74.3838
G01 X128.7147 Y74.2244
G01 X128.7558 Y74.0601
G01 X128.7807 Y73.8926
G01 X128.7900 Y73.7035
G01 X128.7900 Y58.5035
G01 X128.7807 Y58.3144
G01 X128.7558 Y58.1469
G01 X128.7147 Y57.9826
G01 X128.6576 Y57.8232
G01 X128.5852 Y57.6701
G01 X128.4982 Y57.5249
G01 X128.3973 Y57.3889
G01 X128.2836 Y57.2634
G01 X128.1581 Y57.1497
G01 X128.0221 Y57.0488
G01 X127.8769 Y56.9618
G01 X127.7238 Y56.8894
G01 X127.5644 Y56.8323
G01 X127.4001 Y56.7912
G01 X127.2326 Y56.7663
G01 X127.0435 Y56.7570
G01 X124.5235 Y56.7570
G01 X124.4836 Y56.7560
G01 X124.2346 Y56.7438
G01 X124.1979 Y56.7411
G01 X124.1734 Y56.7385
G01 X123.9086 Y56.6994
G01 X123.8904 Y56.6965
G01 X123.8662 Y56.6919
G01 X123.8303 Y56.6838
G01 X123.5885 Y56.6233
G01 X123.5707 Y56.6186
G01 X123.5471 Y56.6116
G01 X123.5121 Y56.6001
G01 X123.2774 Y56.5161
G01 X123.2602 Y56.5097
G01 X123.2373 Y56.5005
G01 X123.2037 Y56.4856
G01 X122.9783 Y56.3790
G01 X122.9618 Y56.3709
G01 X122.9399 Y56.3595
G01 X122.9079 Y56.3414
G01 X122.6941 Y56.2132
G01 X122.6784 Y56.2036
G01 X122.6578 Y56.1901
G01 X122.6277 Y56.1689
G01 X122.4275 Y56.0204
G01 X122.4129 Y56.0092
G01 X122.3937 Y55.9938
G01 X122.3658 Y55.9697
G01 X122.1811 Y55.8023
G01 X122.1676 Y55.7898
G01 X122.1500 Y55.7725
G01 X122.1247 Y55.7459
G01 X121.9573 Y55.5612
G01 X121.9451 Y55.5474
G01 X121.9293 Y55.5285
G01 X121.9066 Y55.4995
G01 X121.7581 Y55.2993
G01 X121.7474 Y55.2843
G01 X121.7335 Y55.2640
G01 X121.7138 Y55.2329
G01 X121.5856 Y55.0191
G01 X121.5675 Y54.9871
G01 X121.5561 Y54.9652
G01 X121.5480 Y54.9487
G01 X121.4414 Y54.7233
G01 X121.4265 Y54.6897
G01 X121.4173 Y54.6668
G01 X121.4109 Y54.6496
G01 X121.3269 Y54.4149
G01 X121.3209 Y54.3975
G01 X121.3135 Y54.3740
G01 X121.3037 Y54.3385
G01 X121.2432 Y54.0967
G01 X121.2351 Y54.0608
G01 X121.2305 Y54.0366
G01 X121.1910 Y53.7718
G01 X121.1885 Y53.7536
G01 X121.1859 Y53.7291
G01 X121.1832 Y53.6924
G01 X121.1710 Y53.4434
G01 X121.1700 Y53.4035
G01 X121.1700 Y12.7635
G01 X121.1709 Y12.7267
G01 X121.1723 Y12.7021
G01 X121.1759 Y12.6655
G01 X121.1784 Y12.6472
G01 X121.1822 Y12.6229
G01 X121.1856 Y12.6048
G01 X121.1937 Y12.5689
G01 X121.1999 Y12.5450
G01 X121.2106 Y12.5098
G01 X121.2186 Y12.4865
G01 X121.2319 Y12.4522
G01 X121.2468 Y12.4185
G01 X121.2576 Y12.3963
G01 X121.2749 Y12.3639
G01 X121.2874 Y12.3426
G01 X121.3071 Y12.3115
G01 X121.3283 Y12.2814
G01 X121.3431 Y12.2618
G01 X121.3665 Y12.2333
G01 X121.3829 Y12.2149
G01 X121.4082 Y12.1882
G01 X121.4349 Y12.1629
G01 X121.4533 Y12.1465
G01 X121.4818 Y12.1231
G01 X121.5014 Y12.1083
G01 X121.5315 Y12.0871
G01 X121.5470 Y12.0770
G01 X121.5680 Y12.0642
G01 X121.6000 Y12.0460
G01 X121.6329 Y12.0295
G01 X121.6553 Y12.0191
G01 X121.6893 Y12.0051
G01 X121.7124 Y11.9965
G01 X121.7473 Y11.9850
G01 X121.7828 Y11.9752
G01 X121.8068 Y11.9694
G01 X121.8429 Y11.9622
G01 X121.8672 Y11.9584
G01 X121.9038 Y11.9539
G01 X121.9405 Y11.9512
G01 X121.9651 Y11.9502
G01 X144.8435 Y11.9500
G00 Z2.0000
G00 X120.2570 Y96.5835
G01 F60.00
G01 Z-2.4000
G01 F120.00
G01 X120.2561 Y96.6203
G01 X120.2547 Y96.6449
G01 X120.2531 Y96.6632
G01 X120.2511 Y96.6815
G01 X120.2477 Y96.7059
G01 X120.2414 Y96.7422
G01 X120.2333 Y96.7781
G01 X120.2271 Y96.8020
G01 X120.2220 Y96.8197
G01 X120.2105 Y96.8546
G01 X120.2019 Y96.8777
G01 X120.1951 Y96.8948
G01 X120.1879 Y96.9117
G01 X120.1775 Y96.9341
G01 X120.1610 Y96.9670
G01 X120.1428 Y96.9990
G01 X120.1300 Y97.0200
G01 X120.1199 Y97.0355
G01 X120.1095 Y97.0507
G01 X120.0950 Y97.0706
G01 X120.0724 Y97.0996
G01 X120.0483 Y97.1275
G01 X120.0316 Y97.1456
G01 X120.0188 Y97.1588
G01 X120.0056 Y97.1716
G01 X119.9875 Y97.1883
G01 X119.9596 Y97.2124
G01 X119.9306 Y97.2350
G01 X119.9107 Y97.2495
G01 X119.8955 Y97.2599
G01 X119.8644 Y97.2796
G01 X119.8431 Y97.2921
G01 X119.8270 Y97.3010
G01 X119.8107 Y97.3094
G01 X119.7885 Y97.3202
G01 X119.7548 Y97.3351
G01 X119.7205 Y97.3484
G01 X119.6972 Y97.3564
G01 X119.6797 Y97.3620
G01 X119.6620 Y97.3671
G01 X119.6381 Y97.3733
G01 X119.6022 Y97.3814
G01 X119.5659 Y97.3877
G01 X119.5415 Y97.3911
G01 X119.5232 Y97.3931
G01 X119.5049 Y97.3947
G01 X119.4803 Y97.3961
G01 X119.4435 Y97.3970
G01 X96.5651 Y97.3968
G01 X96.5405 Y97.3958
G01 X96.5038 Y97.3931
G01 X96.4855 Y97.3911
G01 X96.4611 Y97.3877
G01 X96.4248 Y97.3814
G01 X96.3889 Y97.3733
G01 X96.3650 Y97.3671
G01 X96.3298 Y97.3564
G01 X96.3065 Y97.3484
G01 X96.2722 Y97.3351
G01 X96.2385 Y97.3202
G01 X96.2163 Y97.3094
G01 X96.1839 Y97.2921
G01 X96.1626 Y97.2796
G01 X96.1315 Y97.2599
G01 X96.1014 Y97.2387
G01 X96.0818 Y97.2239
G01 X96.0533 Y97.2005
G01 X96.0349 Y97.1841
G01 X96.0082 Y97.1588
G01 X95.9829 Y97.1321
