(G-CODE GENERATED BY FLATCAM v8.994 - www.flatcam.org - Version Date: 2020/11/7)

(Name: Conn2 - Bottom Copper.gbr_iso_combined_cnc)
(Type: G-code from Geometry)
(Units: MM)

(Created on Monday, 09 December 2024 at 10:52)

(This preprocessor is the default preprocessor used by FlatCAM.)
(It is made to work with MACH3 compatible motion controllers.)

(TOOL DIAMETER: 0.331 mm)
(Feedrate_XY: 320.0 mm/min)
(Feedrate_Z: 60.0 mm/min)
(Feedrate rapids 1500.0 mm/min)

(Z_Cut: -0.2001 mm)
(Z_Move: 2.0 mm)
(Z Start: None mm)
(Z End: 15.0 mm)
(X,Y End: None mm)
(Steps per circle: 64)
(Preprocessor Geometry: default)

(X range:    3.4822 ...  209.9798  mm)
(Y range:    3.4822 ...   90.6595  mm)

(Spindle Speed: 0.0 RPM)
G21
G90
G94

G01 F320.00
G00 Z15.0000

M03
G01 F320.00
G00 X6.2238 Y29.2820
G01 F60.00
G01 Z-0.2001
G01 F320.00
G01 X6.6032 Y29.2820
G01 X6.6296 Y29.2593
G01 X6.6441 Y29.2476
G01 X6.7451 Y29.1727
G01 X6.7762 Y29.1520
G01 X6.8678 Y29.0967
G01 X6.9003 Y29.0783
G01 X6.9169 Y29.0697
G01 X7.0136 Y29.0238
G01 X7.0477 Y29.0086
G01 X7.0826 Y28.9952
G01 X7.1658 Y28.9654
G01 X7.2012 Y28.9537
G01 X7.2372 Y28.9437
G01 X7.3229 Y28.9223
G01 X7.3594 Y28.9141
G01 X7.3962 Y28.9077
G01 X7.4836 Y28.8947
G01 X7.5207 Y28.8902
G01 X7.5579 Y28.8874
G01 X7.6461 Y28.8831
G01 X7.6835 Y28.8822
G01 X7.7209 Y28.8831
G01 X7.8091 Y28.8874
G01 X7.8463 Y28.8902
G01 X7.8834 Y28.8947
G01 X7.9708 Y28.9077
G01 X8.0076 Y28.9141
G01 X8.0441 Y28.9223
G01 X8.1298 Y28.9437
G01 X8.1658 Y28.9537
G01 X8.2012 Y28.9654
G01 X8.2844 Y28.9952
G01 X8.3193 Y29.0086
G01 X8.3534 Y29.0238
G01 X8.4501 Y29.0697
G01 X8.4667 Y29.0783
G01 X8.4992 Y29.0967
G01 X8.5908 Y29.1520
G01 X8.6219 Y29.1727
G01 X8.7229 Y29.2476
G01 X8.7374 Y29.2593
G01 X8.7638 Y29.2820
G01 X14.2232 Y29.2820
G01 X14.2496 Y29.2593
G01 X14.2641 Y29.2476
G01 X14.3651 Y29.1727
G01 X14.3962 Y29.1520
G01 X14.4878 Y29.0967
G01 X14.5203 Y29.0783
G01 X14.5537 Y29.0615
G01 X14.6506 Y29.0160
G01 X14.6851 Y29.0017
G01 X14.7026 Y28.9952
G01 X14.7858 Y28.9654
G01 X14.8212 Y28.9537
G01 X14.8572 Y28.9437
G01 X14.9429 Y28.9223
G01 X14.9794 Y28.9141
G01 X15.0162 Y28.9077
G01 X15.1036 Y28.8947
G01 X15.1407 Y28.8902
G01 X15.1779 Y28.8874
G01 X15.2661 Y28.8831
G01 X15.3035 Y28.8822
G01 X15.3409 Y28.8831
G01 X15.4291 Y28.8874
G01 X15.4663 Y28.8902
G01 X15.5034 Y28.8947
G01 X15.5908 Y28.9077
G01 X15.6276 Y28.9141
G01 X15.6641 Y28.9223
G01 X15.7498 Y28.9437
G01 X15.7858 Y28.9537
G01 X15.8212 Y28.9654
G01 X15.9044 Y28.9952
G01 X15.9393 Y29.0086
G01 X15.9564 Y29.0160
G01 X16.0533 Y29.0615
G01 X16.0867 Y29.0783
G01 X16.1192 Y29.0967
G01 X16.2108 Y29.1520
G01 X16.2419 Y29.1727
G01 X16.3429 Y29.2476
G01 X16.3574 Y29.2593
G01 X16.3838 Y29.2820
G01 X16.7632 Y29.2820
G01 X16.7896 Y29.2593
G01 X16.8041 Y29.2476
G01 X16.9051 Y29.1727
G01 X16.9362 Y29.1520
G01 X16.9521 Y29.1421
G01 X17.0440 Y29.0873
G01 X17.0603 Y29.0783
G01 X17.0937 Y29.0615
G01 X17.1906 Y29.0160
G01 X17.2251 Y29.0017
G01 X17.3258 Y28.9654
G01 X17.3434 Y28.9593
G01 X17.3792 Y28.9485
G01 X17.5011 Y28.9179
G01 X17.5378 Y28.9107
G01 X17.6436 Y28.8947
G01 X17.6807 Y28.8902
G01 X17.7179 Y28.8874
G01 X17.8248 Y28.8824
G01 X17.8622 Y28.8824
G01 X17.8809 Y28.8831
G01 X17.9691 Y28.8874
G01 X18.0063 Y28.8902
G01 X18.0434 Y28.8947
G01 X18.1492 Y28.9107
G01 X18.1676 Y28.9141
G01 X18.2041 Y28.9223
G01 X18.3078 Y28.9485
G01 X18.3436 Y28.9593
G01 X18.4444 Y28.9952
G01 X18.4793 Y29.0086
G01 X18.5134 Y29.0238
G01 X18.5933 Y29.0615
G01 X18.6267 Y29.0783
G01 X18.6592 Y29.0967
G01 X18.7508 Y29.1520
G01 X18.7819 Y29.1727
G01 X18.8680 Y29.2363
G01 X18.8974 Y29.2593
G01 X18.9257 Y29.2837
G01 X18.9912 Y29.3430
G01 X19.0049 Y29.3557
G01 X19.0313 Y29.3821
G01 X19.1033 Y29.4613
G01 X19.1277 Y29.4896
G01 X19.1507 Y29.5190
G01 X19.2033 Y29.5900
G01 X19.2249 Y29.6205
G01 X19.2449 Y29.6521
G01 X19.2903 Y29.7278
G01 X19.3087 Y29.7603
G01 X19.3255 Y29.7937
G01 X19.3710 Y29.8906
G01 X19.3853 Y29.9251
G01 X19.4216 Y30.0258
G01 X19.4333 Y30.0612
G01 X19.4433 Y30.0972
G01 X19.4647 Y30.1829
G01 X19.4729 Y30.2194
G01 X19.4793 Y30.2562
G01 X19.4948 Y30.3621
G01 X19.4984 Y30.3993
G01 X19.5039 Y30.5061
G01 X19.5048 Y30.5435
G01 X19.5039 Y30.5809
G01 X19.4984 Y30.6877
G01 X19.4948 Y30.7249
G01 X19.4793 Y30.8308
G01 X19.4729 Y30.8676
G01 X19.4647 Y30.9041
G01 X19.4433 Y30.9898
G01 X19.4333 Y31.0258
G01 X19.4216 Y31.0612
G01 X19.3918 Y31.1444
G01 X19.3784 Y31.1793
G01 X19.3632 Y31.2134
G01 X19.3255 Y31.2933
G01 X19.3087 Y31.3267
G01 X19.2903 Y31.3592
G01 X19.2449 Y31.4349
G01 X19.2249 Y31.4665
G01 X19.2033 Y31.4970
G01 X19.1394 Y31.5829
G01 X19.1157 Y31.6117
G01 X19.0440 Y31.6912
G01 X19.0182 Y31.7182
G01 X18.9912 Y31.7440
G01 X18.9142 Y31.8135
G01 X19.0049 Y31.8957
G01 X19.0182 Y31.9088
G01 X19.0440 Y31.9358
G01 X19.1033 Y32.0013
G01 X19.1277 Y32.0296
G01 X19.1507 Y32.0590
G01 X19.2033 Y32.1300
G01 X19.2143 Y32.1451
G01 X19.2350 Y32.1762
G01 X19.2997 Y32.2840
G01 X19.3173 Y32.3169
G01 X19.3255 Y32.3337
G01 X19.3632 Y32.4136
G01 X19.3784 Y32.4477
G01 X19.3918 Y32.4826
G01 X19.4277 Y32.5834
G01 X19.4385 Y32.6192
G01 X19.4433 Y32.6372
G01 X19.4647 Y32.7229
G01 X19.4729 Y32.7594
G01 X19.4793 Y32.7962
G01 X19.4923 Y32.8836
G01 X19.4948 Y32.9021
G01 X19.4984 Y32.9393
G01 X19.5046 Y33.0648
G01 X19.5048 Y33.0835
G01 X19.5039 Y33.1209
G01 X19.4996 Y33.2091
G01 X19.4968 Y33.2463
G01 X19.4923 Y33.2834
G01 X19.4793 Y33.3708
G01 X19.4729 Y33.4076
G01 X19.4647 Y33.4441
G01 X19.4433 Y33.5298
G01 X19.4333 Y33.5658
G01 X19.4216 Y33.6012
G01 X19.3918 Y33.6844
G01 X19.3784 Y33.7193
G01 X19.3632 Y33.7534
G01 X19.3255 Y33.8333
G01 X19.3087 Y33.8667
G01 X19.2903 Y33.8992
G01 X19.2449 Y33.9749
G01 X19.2249 Y34.0065
G01 X19.2033 Y34.0370
G01 X19.1507 Y34.1080
G01 X19.1277 Y34.1374
G01 X19.1033 Y34.1657
G01 X19.0440 Y34.2312
G01 X19.0182 Y34.2582
G01 X18.9912 Y34.2840
G01 X18.9142 Y34.3535
G01 X19.0049 Y34.4357
G01 X19.0313 Y34.4621
G01 X19.0440 Y34.4758
G01 X19.1033 Y34.5413
G01 X19.1277 Y34.5696
G01 X19.1507 Y34.5990
G01 X19.2033 Y34.6700
G01 X19.2143 Y34.6851
G01 X19.2350 Y34.7162
G01 X19.2997 Y34.8240
G01 X19.3087 Y34.8403
G01 X19.3255 Y34.8737
G01 X19.3632 Y34.9536
G01 X19.3784 Y34.9877
G01 X19.3918 Y35.0226
G01 X19.4216 Y35.1058
G01 X19.4333 Y35.1412
G01 X19.4385 Y35.1592
G01 X19.4691 Y35.2811
G01 X19.4763 Y35.3178
G01 X19.4793 Y35.3362
G01 X19.4923 Y35.4236
G01 X19.4968 Y35.4607
G01 X19.4996 Y35.4979
G01 X19.5039 Y35.5861
G01 X19.5048 Y35.6235
G01 X19.5046 Y35.6422
G01 X19.4984 Y35.7677
G01 X19.4948 Y35.8049
G01 X19.4923 Y35.8234
G01 X19.4793 Y35.9108
G01 X19.4729 Y35.9476
G01 X19.4647 Y35.9841
G01 X19.4433 Y36.0698
G01 X19.4333 Y36.1058
G01 X19.4216 Y36.1412
G01 X19.3918 Y36.2244
G01 X19.3784 Y36.2593
G01 X19.3632 Y36.2934
G01 X19.3255 Y36.3733
G01 X19.3087 Y36.4067
G01 X19.2903 Y36.4392
G01 X19.2449 Y36.5149
G01 X19.2249 Y36.5465
G01 X19.2033 Y36.5770
G01 X19.1507 Y36.6480
G01 X19.1277 Y36.6774
G01 X19.1033 Y36.7057
G01 X19.0440 Y36.7712
G01 X19.0182 Y36.7982
G01 X18.9912 Y36.8240
G01 X18.9142 Y36.8935
G01 X19.0049 Y36.9757
G01 X19.0182 Y36.9888
G01 X19.0440 Y37.0158
G01 X19.1033 Y37.0813
G01 X19.1277 Y37.1096
G01 X19.1507 Y37.1390
G01 X19.2033 Y37.2100
G01 X19.2143 Y37.2251
G01 X19.2350 Y37.2562
G01 X19.2997 Y37.3640
G01 X19.3173 Y37.3969
G01 X19.3255 Y37.4137
G01 X19.3632 Y37.4936
G01 X19.3784 Y37.5277
G01 X19.3918 Y37.5626
G01 X19.4216 Y37.6458
G01 X19.4277 Y37.6634
G01 X19.4385 Y37.6992
G01 X19.4691 Y37.8211
G01 X19.4763 Y37.8578
G01 X19.4793 Y37.8762
G01 X19.4923 Y37.9636
G01 X19.4968 Y38.0007
G01 X19.4996 Y38.0379
G01 X19.5039 Y38.1261
G01 X19.5048 Y38.1635
G01 X19.5046 Y38.1822
G01 X19.4996 Y38.2891
G01 X19.4984 Y38.3077
G01 X19.4948 Y38.3449
G01 X19.4763 Y38.4692
G01 X19.4729 Y38.4876
G01 X19.4647 Y38.5241
G01 X19.4385 Y38.6278
G01 X19.4277 Y38.6636
G01 X19.4216 Y38.6812
G01 X19.3918 Y38.7644
G01 X19.3784 Y38.7993
G01 X19.3632 Y38.8334
G01 X19.3173 Y38.9301
G01 X19.3087 Y38.9467
G01 X19.2903 Y38.9792
G01 X19.2449 Y39.0549
G01 X19.2249 Y39.0865
G01 X19.2033 Y39.1170
G01 X19.1507 Y39.1880
G01 X19.1277 Y39.2174
G01 X19.1033 Y39.2457
G01 X19.0440 Y39.3112
G01 X19.0182 Y39.3382
G01 X18.9912 Y39.3640
G01 X18.9142 Y39.4335
G01 X19.0049 Y39.5157
G01 X19.0313 Y39.5421
G01 X19.0440 Y39.5558
G01 X19.1033 Y39.6213
G01 X19.1277 Y39.6496
G01 X19.1507 Y39.6790
G01 X19.2033 Y39.7500
G01 X19.2143 Y39.7651
G01 X19.2350 Y39.7962
G01 X19.2997 Y39.9040
G01 X19.3087 Y39.9203
G01 X19.3255 Y39.9537
G01 X19.3710 Y40.0506
G01 X19.3784 Y40.0677
G01 X19.3918 Y40.1026
G01 X19.4216 Y40.1858
G01 X19.4333 Y40.2212
G01 X19.4433 Y40.2572
G01 X19.4647 Y40.3429
G01 X19.4729 Y40.3794
G01 X19.4793 Y40.4162
G01 X19.4923 Y40.5036
G01 X19.4948 Y40.5221
G01 X19.4984 Y40.5593
G01 X19.5046 Y40.6848
G01 X19.5048 Y40.7035
G01 X19.5039 Y40.7409
G01 X19.4984 Y40.8477
G01 X19.4948 Y40.8849
G01 X19.4763 Y41.0092
G01 X19.4729 Y41.0276
G01 X19.4647 Y41.0641
G01 X19.4385 Y41.1678
G01 X19.4277 Y41.2036
G01 X19.4216 Y41.2212
G01 X19.3918 Y41.3044
G01 X19.3784 Y41.3393
G01 X19.3632 Y41.3734
G01 X19.3255 Y41.4533
G01 X19.3087 Y41.4867
G01 X19.2997 Y41.5030
G01 X19.2350 Y41.6108
G01 X19.2249 Y41.6265
G01 X19.2033 Y41.6570
G01 X19.1394 Y41.7429
G01 X19.1157 Y41.7717
G01 X19.1033 Y41.7857
G01 X19.0440 Y41.8512
G01 X19.0182 Y41.8782
G01 X18.9912 Y41.9040
G01 X18.9142 Y41.9735
G01 X18.9912 Y42.0430
G01 X19.0182 Y42.0688
G01 X19.0313 Y42.0821
G01 X19.1157 Y42.1753
G01 X19.1277 Y42.1896
G01 X19.1507 Y42.2190
G01 X19.2033 Y42.2900
G01 X19.2249 Y42.3205
G01 X19.2449 Y42.3521
G01 X19.2903 Y42.4278
G01 X19.2997 Y42.4440
G01 X19.3173 Y42.4769
G01 X19.3632 Y42.5736
G01 X19.3710 Y42.5906
G01 X19.3853 Y42.6251
G01 X19.4277 Y42.7434
G01 X19.4385 Y42.7792
G01 X19.4433 Y42.7972
G01 X19.4647 Y42.8829
G01 X19.4729 Y42.9194
G01 X19.4793 Y42.9562
G01 X19.4923 Y43.0436
G01 X19.4968 Y43.0807
G01 X19.4996 Y43.1179
G01 X19.5039 Y43.2061
G01 X19.5048 Y43.2435
G01 X19.5046 Y43.2622
G01 X19.4996 Y43.3691
G01 X19.4968 Y43.4063
G01 X19.4923 Y43.4434
G01 X19.4793 Y43.5308
G01 X19.4729 Y43.5676
G01 X19.4691 Y43.5859
G01 X19.4433 Y43.6898
G01 X19.4385 Y43.7078
G01 X19.4277 Y43.7436
G01 X19.3853 Y43.8619
G01 X19.3710 Y43.8964
G01 X19.3632 Y43.9134
G01 X19.3255 Y43.9933
G01 X19.3087 Y44.0267
G01 X19.2903 Y44.0592
G01 X19.2449 Y44.1349
G01 X19.2249 Y44.1665
G01 X19.2143 Y44.1819
G01 X19.1507 Y44.2680
G01 X19.1394 Y44.2829
G01 X19.1157 Y44.3117
G01 X19.0313 Y44.4049
G01 X19.0049 Y44.4313
G01 X18.9912 Y44.4440
G01 X18.9142 Y44.5135
G01 X18.9912 Y44.5830
G01 X19.0049 Y44.5957
G01 X19.0313 Y44.6221
G01 X19.1157 Y44.7153
G01 X19.1277 Y44.7296
G01 X19.1507 Y44.7590
G01 X19.2033 Y44.8300
G01 X19.2249 Y44.8605
G01 X19.2449 Y44.8921
G01 X19.2903 Y44.9678
G01 X19.2997 Y44.9840
G01 X19.3173 Y45.0169
G01 X19.3632 Y45.1136
G01 X19.3784 Y45.1477
G01 X19.3853 Y45.1651
G01 X19.4277 Y45.2834
G01 X19.4333 Y45.3012
G01 X19.4433 Y45.3372
G01 X19.4647 Y45.4229
G01 X19.4729 Y45.4594
G01 X19.4793 Y45.4962
G01 X19.4923 Y45.5836
G01 X19.4968 Y45.6207
G01 X19.4996 Y45.6579
G01 X19.5039 Y45.7461
G01 X19.5048 Y45.7835
G01 X19.5046 Y45.8022
G01 X19.4996 Y45.9091
G01 X19.4968 Y45.9463
G01 X19.4923 Y45.9834
G01 X19.4793 Y46.0708
G01 X19.4729 Y46.1076
G01 X19.4691 Y46.1259
G01 X19.4433 Y46.2298
G01 X19.4333 Y46.2658
G01 X19.4277 Y46.2836
G01 X19.3853 Y46.4019
G01 X19.3710 Y46.4364
G01 X19.3632 Y46.4534
G01 X19.3255 Y46.5333
G01 X19.3087 Y46.5667
G01 X19.2903 Y46.5992
G01 X19.2449 Y46.6749
G01 X19.2249 Y46.7065
G01 X19.2143 Y46.7219
G01 X19.1507 Y46.8080
G01 X19.1277 Y46.8374
G01 X19.1157 Y46.8517
G01 X19.0313 Y46.9449
G01 X19.0182 Y46.9582
G01 X18.9912 Y46.9840
G01 X18.9142 Y47.0535
G01 X18.9912 Y47.1230
G01 X19.0182 Y47.1488
G01 X19.0313 Y47.1621
G01 X19.1157 Y47.2553
G01 X19.1277 Y47.2696
G01 X19.1507 Y47.2990
G01 X19.2033 Y47.3700
G01 X19.2249 Y47.4005
G01 X19.2449 Y47.4321
G01 X19.2903 Y47.5078
G01 X19.2997 Y47.5240
G01 X19.3173 Y47.5569
G01 X19.3632 Y47.6536
G01 X19.3784 Y47.6877
G01 X19.3853 Y47.7051
G01 X19.4277 Y47.8234
G01 X19.4333 Y47.8412
G01 X19.4433 Y47.8772
G01 X19.4647 Y47.9629
G01 X19.4729 Y47.9994
G01 X19.4793 Y48.0362
G01 X19.4923 Y48.1236
G01 X19.4968 Y48.1607
G01 X19.4996 Y48.1979
G01 X19.5039 Y48.2861
G01 X19.5048 Y48.3235
G01 X19.5046 Y48.3422
G01 X19.4996 Y48.4491
G01 X19.4968 Y48.4863
G01 X19.4923 Y48.5234
G01 X19.4793 Y48.6108
G01 X19.4729 Y48.6476
G01 X19.4691 Y48.6659
G01 X19.4433 Y48.7698
G01 X19.4385 Y48.7878
G01 X19.4277 Y48.8236
G01 X19.3853 Y48.9419
G01 X19.3710 Y48.9764
G01 X19.3632 Y48.9934
G01 X19.3255 Y49.0733
G01 X19.3087 Y49.1067
G01 X19.2903 Y49.1392
G01 X19.2449 Y49.2149
G01 X19.2249 Y49.2465
G01 X19.2143 Y49.2619
G01 X19.1507 Y49.3480
G01 X19.1394 Y49.3629
G01 X19.1157 Y49.3917
G01 X19.0313 Y49.4849
G01 X19.0049 Y49.5113
G01 X18.9912 Y49.5240
G01 X18.9142 Y49.5935
G01 X18.9912 Y49.6630
G01 X19.0182 Y49.6888
G01 X19.0313 Y49.7021
G01 X19.1157 Y49.7953
G01 X19.1394 Y49.8241
G01 X19.1507 Y49.8390
G01 X19.2033 Y49.9100
G01 X19.2249 Y49.9405
G01 X19.2449 Y49.9721
G01 X19.2903 Y50.0478
G01 X19.3087 Y50.0803
G01 X19.3173 Y50.0969
G01 X19.3632 Y50.1936
G01 X19.3784 Y50.2277
G01 X19.3853 Y50.2451
G01 X19.4277 Y50.3634
G01 X19.4333 Y50.3812
G01 X19.4433 Y50.4172
G01 X19.4647 Y50.5029
G01 X19.4729 Y50.5394
G01 X19.4793 Y50.5762
G01 X19.4923 Y50.6636
G01 X19.4968 Y50.7007
G01 X19.4996 Y50.7379
G01 X19.5039 Y50.8261
G01 X19.5048 Y50.8635
G01 X19.5046 Y50.8822
G01 X19.4996 Y50.9891
G01 X19.4968 Y51.0263
G01 X19.4923 Y51.0634
G01 X19.4793 Y51.1508
G01 X19.4729 Y51.1876
G01 X19.4691 Y51.2059
G01 X19.4433 Y51.3098
G01 X19.4385 Y51.3278
G01 X19.4277 Y51.3636
G01 X19.3853 Y51.4819
G01 X19.3784 Y51.4993
G01 X19.3632 Y51.5334
G01 X19.3255 Y51.6133
G01 X19.3087 Y51.6467
G01 X19.2903 Y51.6792
G01 X19.2449 Y51.7549
G01 X19.2350 Y51.7708
G01 X19.2143 Y51.8019
G01 X19.1507 Y51.8880
G01 X19.1394 Y51.9029
G01 X19.1157 Y51.9317
G01 X19.0313 Y52.0249
G01 X19.0182 Y52.0382
G01 X18.9912 Y52.0640
G01 X18.9142 Y52.1335
G01 X18.9912 Y52.2030
G01 X19.0049 Y52.2157
G01 X19.0313 Y52.2421
G01 X19.1157 Y52.3353
G01 X19.1277 Y52.3496
G01 X19.1507 Y52.3790
G01 X19.2033 Y52.4500
G01 X19.2249 Y52.4805
G01 X19.2449 Y52.5121
G01 X19.2903 Y52.5878
G01 X19.2997 Y52.6040
G01 X19.3173 Y52.6369
G01 X19.3632 Y52.7336
G01 X19.3784 Y52.7677
G01 X19.3853 Y52.7851
G01 X19.4277 Y52.9034
G01 X19.4333 Y52.9212
G01 X19.4433 Y52.9572
G01 X19.4647 Y53.0429
G01 X19.4729 Y53.0794
G01 X19.4793 Y53.1162
G01 X19.4923 Y53.2036
G01 X19.4968 Y53.2407
G01 X19.4996 Y53.2779
G01 X19.5039 Y53.3661
G01 X19.5046 Y53.3848
G01 X19.5046 Y53.4222
G01 X19.4996 Y53.5291
G01 X19.4968 Y53.5663
G01 X19.4923 Y53.6034
G01 X19.4793 Y53.6908
G01 X19.4729 Y53.7276
G01 X19.4691 Y53.7459
G01 X19.4433 Y53.8498
G01 X19.4385 Y53.8678
G01 X19.4277 Y53.9036
G01 X19.3853 Y54.0219
G01 X19.3710 Y54.0564
G01 X19.3632 Y54.0734
G01 X19.3255 Y54.1533
G01 X19.3087 Y54.1867
G01 X19.2903 Y54.2192
G01 X19.2449 Y54.2949
G01 X19.2249 Y54.3265
G01 X19.2143 Y54.3419
G01 X19.1507 Y54.4280
G01 X19.1394 Y54.4429
G01 X19.1157 Y54.4717
G01 X19.0313 Y54.5649
G01 X19.0049 Y54.5913
G01 X18.9912 Y54.6040
G01 X18.9142 Y54.6735
G01 X18.9912 Y54.7430
G01 X19.0049 Y54.7557
G01 X19.0313 Y54.7821
G01 X19.1157 Y54.8753
G01 X19.1277 Y54.8896
G01 X19.1507 Y54.9190
G01 X19.2033 Y54.9900
G01 X19.2249 Y55.0205
G01 X19.2449 Y55.0521
G01 X19.2903 Y55.1278
G01 X19.2997 Y55.1440
G01 X19.3173 Y55.1769
G01 X19.3632 Y55.2736
G01 X19.3784 Y55.3077
G01 X19.3853 Y55.3251
G01 X19.4277 Y55.4434
G01 X19.4385 Y55.4792
G01 X19.4433 Y55.4972
G01 X19.4647 Y55.5829
G01 X19.4729 Y55.6194
G01 X19.4793 Y55.6562
G01 X19.4923 Y55.7436
G01 X19.4968 Y55.7807
G01 X19.4996 Y55.8179
G01 X19.5039 Y55.9061
G01 X19.5046 Y55.9248
G01 X19.5046 Y55.9622
G01 X19.4996 Y56.0691
G01 X19.4968 Y56.1063
G01 X19.4923 Y56.1434
G01 X19.4793 Y56.2308
G01 X19.4763 Y56.2492
G01 X19.4691 Y56.2859
G01 X19.4433 Y56.3898
G01 X19.4333 Y56.4258
G01 X19.4277 Y56.4436
G01 X19.3853 Y56.5619
G01 X19.3710 Y56.5964
G01 X19.3632 Y56.6134
G01 X19.3255 Y56.6933
G01 X19.3087 Y56.7267
G01 X19.2903 Y56.7592
G01 X19.2449 Y56.8349
G01 X19.2249 Y56.8665
G01 X19.2143 Y56.8819
G01 X19.1507 Y56.9680
G01 X19.1394 Y56.9829
G01 X19.1157 Y57.0117
G01 X19.0313 Y57.1049
G01 X19.0049 Y57.1313
G01 X18.9912 Y57.1440
G01 X18.9142 Y57.2135
G01 X18.9912 Y57.2830
G01 X19.0049 Y57.2957
G01 X19.0313 Y57.3221
G01 X19.1157 Y57.4153
G01 X19.1277 Y57.4296
G01 X19.1507 Y57.4590
G01 X19.2033 Y57.5300
G01 X19.2249 Y57.5605
G01 X19.2449 Y57.5921
G01 X19.2903 Y57.6678
G01 X19.2997 Y57.6840
G01 X19.3173 Y57.7169
G01 X19.3632 Y57.8136
G01 X19.3784 Y57.8477
G01 X19.3853 Y57.8651
G01 X19.4277 Y57.9834
G01 X19.4333 Y58.0012
G01 X19.4433 Y58.0372
G01 X19.4647 Y58.1229
G01 X19.4729 Y58.1594
G01 X19.4793 Y58.1962
G01 X19.4923 Y58.2836
G01 X19.4968 Y58.3207
G01 X19.4996 Y58.3579
G01 X19.5039 Y58.4461
G01 X19.5046 Y58.4648
G01 X19.5046 Y58.5022
G01 X19.4996 Y58.6091
G01 X19.4968 Y58.6463
G01 X19.4923 Y58.6834
G01 X19.4793 Y58.7708
G01 X19.4729 Y58.8076
G01 X19.4691 Y58.8259
G01 X19.4433 Y58.9298
G01 X19.4333 Y58.9658
G01 X19.4216 Y59.0012
G01 X19.3918 Y59.0844
G01 X19.3784 Y59.1193
G01 X19.3632 Y59.1534
G01 X19.3255 Y59.2333
G01 X19.3173 Y59.2501
G01 X19.2997 Y59.2830
G01 X19.2449 Y59.3749
G01 X19.2249 Y59.4065
G01 X19.2033 Y59.4370
G01 X19.1394 Y59.5229
G01 X19.1157 Y59.5517
G01 X19.1033 Y59.5657
G01 X19.0440 Y59.6312
G01 X19.0182 Y59.6582
G01 X18.9912 Y59.6840
G01 X18.9257 Y59.7433
G01 X18.8974 Y59.7677
G01 X18.8680 Y59.7907
G01 X18.7970 Y59.8433
G01 X18.7665 Y59.8649
G01 X18.7349 Y59.8849
G01 X18.6592 Y59.9303
G01 X18.6267 Y59.9487
G01 X18.5933 Y59.9655
G01 X18.4964 Y60.0110
G01 X18.4619 Y60.0253
G01 X18.3612 Y60.0616
G01 X18.3258 Y60.0733
G01 X18.2898 Y60.0833
G01 X18.2041 Y60.1047
G01 X18.1859 Y60.1091
G01 X18.1492 Y60.1163
G01 X18.0434 Y60.1323
G01 X18.0063 Y60.1368
G01 X17.9691 Y60.1396
G01 X17.8622 Y60.1446
G01 X17.8435 Y60.1448
G01 X17.8061 Y60.1439
G01 X17.7179 Y60.1396
G01 X17.6807 Y60.1368
G01 X17.6436 Y60.1323
G01 X17.5378 Y60.1163
G01 X17.5011 Y60.1091
G01 X17.3972 Y60.0833
G01 X17.3792 Y60.0785
G01 X17.3434 Y60.0677
G01 X17.2426 Y60.0318
G01 X17.2077 Y60.0184
G01 X17.1736 Y60.0032
G01 X17.0937 Y59.9655
G01 X17.0603 Y59.9487
G01 X17.0440 Y59.9397
G01 X16.9521 Y59.8849
G01 X16.9205 Y59.8649
G01 X16.8900 Y59.8433
G01 X16.8041 Y59.7794
G01 X16.7896 Y59.7677
G01 X16.7632 Y59.7450
G01 X16.3838 Y59.7450
G01 X16.3574 Y59.7677
G01 X16.3429 Y59.7794
G01 X16.2419 Y59.8543
G01 X16.2108 Y59.8750
G01 X16.1192 Y59.9303
G01 X16.1030 Y59.9397
G01 X16.0701 Y59.9573
G01 X15.9734 Y60.0032
G01 X15.9393 Y60.0184
G01 X15.9044 Y60.0318
G01 X15.8212 Y60.0616
G01 X15.7858 Y60.0733
G01 X15.7498 Y60.0833
G01 X15.6641 Y60.1047
G01 X15.6276 Y60.1129
G01 X15.5908 Y60.1193
G01 X15.5034 Y60.1323
G01 X15.4663 Y60.1368
G01 X15.4291 Y60.1396
G01 X15.3409 Y60.1439
G01 X15.3035 Y60.1448
G01 X15.2661 Y60.1439
G01 X15.1779 Y60.1396
G01 X15.1407 Y60.1368
G01 X15.1036 Y60.1323
G01 X15.0162 Y60.1193
G01 X14.9794 Y60.1129
G01 X14.9429 Y60.1047
G01 X14.8572 Y60.0833
G01 X14.8212 Y60.0733
G01 X14.7858 Y60.0616
G01 X14.7026 Y60.0318
G01 X14.6851 Y60.0253
G01 X14.6506 Y60.0110
G01 X14.5537 Y59.9655
G01 X14.5203 Y59.9487
G01 X14.4878 Y59.9303
G01 X14.3962 Y59.8750
G01 X14.3651 Y59.8543
G01 X14.2641 Y59.7794
G01 X14.2496 Y59.7677
G01 X14.2232 Y59.7450
G01 X8.7638 Y59.7450
G01 X8.7374 Y59.7677
G01 X8.7229 Y59.7794
G01 X8.6219 Y59.8543
G01 X8.5908 Y59.8750
G01 X8.4992 Y59.9303
G01 X8.4667 Y59.9487
G01 X8.4333 Y59.9655
G01 X8.3364 Y60.0110
G01 X8.3193 Y60.0184
G01 X8.2844 Y60.0318
G01 X8.1836 Y60.0677
G01 X8.1478 Y60.0785
G01 X8.0441 Y60.1047
G01 X8.0259 Y60.1091
G01 X7.9892 Y60.1163
G01 X7.8834 Y60.1323
G01 X7.8463 Y60.1368
G01 X7.8091 Y60.1396
G01 X7.7209 Y60.1439
G01 X7.6835 Y60.1448
G01 X7.6648 Y60.1446
G01 X7.5579 Y60.1396
G01 X7.5207 Y60.1368
G01 X7.4836 Y60.1323
G01 X7.3962 Y60.1193
G01 X7.3594 Y60.1129
G01 X7.3229 Y60.1047
G01 X7.2372 Y60.0833
G01 X7.2012 Y60.0733
G01 X7.1658 Y60.0616
G01 X7.0651 Y60.0253
G01 X7.0477 Y60.0184
G01 X7.0136 Y60.0032
G01 X6.9169 Y59.9573
G01 X6.8840 Y59.9397
G01 X6.7921 Y59.8849
G01 X6.7605 Y59.8649
G01 X6.7300 Y59.8433
G01 X6.6441 Y59.7794
G01 X6.6296 Y59.7677
G01 X6.6032 Y59.7450
G01 X6.2238 Y59.7450
G01 X6.1974 Y59.7677
G01 X6.1829 Y59.7794
G01 X6.0819 Y59.8543
G01 X6.0665 Y59.8649
G01 X6.0349 Y59.8849
G01 X5.9430 Y59.9397
G01 X5.9101 Y59.9573
G01 X5.8933 Y59.9655
G01 X5.8134 Y60.0032
G01 X5.7793 Y60.0184
G01 X5.7444 Y60.0318
G01 X5.6436 Y60.0677
G01 X5.6258 Y60.0733
G01 X5.5898 Y60.0833
G01 X5.5041 Y60.1047
G01 X5.4676 Y60.1129
G01 X5.4308 Y60.1193
G01 X5.3434 Y60.1323
G01 X5.3063 Y60.1368
G01 X5.2691 Y60.1396
G01 X5.1809 Y60.1439
G01 X5.1435 Y60.1448
G01 X5.1061 Y60.1439
G01 X4.9993 Y60.1384
G01 X4.9807 Y60.1368
G01 X4.9436 Y60.1323
G01 X4.8378 Y60.1163
G01 X4.8011 Y60.1091
G01 X4.6972 Y60.0833
G01 X4.6612 Y60.0733
G01 X4.6258 Y60.0616
G01 X4.5426 Y60.0318
G01 X4.5251 Y60.0253
G01 X4.4906 Y60.0110
G01 X4.3937 Y59.9655
G01 X4.3603 Y59.9487
G01 X4.3278 Y59.9303
G01 X4.2362 Y59.8750
G01 X4.2205 Y59.8649
G01 X4.1900 Y59.8433
G01 X4.1190 Y59.7907
G01 X4.0896 Y59.7677
G01 X4.0613 Y59.7433
G01 X3.9821 Y59.6713
G01 X3.9557 Y59.6449
G01 X3.8837 Y59.5657
G01 X3.8593 Y59.5374
G01 X3.8476 Y59.5229
G01 X3.7837 Y59.4370
G01 X3.7621 Y59.4065
G01 X3.7421 Y59.3749
G01 X3.6967 Y59.2992
G01 X3.6783 Y59.2667
G01 X3.6615 Y59.2333
G01 X3.6160 Y59.1364
G01 X3.6017 Y59.1019
G01 X3.5654 Y59.0012
G01 X3.5537 Y58.9658
G01 X3.5437 Y58.9298
G01 X3.5223 Y58.8441
G01 X3.5141 Y58.8076
G01 X3.5077 Y58.7708
G01 X3.4922 Y58.6649
G01 X3.4886 Y58.6277
G01 X3.4831 Y58.5209
G01 X3.4822 Y58.4835
G01 X3.4831 Y58.4461
G01 X3.4886 Y58.3393
G01 X3.4922 Y58.3021
G01 X3.5077 Y58.1962
G01 X3.5141 Y58.1594
G01 X3.5223 Y58.1229
G01 X3.5437 Y58.0372
G01 X3.5537 Y58.0012
G01 X3.5654 Y57.9658
G01 X3.5952 Y57.8826
G01 X3.6086 Y57.8477
G01 X3.6238 Y57.8136
G01 X3.6615 Y57.7337
G01 X3.6783 Y57.7003
G01 X3.6967 Y57.6678
G01 X3.7421 Y57.5921
G01 X3.7621 Y57.5605
G01 X3.7837 Y57.5300
G01 X3.8476 Y57.4441
G01 X3.8713 Y57.4153
G01 X3.9430 Y57.3358
G01 X3.9688 Y57.3088
G01 X3.9958 Y57.2830
G01 X4.0728 Y57.2135
G01 X3.9821 Y57.1313
G01 X3.9688 Y57.1182
G01 X3.9430 Y57.0912
G01 X3.8837 Y57.0257
G01 X3.8593 Y56.9974
G01 X3.8363 Y56.9680
G01 X3.7837 Y56.8970
G01 X3.7621 Y56.8665
G01 X3.7520 Y56.8508
G01 X3.6873 Y56.7430
G01 X3.6697 Y56.7101
G01 X3.6615 Y56.6933
G01 X3.6238 Y56.6134
G01 X3.6086 Y56.5793
G01 X3.5952 Y56.5444
G01 X3.5593 Y56.4436
G01 X3.5485 Y56.4078
G01 X3.5437 Y56.3898
G01 X3.5223 Y56.3041
G01 X3.5141 Y56.2676
G01 X3.5077 Y56.2308
G01 X3.4947 Y56.1434
G01 X3.4922 Y56.1249
G01 X3.4886 Y56.0877
G01 X3.4824 Y55.9622
G01 X3.4822 Y55.9435
G01 X3.4831 Y55.9061
G01 X3.4874 Y55.8179
G01 X3.4902 Y55.7807
G01 X3.4947 Y55.7436
G01 X3.5077 Y55.6562
G01 X3.5141 Y55.6194
G01 X3.5223 Y55.5829
G01 X3.5437 Y55.4972
G01 X3.5537 Y55.4612
G01 X3.5654 Y55.4258
G01 X3.5952 Y55.3426
G01 X3.6086 Y55.3077
G01 X3.6238 Y55.2736
G01 X3.6615 Y55.1937
G01 X3.6783 Y55.1603
G01 X3.6967 Y55.1278
G01 X3.7421 Y55.0521
G01 X3.7621 Y55.0205
G01 X3.7837 Y54.9900
G01 X3.8363 Y54.9190
G01 X3.8593 Y54.8896
G01 X3.8837 Y54.8613
G01 X3.9430 Y54.7958
G01 X3.9688 Y54.7688
G01 X3.9958 Y54.7430
G01 X4.0728 Y54.6735
G01 X3.9821 Y54.5913
G01 X3.9688 Y54.5782
G01 X3.9430 Y54.5512
G01 X3.8837 Y54.4857
G01 X3.8593 Y54.4574
G01 X3.8363 Y54.4280
G01 X3.7837 Y54.3570
G01 X3.7621 Y54.3265
G01 X3.7520 Y54.3108
G01 X3.6873 Y54.2030
G01 X3.6697 Y54.1701
G01 X3.6615 Y54.1533
G01 X3.6238 Y54.0734
G01 X3.6086 Y54.0393
G01 X3.5952 Y54.0044
G01 X3.5654 Y53.9212
G01 X3.5593 Y53.9036
G01 X3.5485 Y53.8678
G01 X3.5179 Y53.7459
G01 X3.5107 Y53.7092
G01 X3.5077 Y53.6908
G01 X3.4947 Y53.6034
G01 X3.4902 Y53.5663
G01 X3.4874 Y53.5291
G01 X3.4831 Y53.4409
G01 X3.4824 Y53.4222
G01 X3.4824 Y53.3848
G01 X3.4886 Y53.2593
G01 X3.4902 Y53.2407
G01 X3.4947 Y53.2036
G01 X3.5077 Y53.1162
G01 X3.5141 Y53.0794
G01 X3.5223 Y53.0429
G01 X3.5437 Y52.9572
G01 X3.5537 Y52.9212
G01 X3.5654 Y52.8858
G01 X3.5952 Y52.8026
G01 X3.6086 Y52.7677
G01 X3.6238 Y52.7336
G01 X3.6615 Y52.6537
G01 X3.6783 Y52.6203
G01 X3.6967 Y52.5878
G01 X3.7421 Y52.5121
G01 X3.7621 Y52.4805
G01 X3.7837 Y52.4500
G01 X3.8363 Y52.3790
G01 X3.8593 Y52.3496
G01 X3.8837 Y52.3213
G01 X3.9430 Y52.2558
G01 X3.9688 Y52.2288
G01 X3.9958 Y52.2030
G01 X4.0728 Y52.1335
G01 X3.9821 Y52.0513
G01 X3.9557 Y52.0249
G01 X3.9430 Y52.0112
G01 X3.8837 Y51.9457
G01 X3.8593 Y51.9174
G01 X3.8363 Y51.8880
G01 X3.7837 Y51.8170
G01 X3.7727 Y51.8019
G01 X3.7520 Y51.7708
G01 X3.6873 Y51.6630
G01 X3.6697 Y51.6301
G01 X3.6615 Y51.6133
G01 X3.6238 Y51.5334
G01 X3.6086 Y51.4993
G01 X3.5952 Y51.4644
G01 X3.5654 Y51.3812
G01 X3.5593 Y51.3636
G01 X3.5485 Y51.3278
G01 X3.5179 Y51.2059
G01 X3.5141 Y51.1876
G01 X3.5077 Y51.1508
G01 X3.4922 Y51.0449
G01 X3.4886 Y51.0077
G01 X3.4874 Y50.9891
G01 X3.4831 Y50.9009
G01 X3.4822 Y50.8635
G01 X3.4831 Y50.8261
G01 X3.4874 Y50.7379
G01 X3.4902 Y50.7007
G01 X3.4922 Y50.6821
G01 X3.5107 Y50.5578
G01 X3.5179 Y50.5211
G01 X3.5223 Y50.5029
G01 X3.5485 Y50.3992
G01 X3.5593 Y50.3634
G01 X3.5654 Y50.3458
G01 X3.5952 Y50.2626
G01 X3.6086 Y50.2277
G01 X3.6238 Y50.1936
G01 X3.6697 Y50.0969
G01 X3.6783 Y50.0803
G01 X3.6967 Y50.0478
G01 X3.7421 Y49.9721
G01 X3.7621 Y49.9405
G01 X3.7837 Y49.9100
G01 X3.8363 Y49.8390
G01 X3.8593 Y49.8096
G01 X3.8837 Y49.7813
G01 X3.9430 Y49.7158
G01 X3.9688 Y49.6888
G01 X3.9958 Y49.6630
G01 X4.0728 Y49.5935
G01 X3.9821 Y49.5113
G01 X3.9688 Y49.4982
G01 X3.9430 Y49.4712
G01 X3.8837 Y49.4057
G01 X3.8593 Y49.3774
G01 X3.8363 Y49.3480
G01 X3.7837 Y49.2770
G01 X3.7727 Y49.2619
G01 X3.7520 Y49.2308
G01 X3.6873 Y49.1230
G01 X3.6783 Y49.1067
G01 X3.6615 Y49.0733
G01 X3.6160 Y48.9764
G01 X3.6017 Y48.9419
G01 X3.5952 Y48.9244
G01 X3.5654 Y48.8412
G01 X3.5537 Y48.8058
G01 X3.5437 Y48.7698
G01 X3.5223 Y48.6841
G01 X3.5141 Y48.6476
G01 X3.5077 Y48.6108
G01 X3.4947 Y48.5234
G01 X3.4902 Y48.4863
G01 X3.4886 Y48.4677
G01 X3.4824 Y48.3422
G01 X3.4822 Y48.3235
G01 X3.4831 Y48.2861
G01 X3.4886 Y48.1793
G01 X3.4922 Y48.1421
G01 X3.5107 Y48.0178
G01 X3.5141 Y47.9994
G01 X3.5223 Y47.9629
G01 X3.5437 Y47.8772
G01 X3.5537 Y47.8412
G01 X3.5654 Y47.8058
G01 X3.5952 Y47.7226
G01 X3.6017 Y47.7051
G01 X3.6160 Y47.6706
G01 X3.6615 Y47.5737
G01 X3.6697 Y47.5569
G01 X3.6873 Y47.5240
G01 X3.7520 Y47.4162
G01 X3.7621 Y47.4005
G01 X3.7837 Y47.3700
G01 X3.8476 Y47.2841
G01 X3.8593 Y47.2696
G01 X3.8837 Y47.2413
G01 X3.9430 Y47.1758
G01 X3.9688 Y47.1488
G01 X3.9958 Y47.1230
G01 X4.0728 Y47.0535
G01 X3.9958 Y46.9840
G01 X3.9688 Y46.9582
G01 X3.9557 Y46.9449
G01 X3.8713 Y46.8517
G01 X3.8593 Y46.8374
G01 X3.8363 Y46.8080
G01 X3.7837 Y46.7370
G01 X3.7621 Y46.7065
G01 X3.7421 Y46.6749
G01 X3.6967 Y46.5992
G01 X3.6783 Y46.5667
G01 X3.6697 Y46.5501
G01 X3.6238 Y46.4534
G01 X3.6160 Y46.4364
G01 X3.6017 Y46.4019
G01 X3.5593 Y46.2836
G01 X3.5485 Y46.2478
G01 X3.5437 Y46.2298
G01 X3.5223 Y46.1441
G01 X3.5141 Y46.1076
G01 X3.5077 Y46.0708
G01 X3.4947 Y45.9834
G01 X3.4902 Y45.9463
G01 X3.4874 Y45.9091
G01 X3.4831 Y45.8209
G01 X3.4822 Y45.7835
G01 X3.4824 Y45.7648
G01 X3.4874 Y45.6579
G01 X3.4902 Y45.6207
G01 X3.4947 Y45.5836
G01 X3.5077 Y45.4962
G01 X3.5107 Y45.4778
G01 X3.5179 Y45.4411
G01 X3.5437 Y45.3372
G01 X3.5537 Y45.3012
G01 X3.5593 Y45.2834
G01 X3.6017 Y45.1651
G01 X3.6160 Y45.1306
G01 X3.6238 Y45.1136
G01 X3.6697 Y45.0169
G01 X3.6873 Y44.9840
G01 X3.6967 Y44.9678
G01 X3.7421 Y44.8921
G01 X3.7621 Y44.8605
G01 X3.7837 Y44.8300
G01 X3.8363 Y44.7590
G01 X3.8593 Y44.7296
G01 X3.8713 Y44.7153
G01 X3.9557 Y44.6221
G01 X3.9688 Y44.6088
G01 X3.9958 Y44.5830
G01 X4.0728 Y44.5135
G01 X3.9958 Y44.4440
G01 X3.9688 Y44.4182
G01 X3.9557 Y44.4049
G01 X3.8713 Y44.3117
G01 X3.8593 Y44.2974
G01 X3.8363 Y44.2680
G01 X3.7727 Y44.1819
G01 X3.7520 Y44.1508
G01 X3.7421 Y44.1349
G01 X3.6967 Y44.0592
G01 X3.6783 Y44.0267
G01 X3.6615 Y43.9933
G01 X3.6238 Y43.9134
G01 X3.6086 Y43.8793
G01 X3.6017 Y43.8619
G01 X3.5593 Y43.7436
G01 X3.5485 Y43.7078
G01 X3.5437 Y43.6898
G01 X3.5223 Y43.6041
G01 X3.5141 Y43.5676
G01 X3.5077 Y43.5308
G01 X3.4947 Y43.4434
G01 X3.4902 Y43.4063
G01 X3.4874 Y43.3691
G01 X3.4831 Y43.2809
G01 X3.4822 Y43.2435
G01 X3.4824 Y43.2248
G01 X3.4874 Y43.1179
G01 X3.4902 Y43.0807
G01 X3.4947 Y43.0436
G01 X3.5077 Y42.9562
G01 X3.5141 Y42.9194
G01 X3.5179 Y42.9011
G01 X3.5437 Y42.7972
G01 X3.5485 Y42.7792
G01 X3.5593 Y42.7434
G01 X3.6017 Y42.6251
G01 X3.6086 Y42.6077
G01 X3.6238 Y42.5736
G01 X3.6697 Y42.4769
G01 X3.6873 Y42.4440
G01 X3.6967 Y42.4278
G01 X3.7421 Y42.3521
G01 X3.7621 Y42.3205
G01 X3.7837 Y42.2900
G01 X3.8363 Y42.2190
G01 X3.8476 Y42.2041
G01 X3.8713 Y42.1753
G01 X3.9557 Y42.0821
G01 X3.9688 Y42.0688
G01 X3.9958 Y42.0430
G01 X4.0728 Y41.9735
G01 X3.9958 Y41.9040
G01 X3.9688 Y41.8782
G01 X3.9557 Y41.8649
G01 X3.8713 Y41.7717
G01 X3.8593 Y41.7574
G01 X3.8363 Y41.7280
G01 X3.7837 Y41.6570
G01 X3.7621 Y41.6265
G01 X3.7421 Y41.5949
G01 X3.6967 Y41.5192
G01 X3.6783 Y41.4867
G01 X3.6697 Y41.4701
G01 X3.6238 Y41.3734
G01 X3.6086 Y41.3393
G01 X3.6017 Y41.3219
G01 X3.5593 Y41.2036
G01 X3.5485 Y41.1678
G01 X3.5437 Y41.1498
G01 X3.5223 Y41.0641
G01 X3.5141 Y41.0276
G01 X3.5077 Y40.9908
G01 X3.4947 Y40.9034
G01 X3.4902 Y40.8663
G01 X3.4874 Y40.8291
G01 X3.4831 Y40.7409
G01 X3.4822 Y40.7035
G01 X3.4824 Y40.6848
G01 X3.4874 Y40.5779
G01 X3.4902 Y40.5407
G01 X3.4947 Y40.5036
G01 X3.5077 Y40.4162
G01 X3.5107 Y40.3978
G01 X3.5179 Y40.3611
G01 X3.5437 Y40.2572
G01 X3.5485 Y40.2392
G01 X3.5593 Y40.2034
G01 X3.6017 Y40.0851
G01 X3.6160 Y40.0506
G01 X3.6238 Y40.0336
G01 X3.6697 Y39.9369
G01 X3.6783 Y39.9203
G01 X3.6967 Y39.8878
G01 X3.7421 Y39.8121
G01 X3.7621 Y39.7805
G01 X3.7837 Y39.7500
G01 X3.8363 Y39.6790
G01 X3.8593 Y39.6496
G01 X3.8713 Y39.6353
G01 X3.9557 Y39.5421
G01 X3.9688 Y39.5288
G01 X3.9958 Y39.5030
G01 X4.0728 Y39.4335
G01 X3.9958 Y39.3640
G01 X3.9688 Y39.3382
G01 X3.9557 Y39.3249
G01 X3.8713 Y39.2317
G01 X3.8593 Y39.2174
G01 X3.8363 Y39.1880
G01 X3.7727 Y39.1019
G01 X3.7520 Y39.0708
G01 X3.7421 Y39.0549
G01 X3.6967 Y38.9792
G01 X3.6783 Y38.9467
G01 X3.6615 Y38.9133
G01 X3.6238 Y38.8334
G01 X3.6086 Y38.7993
G01 X3.6017 Y38.7819
G01 X3.5593 Y38.6636
G01 X3.5485 Y38.6278
G01 X3.5437 Y38.6098
G01 X3.5223 Y38.5241
G01 X3.5141 Y38.4876
G01 X3.5077 Y38.4508
G01 X3.4947 Y38.3634
G01 X3.4902 Y38.3263
G01 X3.4874 Y38.2891
G01 X3.4831 Y38.2009
G01 X3.4822 Y38.1635
G01 X3.4824 Y38.1448
G01 X3.4874 Y38.0379
G01 X3.4902 Y38.0007
G01 X3.4947 Y37.9636
G01 X3.5077 Y37.8762
G01 X3.5141 Y37.8394
G01 X3.5179 Y37.8211
G01 X3.5437 Y37.7172
G01 X3.5485 Y37.6992
G01 X3.5593 Y37.6634
G01 X3.6017 Y37.5451
G01 X3.6086 Y37.5277
G01 X3.6238 Y37.4936
G01 X3.6697 Y37.3969
G01 X3.6873 Y37.3640
G01 X3.6967 Y37.3478
G01 X3.7421 Y37.2721
G01 X3.7621 Y37.2405
G01 X3.7837 Y37.2100
G01 X3.8363 Y37.1390
G01 X3.8476 Y37.1241
G01 X3.8713 Y37.0953
G01 X3.9557 Y37.0021
G01 X3.9688 Y36.9888
G01 X3.9958 Y36.9630
G01 X4.0728 Y36.8935
G01 X3.9958 Y36.8240
G01 X3.9688 Y36.7982
G01 X3.9557 Y36.7849
G01 X3.8713 Y36.6917
G01 X3.8593 Y36.6774
G01 X3.8363 Y36.6480
G01 X3.7837 Y36.5770
G01 X3.7621 Y36.5465
G01 X3.7421 Y36.5149
G01 X3.6967 Y36.4392
G01 X3.6783 Y36.4067
G01 X3.6697 Y36.3901
G01 X3.6238 Y36.2934
G01 X3.6086 Y36.2593
G01 X3.6017 Y36.2419
G01 X3.5593 Y36.1236
G01 X3.5485 Y36.0878
G01 X3.5437 Y36.0698
G01 X3.5223 Y35.9841
G01 X3.5141 Y35.9476
G01 X3.5077 Y35.9108
G01 X3.4947 Y35.8234
G01 X3.4902 Y35.7863
G01 X3.4874 Y35.7491
G01 X3.4831 Y35.6609
G01 X3.4822 Y35.6235
G01 X3.4824 Y35.6048
G01 X3.4874 Y35.4979
G01 X3.4902 Y35.4607
G01 X3.4947 Y35.4236
G01 X3.5077 Y35.3362
G01 X3.5107 Y35.3178
G01 X3.5179 Y35.2811
G01 X3.5437 Y35.1772
G01 X3.5485 Y35.1592
G01 X3.5593 Y35.1234
G01 X3.6017 Y35.0051
G01 X3.6160 Y34.9706
G01 X3.6238 Y34.9536
G01 X3.6697 Y34.8569
G01 X3.6783 Y34.8403
G01 X3.6967 Y34.8078
G01 X3.7421 Y34.7321
G01 X3.7621 Y34.7005
G01 X3.7837 Y34.6700
G01 X3.8363 Y34.5990
G01 X3.8593 Y34.5696
G01 X3.8713 Y34.5553
G01 X3.9557 Y34.4621
G01 X3.9688 Y34.4488
G01 X3.9958 Y34.4230
G01 X4.0728 Y34.3535
G01 X3.9958 Y34.2840
G01 X3.9688 Y34.2582
G01 X3.9557 Y34.2449
G01 X3.8713 Y34.1517
G01 X3.8593 Y34.1374
G01 X3.8363 Y34.1080
G01 X3.7837 Y34.0370
G01 X3.7621 Y34.0065
G01 X3.7421 Y33.9749
G01 X3.6967 Y33.8992
G01 X3.6783 Y33.8667
G01 X3.6697 Y33.8501
G01 X3.6238 Y33.7534
G01 X3.6086 Y33.7193
G01 X3.6017 Y33.7019
G01 X3.5593 Y33.5836
G01 X3.5485 Y33.5478
G01 X3.5437 Y33.5298
G01 X3.5223 Y33.4441
G01 X3.5141 Y33.4076
G01 X3.5077 Y33.3708
G01 X3.4947 Y33.2834
G01 X3.4902 Y33.2463
G01 X3.4874 Y33.2091
G01 X3.4831 Y33.1209
G01 X3.4822 Y33.0835
G01 X3.4824 Y33.0648
G01 X3.4874 Y32.9579
G01 X3.4902 Y32.9207
G01 X3.4947 Y32.8836
G01 X3.5077 Y32.7962
G01 X3.5141 Y32.7594
G01 X3.5179 Y32.7411
G01 X3.5437 Y32.6372
G01 X3.5485 Y32.6192
G01 X3.5593 Y32.5834
G01 X3.6017 Y32.4651
G01 X3.6086 Y32.4477
G01 X3.6238 Y32.4136
G01 X3.6697 Y32.3169
G01 X3.6873 Y32.2840
G01 X3.6967 Y32.2678
G01 X3.7421 Y32.1921
G01 X3.7621 Y32.1605
G01 X3.7837 Y32.1300
G01 X3.8363 Y32.0590
G01 X3.8476 Y32.0441
G01 X3.8713 Y32.0153
G01 X3.9557 Y31.9221
G01 X3.9688 Y31.9088
G01 X3.9958 Y31.8830
G01 X4.0728 Y31.8135
G01 X3.9821 Y31.7313
G01 X3.9557 Y31.7049
G01 X3.9430 Y31.6912
G01 X3.8837 Y31.6257
G01 X3.8593 Y31.5974
G01 X3.8363 Y31.5680
G01 X3.7837 Y31.4970
G01 X3.7621 Y31.4665
G01 X3.7520 Y31.4508
G01 X3.6873 Y31.3430
G01 X3.6697 Y31.3101
G01 X3.6615 Y31.2933
G01 X3.6238 Y31.2134
G01 X3.6086 Y31.1793
G01 X3.5952 Y31.1444
G01 X3.5593 Y31.0436
G01 X3.5485 Y31.0078
G01 X3.5437 Y30.9898
G01 X3.5223 Y30.9041
G01 X3.5141 Y30.8676
G01 X3.5077 Y30.8308
G01 X3.4947 Y30.7434
G01 X3.4922 Y30.7249
G01 X3.4886 Y30.6877
G01 X3.4824 Y30.5622
G01 X3.4822 Y30.5435
G01 X3.4831 Y30.5061
G01 X3.4874 Y30.4179
G01 X3.4902 Y30.3807
G01 X3.4947 Y30.3436
G01 X3.5107 Y30.2378
G01 X3.5179 Y30.2011
G01 X3.5223 Y30.1829
G01 X3.5437 Y30.0972
G01 X3.5537 Y30.0612
G01 X3.5654 Y30.0258
G01 X3.5952 Y29.9426
G01 X3.6086 Y29.9077
G01 X3.6238 Y29.8736
G01 X3.6697 Y29.7769
G01 X3.6873 Y29.7440
G01 X3.6967 Y29.7278
G01 X3.7421 Y29.6521
G01 X3.7621 Y29.6205
G01 X3.7837 Y29.5900
G01 X3.8363 Y29.5190
G01 X3.8593 Y29.4896
G01 X3.8713 Y29.4753
G01 X3.9430 Y29.3958
G01 X3.9688 Y29.3688
G01 X3.9958 Y29.3430
G01 X4.0753 Y29.2713
G01 X4.1041 Y29.2476
G01 X4.1190 Y29.2363
G01 X4.1900 Y29.1837
G01 X4.2205 Y29.1621
G01 X4.2521 Y29.1421
G01 X4.3278 Y29.0967
G01 X4.3440 Y29.0873
G01 X4.3769 Y29.0697
G01 X4.4736 Y29.0238
G01 X4.5077 Y29.0086
G01 X4.5426 Y28.9952
G01 X4.6434 Y28.9593
G01 X4.6612 Y28.9537
G01 X4.6972 Y28.9437
G01 X4.7829 Y28.9223
G01 X4.8194 Y28.9141
G01 X4.8562 Y28.9077
G01 X4.9436 Y28.8947
G01 X4.9807 Y28.8902
G01 X5.0179 Y28.8874
G01 X5.1248 Y28.8824
G01 X5.1622 Y28.8824
G01 X5.1809 Y28.8831
G01 X5.2691 Y28.8874
G01 X5.3063 Y28.8902
G01 X5.3434 Y28.8947
G01 X5.4308 Y28.9077
G01 X5.4676 Y28.9141
G01 X5.4859 Y28.9179
G01 X5.5898 Y28.9437
G01 X5.6258 Y28.9537
G01 X5.6612 Y28.9654
G01 X5.7619 Y29.0017
G01 X5.7964 Y29.0160
G01 X5.8134 Y29.0238
G01 X5.8933 Y29.0615
G01 X5.9267 Y29.0783
G01 X5.9592 Y29.0967
G01 X6.0508 Y29.1520
G01 X6.0819 Y29.1727
G01 X6.1680 Y29.2363
G01 X6.1974 Y29.2593
G01 X6.2238 Y29.2820
G00 Z2.0000
G00 X6.1080 Y29.5799
G01 F60.00
G01 Z-0.2001
G01 F320.00
G01 X6.7190 Y29.5799
G01 X6.7359 Y29.5637
G01 X6.8013 Y29.5044
G01 X6.8185 Y29.4895
G01 X6.8365 Y29.4755
G01 X6.9074 Y29.4229
G01 X6.9260 Y29.4098
G01 X6.9452 Y29.3977
G01 X7.0210 Y29.3523
G01 X7.0408 Y29.3410
G01 X7.0611 Y29.3308
G01 X7.1409 Y29.2931
G01 X7.1617 Y29.2838
G01 X7.1830 Y29.2757
G01 X7.2661 Y29.2459
G01 X7.2877 Y29.2388
G01 X7.3096 Y29.2327
G01 X7.3953 Y29.2112
G01 X7.4175 Y29.2063
G01 X7.4399 Y29.2024
G01 X7.5273 Y29.1894
G01 X7.5499 Y29.1866
G01 X7.5725 Y29.1849
G01 X7.6608 Y29.1806
G01 X7.6835 Y29.1801
G01 X7.7062 Y29.1806
G01 X7.7945 Y29.1849
G01 X7.8171 Y29.1866
G01 X7.8397 Y29.1894
G01 X7.9271 Y29.2024
G01 X7.9495 Y29.2063
G01 X7.9717 Y29.2112
G01 X8.0574 Y29.2327
G01 X8.0793 Y29.2388
G01 X8.1009 Y29.2459
G01 X8.1840 Y29.2757
G01 X8.2053 Y29.2838
G01 X8.2261 Y29.2931
G01 X8.3059 Y29.3308
G01 X8.3262 Y29.3410
G01 X8.3460 Y29.3523
G01 X8.4218 Y29.3977
G01 X8.4410 Y29.4098
G01 X8.4596 Y29.4229
G01 X8.5305 Y29.4755
G01 X8.5485 Y29.4895
G01 X8.5657 Y29.5044
G01 X8.6311 Y29.5637
G01 X8.6480 Y29.5799
G01 X14.3390 Y29.5799
G01 X14.3559 Y29.5637
G01 X14.4213 Y29.5044
G01 X14.4385 Y29.4895
G01 X14.4565 Y29.4755
G01 X14.5274 Y29.4229
G01 X14.5460 Y29.4098
G01 X14.5652 Y29.3977
G01 X14.6410 Y29.3523
G01 X14.6608 Y29.3410
G01 X14.6811 Y29.3308
G01 X14.7609 Y29.2931
G01 X14.7817 Y29.2838
G01 X14.8030 Y29.2757
G01 X14.8861 Y29.2459
G01 X14.9077 Y29.2388
G01 X14.9296 Y29.2327
G01 X15.0153 Y29.2112
G01 X15.0375 Y29.2063
G01 X15.0599 Y29.2024
G01 X15.1473 Y29.1894
G01 X15.1699 Y29.1866
G01 X15.1925 Y29.1849
G01 X15.2808 Y29.1806
G01 X15.3035 Y29.1801
G01 X15.3262 Y29.1806
G01 X15.4145 Y29.1849
G01 X15.4371 Y29.1866
G01 X15.4597 Y29.1894
G01 X15.5471 Y29.2024
G01 X15.5695 Y29.2063
G01 X15.5917 Y29.2112
G01 X15.6774 Y29.2327
G01 X15.6993 Y29.2388
G01 X15.7209 Y29.2459
G01 X15.8040 Y29.2757
G01 X15.8253 Y29.2838
G01 X15.8461 Y29.2931
G01 X15.9259 Y29.3308
G01 X15.9462 Y29.3410
G01 X15.9660 Y29.3523
G01 X16.0418 Y29.3977
G01 X16.0610 Y29.4098
G01 X16.0796 Y29.4229
G01 X16.1505 Y29.4755
G01 X16.1685 Y29.4895
G01 X16.1857 Y29.5044
G01 X16.2511 Y29.5637
G01 X16.2680 Y29.5799
G01 X16.8790 Y29.5799
G01 X16.8959 Y29.5637
G01 X16.9613 Y29.5044
G01 X16.9785 Y29.4895
G01 X16.9965 Y29.4755
G01 X17.0674 Y29.4229
G01 X17.0860 Y29.4098
G01 X17.1052 Y29.3977
G01 X17.1810 Y29.3523
G01 X17.2008 Y29.3410
G01 X17.2211 Y29.3308
G01 X17.3009 Y29.2931
G01 X17.3217 Y29.2838
G01 X17.3430 Y29.2757
G01 X17.4261 Y29.2459
G01 X17.4477 Y29.2388
G01 X17.4696 Y29.2327
G01 X17.5553 Y29.2112
G01 X17.5775 Y29.2063
G01 X17.5999 Y29.2024
G01 X17.6873 Y29.1894
G01 X17.7099 Y29.1866
G01 X17.7325 Y29.1849
G01 X17.8208 Y29.1806
G01 X17.8321 Y29.1802
G01 X17.8549 Y29.1802
G01 X17.9545 Y29.1849
G01 X17.9771 Y29.1866
G01 X17.9997 Y29.1894
G01 X18.0871 Y29.2024
G01 X18.1095 Y29.2063
G01 X18.1317 Y29.2112
G01 X18.2174 Y29.2327
G01 X18.2393 Y29.2388
G01 X18.2609 Y29.2459
G01 X18.3440 Y29.2757
G01 X18.3653 Y29.2838
G01 X18.3861 Y29.2931
G01 X18.4659 Y29.3308
G01 X18.4862 Y29.3410
G01 X18.5060 Y29.3523
G01 X18.5818 Y29.3977
G01 X18.6010 Y29.4098
G01 X18.6196 Y29.4229
G01 X18.6905 Y29.4755
G01 X18.7085 Y29.4895
G01 X18.7257 Y29.5044
G01 X18.7911 Y29.5637
G01 X18.8076 Y29.5794
G01 X18.8233 Y29.5959
G01 X18.8826 Y29.6613
G01 X18.8975 Y29.6785
G01 X18.9115 Y29.6965
G01 X18.9641 Y29.7674
G01 X18.9772 Y29.7860
G01 X18.9893 Y29.8052
G01 X19.0347 Y29.8810
G01 X19.0460 Y29.9008
G01 X19.0562 Y29.9211
G01 X19.0939 Y30.0009
G01 X19.1032 Y30.0217
G01 X19.1113 Y30.0430
G01 X19.1411 Y30.1261
G01 X19.1482 Y30.1477
G01 X19.1543 Y30.1696
G01 X19.1758 Y30.2553
G01 X19.1807 Y30.2775
G01 X19.1846 Y30.2999
G01 X19.1976 Y30.3873
G01 X19.2004 Y30.4099
G01 X19.2021 Y30.4325
G01 X19.2064 Y30.5208
G01 X19.2069 Y30.5435
G01 X19.2064 Y30.5662
G01 X19.2021 Y30.6545
G01 X19.2004 Y30.6771
G01 X19.1976 Y30.6997
G01 X19.1846 Y30.7871
G01 X19.1807 Y30.8095
G01 X19.1758 Y30.8317
G01 X19.1543 Y30.9174
G01 X19.1482 Y30.9393
G01 X19.1411 Y30.9609
G01 X19.1113 Y31.0440
G01 X19.1032 Y31.0653
G01 X19.0939 Y31.0861
G01 X19.0562 Y31.1659
G01 X19.0460 Y31.1862
G01 X19.0347 Y31.2060
G01 X18.9893 Y31.2818
G01 X18.9772 Y31.3010
G01 X18.9641 Y31.3196
G01 X18.9115 Y31.3905
G01 X18.8975 Y31.4085
G01 X18.8826 Y31.4257
G01 X18.8233 Y31.4911
G01 X18.8076 Y31.5076
G01 X18.7911 Y31.5233
G01 X18.7257 Y31.5826
G01 X18.7085 Y31.5975
G01 X18.6905 Y31.6115
G01 X18.6196 Y31.6641
G01 X18.6010 Y31.6772
G01 X18.5818 Y31.6893
G01 X18.5060 Y31.7347
G01 X18.4962 Y31.7405
G01 X18.4761 Y31.7512
G01 X18.3757 Y31.7987
G01 X18.3547 Y31.8074
G01 X18.3380 Y31.8135
G01 X18.3653 Y31.8238
G01 X18.3861 Y31.8331
G01 X18.4761 Y31.8758
G01 X18.4962 Y31.8865
G01 X18.5060 Y31.8923
G01 X18.5818 Y31.9377
G01 X18.6010 Y31.9498
G01 X18.6196 Y31.9629
G01 X18.6905 Y32.0155
G01 X18.6996 Y32.0224
G01 X18.7172 Y32.0369
G01 X18.7911 Y32.1037
G01 X18.8076 Y32.1194
G01 X18.8233 Y32.1359
G01 X18.8826 Y32.2013
G01 X18.8975 Y32.2185
G01 X18.9115 Y32.2365
G01 X18.9641 Y32.3074
G01 X18.9772 Y32.3260
G01 X18.9893 Y32.3452
G01 X19.0405 Y32.4308
G01 X19.0460 Y32.4408
G01 X19.0562 Y32.4611
G01 X19.0939 Y32.5409
G01 X19.1032 Y32.5617
G01 X19.1113 Y32.5830
G01 X19.1411 Y32.6661
G01 X19.1482 Y32.6877
G01 X19.1514 Y32.6986
G01 X19.1758 Y32.7953
G01 X19.1807 Y32.8175
G01 X19.1846 Y32.8399
G01 X19.1976 Y32.9273
G01 X19.2004 Y32.9499
G01 X19.2021 Y32.9725
G01 X19.2064 Y33.0608
G01 X19.2069 Y33.0835
G01 X19.2064 Y33.1062
G01 X19.2021 Y33.1945
G01 X19.2004 Y33.2171
G01 X19.1976 Y33.2397
G01 X19.1828 Y33.3383
G01 X19.1807 Y33.3495
G01 X19.1758 Y33.3717
G01 X19.1543 Y33.4574
G01 X19.1482 Y33.4793
G01 X19.1411 Y33.5009
G01 X19.1113 Y33.5840
G01 X19.1032 Y33.6053
G01 X19.0939 Y33.6261
G01 X19.0562 Y33.7059
G01 X19.0460 Y33.7262
G01 X19.0347 Y33.7460
G01 X18.9893 Y33.8218
G01 X18.9772 Y33.8410
G01 X18.9641 Y33.8596
G01 X18.9115 Y33.9305
G01 X18.8975 Y33.9485
G01 X18.8826 Y33.9657
G01 X18.8233 Y34.0311
G01 X18.8076 Y34.0476
G01 X18.7911 Y34.0633
G01 X18.7257 Y34.1226
G01 X18.7085 Y34.1375
G01 X18.6905 Y34.1515
G01 X18.6196 Y34.2041
G01 X18.6010 Y34.2172
G01 X18.5818 Y34.2293
G01 X18.5060 Y34.2747
G01 X18.4862 Y34.2860
G01 X18.4659 Y34.2962
G01 X18.3757 Y34.3387
G01 X18.3547 Y34.3474
G01 X18.3380 Y34.3535
G01 X18.3653 Y34.3638
G01 X18.3861 Y34.3731
G01 X18.4761 Y34.4158
G01 X18.4862 Y34.4210
G01 X18.5060 Y34.4323
G01 X18.5818 Y34.4777
G01 X18.6010 Y34.4898
G01 X18.6196 Y34.5029
G01 X18.6905 Y34.5555
G01 X18.7085 Y34.5695
G01 X18.7257 Y34.5844
G01 X18.7911 Y34.6437
G01 X18.8076 Y34.6594
G01 X18.8233 Y34.6759
G01 X18.8826 Y34.7413
G01 X18.8975 Y34.7585
G01 X18.9115 Y34.7765
G01 X18.9707 Y34.8566
G01 X18.9772 Y34.8660
G01 X18.9893 Y34.8852
G01 X19.0347 Y34.9610
G01 X19.0460 Y34.9808
G01 X19.0562 Y35.0011
G01 X19.0939 Y35.0809
G01 X19.1032 Y35.1017
G01 X19.1113 Y35.1230
G01 X19.1411 Y35.2061
G01 X19.1482 Y35.2277
G01 X19.1543 Y35.2496
G01 X19.1758 Y35.3353
G01 X19.1807 Y35.3575
G01 X19.1846 Y35.3799
G01 X19.1991 Y35.4786
G01 X19.2004 Y35.4899
G01 X19.2021 Y35.5125
G01 X19.2064 Y35.6008
G01 X19.2069 Y35.6235
G01 X19.2064 Y35.6462
G01 X19.2021 Y35.7345
G01 X19.2004 Y35.7571
G01 X19.1991 Y35.7684
G01 X19.1846 Y35.8671
G01 X19.1807 Y35.8895
G01 X19.1758 Y35.9117
G01 X19.1543 Y35.9974
G01 X19.1482 Y36.0193
G01 X19.1411 Y36.0409
G01 X19.1113 Y36.1240
G01 X19.1032 Y36.1453
G01 X19.0939 Y36.1661
G01 X19.0562 Y36.2459
G01 X19.0460 Y36.2662
G01 X19.0347 Y36.2860
G01 X18.9893 Y36.3618
G01 X18.9772 Y36.3810
G01 X18.9641 Y36.3996
G01 X18.9046 Y36.4796
G01 X18.8975 Y36.4885
G01 X18.8826 Y36.5057
G01 X18.8233 Y36.5711
G01 X18.8076 Y36.5876
G01 X18.7911 Y36.6033
G01 X18.7257 Y36.6626
G01 X18.7085 Y36.6775
G01 X18.6905 Y36.6915
G01 X18.6196 Y36.7441
G01 X18.6010 Y36.7572
G01 X18.5818 Y36.7693
G01 X18.5060 Y36.8147
G01 X18.4862 Y36.8260
G01 X18.4659 Y36.8362
G01 X18.3757 Y36.8787
G01 X18.3547 Y36.8874
G01 X18.3380 Y36.8935
G01 X18.3653 Y36.9038
G01 X18.3861 Y36.9131
G01 X18.4761 Y36.9558
G01 X18.4862 Y36.9610
G01 X18.5060 Y36.9723
G01 X18.5818 Y37.0177
G01 X18.6010 Y37.0298
G01 X18.6196 Y37.0429
G01 X18.6905 Y37.0955
G01 X18.7085 Y37.1095
G01 X18.7257 Y37.1244
G01 X18.7911 Y37.1837
G01 X18.8076 Y37.1994
G01 X18.8233 Y37.2159
G01 X18.8826 Y37.2813
G01 X18.8975 Y37.2985
G01 X18.9115 Y37.3165
G01 X18.9641 Y37.3874
G01 X18.9772 Y37.4060
G01 X18.9834 Y37.4155
G01 X19.0347 Y37.5010
G01 X19.0460 Y37.5208
G01 X19.0562 Y37.5411
G01 X19.0987 Y37.6313
G01 X19.1074 Y37.6523
G01 X19.1113 Y37.6630
G01 X19.1411 Y37.7461
G01 X19.1482 Y37.7677
G01 X19.1543 Y37.7896
G01 X19.1758 Y37.8753
G01 X19.1807 Y37.8975
G01 X19.1846 Y37.9199
G01 X19.1976 Y38.0073
G01 X19.2004 Y38.0299
G01 X19.2021 Y38.0525
G01 X19.2064 Y38.1408
G01 X19.2069 Y38.1635
G01 X19.2064 Y38.1862
G01 X19.2014 Y38.2858
G01 X19.2004 Y38.2971
G01 X19.1976 Y38.3197
G01 X19.1846 Y38.4071
G01 X19.1807 Y38.4295
G01 X19.1758 Y38.4517
G01 X19.1543 Y38.5374
G01 X19.1482 Y38.5593
G01 X19.1411 Y38.5809
G01 X19.1113 Y38.6640
G01 X19.1032 Y38.6853
G01 X19.0939 Y38.7061
G01 X19.0562 Y38.7859
G01 X19.0460 Y38.8062
G01 X19.0347 Y38.8260
G01 X18.9893 Y38.9018
G01 X18.9772 Y38.9210
G01 X18.9641 Y38.9396
G01 X18.9115 Y39.0105
G01 X18.8975 Y39.0285
G01 X18.8826 Y39.0457
G01 X18.8233 Y39.1111
G01 X18.8076 Y39.1276
G01 X18.7995 Y39.1355
G01 X18.7257 Y39.2026
G01 X18.7085 Y39.2175
G01 X18.6905 Y39.2315
G01 X18.6196 Y39.2841
G01 X18.6010 Y39.2972
G01 X18.5818 Y39.3093
G01 X18.5060 Y39.3547
G01 X18.4862 Y39.3660
G01 X18.4659 Y39.3762
G01 X18.3757 Y39.4187
G01 X18.3547 Y39.4274
G01 X18.3380 Y39.4335
G01 X18.3653 Y39.4438
G01 X18.3861 Y39.4531
G01 X18.4761 Y39.4958
G01 X18.4862 Y39.5010
G01 X18.5060 Y39.5123
G01 X18.5818 Y39.5577
G01 X18.6010 Y39.5698
G01 X18.6196 Y39.5829
G01 X18.6905 Y39.6355
G01 X18.7085 Y39.6495
G01 X18.7257 Y39.6644
G01 X18.7911 Y39.7237
G01 X18.8076 Y39.7394
G01 X18.8233 Y39.7559
G01 X18.8826 Y39.8213
G01 X18.8975 Y39.8385
G01 X18.9115 Y39.8565
G01 X18.9641 Y39.9274
G01 X18.9772 Y39.9460
G01 X18.9834 Y39.9555
G01 X19.0347 Y40.0410
G01 X19.0460 Y40.0608
G01 X19.0562 Y40.0811
G01 X19.0987 Y40.1713
G01 X19.1032 Y40.1817
G01 X19.1113 Y40.2030
G01 X19.1411 Y40.2861
G01 X19.1482 Y40.3077
G01 X19.1543 Y40.3296
G01 X19.1758 Y40.4153
G01 X19.1807 Y40.4375
G01 X19.1846 Y40.4599
G01 X19.1976 Y40.5473
G01 X19.2004 Y40.5699
G01 X19.2021 Y40.5925
G01 X19.2064 Y40.6808
G01 X19.2069 Y40.7035
G01 X19.2064 Y40.7262
G01 X19.2014 Y40.8258
G01 X19.2004 Y40.8371
G01 X19.1976 Y40.8597
G01 X19.1846 Y40.9471
G01 X19.1807 Y40.9695
G01 X19.1758 Y40.9917
G01 X19.1543 Y41.0774
G01 X19.1482 Y41.0993
G01 X19.1411 Y41.1209
G01 X19.1113 Y41.2040
G01 X19.1032 Y41.2253
G01 X19.0939 Y41.2461
G01 X19.0562 Y41.3259
G01 X19.0460 Y41.3462
G01 X19.0347 Y41.3660
G01 X18.9893 Y41.4418
G01 X18.9772 Y41.4610
G01 X18.9641 Y41.4796
G01 X18.9115 Y41.5505
G01 X18.8975 Y41.5685
G01 X18.8826 Y41.5857
G01 X18.8233 Y41.6511
G01 X18.8076 Y41.6676
G01 X18.7995 Y41.6755
G01 X18.7257 Y41.7426
G01 X18.7085 Y41.7575
G01 X18.6905 Y41.7715
G01 X18.6196 Y41.8241
G01 X18.6010 Y41.8372
G01 X18.5818 Y41.8493
G01 X18.5060 Y41.8947
G01 X18.4862 Y41.9060
G01 X18.4659 Y41.9162
G01 X18.3757 Y41.9587
G01 X18.3547 Y41.9674
G01 X18.3380 Y41.9735
G01 X18.3653 Y41.9838
G01 X18.3861 Y41.9931
G01 X18.4761 Y42.0358
G01 X18.4862 Y42.0410
G01 X18.5060 Y42.0523
G01 X18.5818 Y42.0977
G01 X18.6010 Y42.1098
G01 X18.6196 Y42.1229
G01 X18.6905 Y42.1755
G01 X18.7085 Y42.1895
G01 X18.7257 Y42.2044
G01 X18.7911 Y42.2637
G01 X18.8076 Y42.2794
G01 X18.8233 Y42.2959
G01 X18.8826 Y42.3613
G01 X18.8975 Y42.3785
G01 X18.9115 Y42.3965
G01 X18.9641 Y42.4674
G01 X18.9772 Y42.4860
G01 X18.9834 Y42.4955
G01 X19.0347 Y42.5810
G01 X19.0460 Y42.6008
G01 X19.0562 Y42.6211
G01 X19.0987 Y42.7113
G01 X19.1074 Y42.7323
G01 X19.1113 Y42.7430
G01 X19.1411 Y42.8261
G01 X19.1482 Y42.8477
G01 X19.1543 Y42.8696
G01 X19.1758 Y42.9553
G01 X19.1807 Y42.9775
G01 X19.1846 Y42.9999
G01 X19.1976 Y43.0873
G01 X19.2004 Y43.1099
G01 X19.2021 Y43.1325
G01 X19.2064 Y43.2208
G01 X19.2069 Y43.2435
G01 X19.2064 Y43.2662
G01 X19.2021 Y43.3545
G01 X19.2004 Y43.3771
G01 X19.1976 Y43.3997
G01 X19.1846 Y43.4871
G01 X19.1807 Y43.5095
G01 X19.1784 Y43.5206
G01 X19.1543 Y43.6174
G01 X19.1482 Y43.6393
G01 X19.1411 Y43.6609
G01 X19.1074 Y43.7547
G01 X19.0987 Y43.7757
G01 X19.0939 Y43.7861
G01 X19.0562 Y43.8659
G01 X19.0460 Y43.8862
G01 X19.0347 Y43.9060
G01 X18.9893 Y43.9818
G01 X18.9772 Y44.0010
G01 X18.9641 Y44.0196
G01 X18.9115 Y44.0905
G01 X18.8975 Y44.1085
G01 X18.8826 Y44.1257
G01 X18.8233 Y44.1911
G01 X18.8076 Y44.2076
G01 X18.7995 Y44.2155
G01 X18.7257 Y44.2826
G01 X18.7085 Y44.2975
G01 X18.6905 Y44.3115
G01 X18.6196 Y44.3641
G01 X18.6010 Y44.3772
G01 X18.5818 Y44.3893
G01 X18.5060 Y44.4347
G01 X18.4862 Y44.4460
G01 X18.4659 Y44.4562
G01 X18.3757 Y44.4987
G01 X18.3547 Y44.5074
G01 X18.3380 Y44.5135
G01 X18.3653 Y44.5238
G01 X18.3861 Y44.5331
G01 X18.4761 Y44.5758
G01 X18.4962 Y44.5865
G01 X18.5060 Y44.5923
G01 X18.5818 Y44.6377
G01 X18.6010 Y44.6498
G01 X18.6196 Y44.6629
G01 X18.6905 Y44.7155
G01 X18.7085 Y44.7295
G01 X18.7257 Y44.7444
G01 X18.7911 Y44.8037
G01 X18.8076 Y44.8194
G01 X18.8233 Y44.8359
G01 X18.8826 Y44.9013
G01 X18.8975 Y44.9185
G01 X18.9115 Y44.9365
G01 X18.9641 Y45.0074
G01 X18.9772 Y45.0260
G01 X18.9893 Y45.0452
G01 X19.0347 Y45.1210
G01 X19.0460 Y45.1408
G01 X19.0562 Y45.1611
G01 X19.0939 Y45.2409
G01 X19.1032 Y45.2617
G01 X19.1113 Y45.2830
G01 X19.1411 Y45.3661
G01 X19.1482 Y45.3877
G01 X19.1543 Y45.4096
G01 X19.1758 Y45.4953
G01 X19.1807 Y45.5175
G01 X19.1846 Y45.5399
G01 X19.1976 Y45.6273
G01 X19.2004 Y45.6499
G01 X19.2014 Y45.6612
G01 X19.2064 Y45.7608
G01 X19.2069 Y45.7835
G01 X19.2064 Y45.8062
G01 X19.2021 Y45.8945
G01 X19.2004 Y45.9171
G01 X19.1976 Y45.9397
G01 X19.1846 Y46.0271
G01 X19.1807 Y46.0495
G01 X19.1758 Y46.0717
G01 X19.1543 Y46.1574
G01 X19.1482 Y46.1793
G01 X19.1411 Y46.2009
G01 X19.1113 Y46.2840
G01 X19.1032 Y46.3053
G01 X19.0939 Y46.3261
G01 X19.0562 Y46.4059
G01 X19.0460 Y46.4262
G01 X19.0347 Y46.4460
G01 X18.9893 Y46.5218
G01 X18.9772 Y46.5410
G01 X18.9707 Y46.5504
G01 X18.9115 Y46.6305
G01 X18.8975 Y46.6485
G01 X18.8826 Y46.6657
G01 X18.8233 Y46.7311
G01 X18.8076 Y46.7476
G01 X18.7911 Y46.7633
G01 X18.7257 Y46.8226
G01 X18.7172 Y46.8301
G01 X18.6996 Y46.8446
G01 X18.6196 Y46.9041
G01 X18.6010 Y46.9172
G01 X18.5818 Y46.9293
G01 X18.4962 Y46.9805
G01 X18.4761 Y46.9912
G01 X18.4659 Y46.9962
G01 X18.3861 Y47.0339
G01 X18.3653 Y47.0432
G01 X18.3380 Y47.0535
G01 X18.3653 Y47.0638
G01 X18.3861 Y47.0731
G01 X18.4761 Y47.1158
G01 X18.4862 Y47.1210
G01 X18.5060 Y47.1323
G01 X18.5818 Y47.1777
G01 X18.6010 Y47.1898
G01 X18.6196 Y47.2029
G01 X18.6905 Y47.2555
G01 X18.7085 Y47.2695
G01 X18.7257 Y47.2844
G01 X18.7911 Y47.3437
G01 X18.8076 Y47.3594
G01 X18.8233 Y47.3759
G01 X18.8826 Y47.4413
G01 X18.8975 Y47.4585
G01 X18.9115 Y47.4765
G01 X18.9641 Y47.5474
G01 X18.9772 Y47.5660
G01 X18.9893 Y47.5852
G01 X19.0347 Y47.6610
G01 X19.0460 Y47.6808
G01 X19.0562 Y47.7011
G01 X19.0939 Y47.7809
G01 X19.1032 Y47.8017
G01 X19.1113 Y47.8230
G01 X19.1411 Y47.9061
G01 X19.1482 Y47.9277
G01 X19.1543 Y47.9496
G01 X19.1758 Y48.0353
G01 X19.1807 Y48.0575
G01 X19.1846 Y48.0799
G01 X19.1976 Y48.1673
G01 X19.2004 Y48.1899
G01 X19.2014 Y48.2012
G01 X19.2064 Y48.3008
G01 X19.2069 Y48.3235
G01 X19.2064 Y48.3462
G01 X19.2021 Y48.4345
G01 X19.2004 Y48.4571
G01 X19.1976 Y48.4797
G01 X19.1846 Y48.5671
G01 X19.1807 Y48.5895
G01 X19.1758 Y48.6117
G01 X19.1543 Y48.6974
G01 X19.1482 Y48.7193
G01 X19.1411 Y48.7409
G01 X19.1113 Y48.8240
G01 X19.1032 Y48.8453
G01 X19.0939 Y48.8661
G01 X19.0562 Y48.9459
G01 X19.0460 Y48.9662
G01 X19.0347 Y48.9860
G01 X18.9893 Y49.0618
G01 X18.9834 Y49.0715
G01 X18.9707 Y49.0904
G01 X18.9115 Y49.1705
G01 X18.8975 Y49.1885
G01 X18.8826 Y49.2057
G01 X18.8233 Y49.2711
G01 X18.8076 Y49.2876
G01 X18.7911 Y49.3033
G01 X18.7257 Y49.3626
G01 X18.7172 Y49.3701
G01 X18.6996 Y49.3846
G01 X18.6196 Y49.4441
G01 X18.6010 Y49.4572
G01 X18.5818 Y49.4693
G01 X18.4962 Y49.5205
G01 X18.4761 Y49.5312
G01 X18.4659 Y49.5362
G01 X18.3861 Y49.5739
G01 X18.3653 Y49.5832
G01 X18.3380 Y49.5935
G01 X18.3653 Y49.6038
G01 X18.3861 Y49.6131
G01 X18.4761 Y49.6558
G01 X18.4862 Y49.6610
G01 X18.5060 Y49.6723
G01 X18.5818 Y49.7177
G01 X18.6010 Y49.7298
G01 X18.6196 Y49.7429
G01 X18.6905 Y49.7955
G01 X18.7085 Y49.8095
G01 X18.7257 Y49.8244
G01 X18.7911 Y49.8837
G01 X18.8076 Y49.8994
G01 X18.8233 Y49.9159
G01 X18.8826 Y49.9813
G01 X18.8975 Y49.9985
G01 X18.9115 Y50.0165
G01 X18.9641 Y50.0874
G01 X18.9772 Y50.1060
G01 X18.9893 Y50.1252
G01 X19.0347 Y50.2010
G01 X19.0460 Y50.2208
G01 X19.0562 Y50.2411
G01 X19.0939 Y50.3209
G01 X19.1032 Y50.3417
G01 X19.1113 Y50.3630
G01 X19.1411 Y50.4461
G01 X19.1482 Y50.4677
G01 X19.1543 Y50.4896
G01 X19.1758 Y50.5753
G01 X19.1807 Y50.5975
G01 X19.1846 Y50.6199
G01 X19.1976 Y50.7073
G01 X19.2004 Y50.7299
G01 X19.2021 Y50.7525
G01 X19.2064 Y50.8408
G01 X19.2068 Y50.8521
G01 X19.2068 Y50.8749
G01 X19.2021 Y50.9745
G01 X19.2004 Y50.9971
G01 X19.1976 Y51.0197
G01 X19.1846 Y51.1071
G01 X19.1807 Y51.1295
G01 X19.1758 Y51.1517
G01 X19.1543 Y51.2374
G01 X19.1482 Y51.2593
G01 X19.1411 Y51.2809
G01 X19.1113 Y51.3640
G01 X19.1032 Y51.3853
G01 X19.0939 Y51.4061
G01 X19.0562 Y51.4859
G01 X19.0460 Y51.5062
G01 X19.0347 Y51.5260
G01 X18.9893 Y51.6018
G01 X18.9834 Y51.6115
G01 X18.9707 Y51.6304
G01 X18.9115 Y51.7105
G01 X18.8975 Y51.7285
G01 X18.8826 Y51.7457
G01 X18.8233 Y51.8111
G01 X18.8076 Y51.8276
G01 X18.7911 Y51.8433
G01 X18.7257 Y51.9026
G01 X18.7172 Y51.9101
G01 X18.6996 Y51.9246
G01 X18.6196 Y51.9841
G01 X18.6010 Y51.9972
G01 X18.5818 Y52.0093
G01 X18.4962 Y52.0605
G01 X18.4862 Y52.0660
G01 X18.4659 Y52.0762
G01 X18.3861 Y52.1139
G01 X18.3653 Y52.1232
G01 X18.3380 Y52.1335
G01 X18.3653 Y52.1438
G01 X18.3861 Y52.1531
G01 X18.4761 Y52.1958
G01 X18.4862 Y52.2010
G01 X18.5060 Y52.2123
G01 X18.5818 Y52.2577
G01 X18.6010 Y52.2698
G01 X18.6196 Y52.2829
G01 X18.6905 Y52.3355
G01 X18.7085 Y52.3495
G01 X18.7257 Y52.3644
G01 X18.7911 Y52.4237
G01 X18.8076 Y52.4394
G01 X18.8233 Y52.4559
G01 X18.8826 Y52.5213
G01 X18.8975 Y52.5385
G01 X18.9115 Y52.5565
G01 X18.9641 Y52.6274
G01 X18.9772 Y52.6460
G01 X18.9893 Y52.6652
G01 X19.0347 Y52.7410
G01 X19.0460 Y52.7608
G01 X19.0562 Y52.7811
G01 X19.0939 Y52.8609
G01 X19.1032 Y52.8817
G01 X19.1113 Y52.9030
G01 X19.1411 Y52.9861
G01 X19.1482 Y53.0077
G01 X19.1543 Y53.0296
G01 X19.1758 Y53.1153
G01 X19.1807 Y53.1375
G01 X19.1846 Y53.1599
G01 X19.1976 Y53.2473
G01 X19.2004 Y53.2699
G01 X19.2021 Y53.2925
G01 X19.2064 Y53.3808
G01 X19.2068 Y53.3921
G01 X19.2068 Y53.4149
G01 X19.2021 Y53.5145
G01 X19.2004 Y53.5371
G01 X19.1976 Y53.5597
G01 X19.1846 Y53.6471
G01 X19.1807 Y53.6695
G01 X19.1758 Y53.6917
G01 X19.1543 Y53.7774
G01 X19.1482 Y53.7993
G01 X19.1411 Y53.8209
G01 X19.1113 Y53.9040
G01 X19.1032 Y53.9253
G01 X19.0939 Y53.9461
G01 X19.0562 Y54.0259
G01 X19.0460 Y54.0462
G01 X19.0347 Y54.0660
G01 X18.9893 Y54.1418
G01 X18.9772 Y54.1610
G01 X18.9707 Y54.1704
G01 X18.9115 Y54.2505
G01 X18.8975 Y54.2685
G01 X18.8826 Y54.2857
G01 X18.8233 Y54.3511
G01 X18.8076 Y54.3676
G01 X18.7911 Y54.3833
G01 X18.7257 Y54.4426
G01 X18.7172 Y54.4501
G01 X18.6996 Y54.4646
G01 X18.6196 Y54.5241
G01 X18.6010 Y54.5372
G01 X18.5818 Y54.5493
G01 X18.4962 Y54.6005
G01 X18.4862 Y54.6060
G01 X18.4659 Y54.6162
G01 X18.3861 Y54.6539
G01 X18.3653 Y54.6632
G01 X18.3380 Y54.6735
G01 X18.3653 Y54.6838
G01 X18.3861 Y54.6931
G01 X18.4761 Y54.7358
G01 X18.4962 Y54.7465
G01 X18.5060 Y54.7523
G01 X18.5818 Y54.7977
G01 X18.6010 Y54.8098
G01 X18.6196 Y54.8229
G01 X18.6905 Y54.8755
G01 X18.7085 Y54.8895
G01 X18.7257 Y54.9044
G01 X18.7911 Y54.9637
G01 X18.8076 Y54.9794
G01 X18.8233 Y54.9959
G01 X18.8826 Y55.0613
G01 X18.8975 Y55.0785
G01 X18.9115 Y55.0965
G01 X18.9641 Y55.1674
G01 X18.9772 Y55.1860
G01 X18.9893 Y55.2052
G01 X19.0347 Y55.2810
G01 X19.0460 Y55.3008
G01 X19.0562 Y55.3211
G01 X19.0939 Y55.4009
G01 X19.1032 Y55.4217
G01 X19.1113 Y55.4430
G01 X19.1411 Y55.5261
G01 X19.1482 Y55.5477
G01 X19.1543 Y55.5696
G01 X19.1758 Y55.6553
G01 X19.1807 Y55.6775
G01 X19.1846 Y55.6999
G01 X19.1976 Y55.7873
G01 X19.2004 Y55.8099
G01 X19.2021 Y55.8325
G01 X19.2064 Y55.9208
G01 X19.2068 Y55.9321
G01 X19.2068 Y55.9549
G01 X19.2021 Y56.0545
G01 X19.2004 Y56.0771
G01 X19.1976 Y56.0997
G01 X19.1846 Y56.1871
G01 X19.1807 Y56.2095
G01 X19.1758 Y56.2317
G01 X19.1543 Y56.3174
G01 X19.1482 Y56.3393
G01 X19.1411 Y56.3609
G01 X19.1113 Y56.4440
G01 X19.1032 Y56.4653
G01 X19.0939 Y56.4861
G01 X19.0562 Y56.5659
G01 X19.0460 Y56.5862
G01 X19.0347 Y56.6060
G01 X18.9893 Y56.6818
G01 X18.9772 Y56.7010
G01 X18.9707 Y56.7104
G01 X18.9115 Y56.7905
G01 X18.8975 Y56.8085
G01 X18.8826 Y56.8257
G01 X18.8233 Y56.8911
G01 X18.8076 Y56.9076
G01 X18.7911 Y56.9233
G01 X18.7257 Y56.9826
G01 X18.7172 Y56.9901
G01 X18.6996 Y57.0046
G01 X18.6196 Y57.0641
G01 X18.6010 Y57.0772
G01 X18.5818 Y57.0893
G01 X18.4962 Y57.1405
G01 X18.4761 Y57.1512
G01 X18.4659 Y57.1562
G01 X18.3861 Y57.1939
G01 X18.3653 Y57.2032
G01 X18.3380 Y57.2135
G01 X18.3653 Y57.2238
G01 X18.3861 Y57.2331
G01 X18.4761 Y57.2758
G01 X18.4862 Y57.2810
G01 X18.5060 Y57.2923
G01 X18.5818 Y57.3377
G01 X18.6010 Y57.3498
G01 X18.6196 Y57.3629
G01 X18.6905 Y57.4155
G01 X18.7085 Y57.4295
G01 X18.7257 Y57.4444
G01 X18.7911 Y57.5037
G01 X18.8076 Y57.5194
G01 X18.8233 Y57.5359
G01 X18.8826 Y57.6013
G01 X18.8975 Y57.6185
G01 X18.9115 Y57.6365
G01 X18.9641 Y57.7074
G01 X18.9772 Y57.7260
G01 X18.9893 Y57.7452
G01 X19.0347 Y57.8210
G01 X19.0460 Y57.8408
G01 X19.0562 Y57.8611
G01 X19.0939 Y57.9409
G01 X19.1032 Y57.9617
G01 X19.1113 Y57.9830
G01 X19.1411 Y58.0661
G01 X19.1482 Y58.0877
G01 X19.1543 Y58.1096
G01 X19.1758 Y58.1953
G01 X19.1807 Y58.2175
G01 X19.1846 Y58.2399
G01 X19.1976 Y58.3273
G01 X19.2004 Y58.3499
G01 X19.2021 Y58.3725
G01 X19.2064 Y58.4608
G01 X19.2068 Y58.4721
G01 X19.2068 Y58.4949
G01 X19.2021 Y58.5945
G01 X19.2004 Y58.6171
G01 X19.1976 Y58.6397
G01 X19.1846 Y58.7271
G01 X19.1807 Y58.7495
G01 X19.1758 Y58.7717
G01 X19.1543 Y58.8574
G01 X19.1482 Y58.8793
G01 X19.1411 Y58.9009
G01 X19.1113 Y58.9840
G01 X19.1032 Y59.0053
G01 X19.0939 Y59.0261
G01 X19.0562 Y59.1059
G01 X19.0460 Y59.1262
G01 X19.0347 Y59.1460
G01 X18.9893 Y59.2218
G01 X18.9772 Y59.2410
G01 X18.9641 Y59.2596
G01 X18.9115 Y59.3305
G01 X18.8975 Y59.3485
G01 X18.8826 Y59.3657
G01 X18.8233 Y59.4311
G01 X18.8076 Y59.4476
G01 X18.7911 Y59.4633
G01 X18.7257 Y59.5226
G01 X18.7085 Y59.5375
G01 X18.6905 Y59.5515
G01 X18.6196 Y59.6041
G01 X18.6010 Y59.6172
G01 X18.5818 Y59.6293
G01 X18.5060 Y59.6747
G01 X18.4862 Y59.6860
G01 X18.4659 Y59.6962
G01 X18.3861 Y59.7339
G01 X18.3653 Y59.7432
G01 X18.3440 Y59.7513
G01 X18.2609 Y59.7811
G01 X18.2393 Y59.7882
G01 X18.2174 Y59.7943
G01 X18.1317 Y59.8158
G01 X18.1095 Y59.8207
G01 X18.0871 Y59.8246
G01 X17.9997 Y59.8376
G01 X17.9771 Y59.8404
G01 X17.9545 Y59.8421
G01 X17.8662 Y59.8464
G01 X17.8435 Y59.8469
G01 X17.8208 Y59.8464
G01 X17.7325 Y59.8421
G01 X17.7099 Y59.8404
G01 X17.6873 Y59.8376
G01 X17.5999 Y59.8246
G01 X17.5775 Y59.8207
G01 X17.5553 Y59.8158
G01 X17.4696 Y59.7943
G01 X17.4477 Y59.7882
G01 X17.4261 Y59.7811
G01 X17.3430 Y59.7513
G01 X17.3217 Y59.7432
G01 X17.3009 Y59.7339
G01 X17.2211 Y59.6962
G01 X17.2008 Y59.6860
G01 X17.1810 Y59.6747
G01 X17.1052 Y59.6293
G01 X17.0860 Y59.6172
G01 X17.0674 Y59.6041
G01 X16.9965 Y59.5515
G01 X16.9785 Y59.5375
G01 X16.9613 Y59.5226
G01 X16.8959 Y59.4633
G01 X16.8790 Y59.4471
G01 X16.2680 Y59.4471
G01 X16.2511 Y59.4633
G01 X16.1857 Y59.5226
G01 X16.1685 Y59.5375
G01 X16.1505 Y59.5515
G01 X16.0796 Y59.6041
G01 X16.0610 Y59.6172
G01 X16.0418 Y59.6293
G01 X15.9660 Y59.6747
G01 X15.9462 Y59.6860
G01 X15.9259 Y59.6962
G01 X15.8461 Y59.7339
G01 X15.8253 Y59.7432
G01 X15.8040 Y59.7513
G01 X15.7209 Y59.7811
G01 X15.6993 Y59.7882
G01 X15.6774 Y59.7943
G01 X15.5917 Y59.8158
G01 X15.5695 Y59.8207
G01 X15.5471 Y59.8246
G01 X15.4597 Y59.8376
G01 X15.4371 Y59.8404
G01 X15.4145 Y59.8421
G01 X15.3262 Y59.8464
G01 X15.3035 Y59.8469
G01 X15.2808 Y59.8464
G01 X15.1925 Y59.8421
G01 X15.1699 Y59.8404
G01 X15.1473 Y59.8376
G01 X15.0599 Y59.8246
G01 X15.0375 Y59.8207
G01 X15.0153 Y59.8158
G01 X14.9296 Y59.7943
G01 X14.9077 Y59.7882
G01 X14.8861 Y59.7811
G01 X14.8030 Y59.7513
G01 X14.7817 Y59.7432
G01 X14.7609 Y59.7339
G01 X14.6811 Y59.6962
G01 X14.6608 Y59.6860
G01 X14.6410 Y59.6747
G01 X14.5652 Y59.6293
G01 X14.5460 Y59.6172
G01 X14.5274 Y59.6041
G01 X14.4565 Y59.5515
G01 X14.4385 Y59.5375
G01 X14.4213 Y59.5226
G01 X14.3559 Y59.4633
G01 X14.3390 Y59.4471
G01 X8.6480 Y59.4471
G01 X8.6311 Y59.4633
G01 X8.5657 Y59.5226
G01 X8.5485 Y59.5375
G01 X8.5305 Y59.5515
G01 X8.4596 Y59.6041
G01 X8.4410 Y59.6172
G01 X8.4218 Y59.6293
G01 X8.3460 Y59.6747
G01 X8.3262 Y59.6860
G01 X8.3059 Y59.6962
G01 X8.2261 Y59.7339
G01 X8.2053 Y59.7432
G01 X8.1840 Y59.7513
G01 X8.1009 Y59.7811
G01 X8.0793 Y59.7882
G01 X8.0574 Y59.7943
G01 X7.9717 Y59.8158
G01 X7.9495 Y59.8207
G01 X7.9271 Y59.8246
G01 X7.8397 Y59.8376
G01 X7.8171 Y59.8404
G01 X7.7945 Y59.8421
G01 X7.7062 Y59.8464
G01 X7.6949 Y59.8468
G01 X7.6721 Y59.8468
G01 X7.5725 Y59.8421
G01 X7.5499 Y59.8404
G01 X7.5273 Y59.8376
G01 X7.4399 Y59.8246
G01 X7.4175 Y59.8207
G01 X7.3953 Y59.8158
G01 X7.3096 Y59.7943
G01 X7.2877 Y59.7882
G01 X7.2661 Y59.7811
G01 X7.1830 Y59.7513
G01 X7.1617 Y59.7432
G01 X7.1409 Y59.7339
G01 X7.0611 Y59.6962
G01 X7.0408 Y59.6860
G01 X7.0210 Y59.6747
G01 X6.9452 Y59.6293
G01 X6.9260 Y59.6172
G01 X6.9074 Y59.6041
G01 X6.8365 Y59.5515
G01 X6.8185 Y59.5375
G01 X6.8013 Y59.5226
G01 X6.7359 Y59.4633
G01 X6.7190 Y59.4471
G01 X6.1080 Y59.4471
G01 X6.0911 Y59.4633
G01 X6.0257 Y59.5226
G01 X6.0085 Y59.5375
G01 X5.9905 Y59.5515
G01 X5.9196 Y59.6041
G01 X5.9010 Y59.6172
G01 X5.8818 Y59.6293
G01 X5.8060 Y59.6747
G01 X5.7862 Y59.6860
G01 X5.7659 Y59.6962
G01 X5.6861 Y59.7339
G01 X5.6653 Y59.7432
G01 X5.6440 Y59.7513
G01 X5.5609 Y59.7811
G01 X5.5501 Y59.7848
G01 X5.5284 Y59.7914
G01 X5.4206 Y59.8184
G01 X5.3983 Y59.8228
G01 X5.3871 Y59.8246
G01 X5.2997 Y59.8376
G01 X5.2771 Y59.8404
G01 X5.2545 Y59.8421
G01 X5.1662 Y59.8464
G01 X5.1549 Y59.8468
G01 X5.1321 Y59.8468
G01 X5.0325 Y59.8421
G01 X5.0099 Y59.8404
G01 X4.9873 Y59.8376
G01 X4.8999 Y59.8246
G01 X4.8887 Y59.8228
G01 X4.8664 Y59.8184
G01 X4.7696 Y59.7943
G01 X4.7477 Y59.7882
G01 X4.7261 Y59.7811
G01 X4.6430 Y59.7513
G01 X4.6217 Y59.7432
G01 X4.6009 Y59.7339
G01 X4.5211 Y59.6962
G01 X4.5008 Y59.6860
G01 X4.4810 Y59.6747
G01 X4.4052 Y59.6293
G01 X4.3860 Y59.6172
G01 X4.3674 Y59.6041
G01 X4.2965 Y59.5515
G01 X4.2785 Y59.5375
G01 X4.2613 Y59.5226
G01 X4.1959 Y59.4633
G01 X4.1794 Y59.4476
G01 X4.1637 Y59.4311
G01 X4.1044 Y59.3657
G01 X4.0895 Y59.3485
G01 X4.0755 Y59.3305
G01 X4.0229 Y59.2596
G01 X4.0098 Y59.2410
G01 X3.9977 Y59.2218
G01 X3.9523 Y59.1460
G01 X3.9410 Y59.1262
G01 X3.9308 Y59.1059
G01 X3.8931 Y59.0261
G01 X3.8838 Y59.0053
G01 X3.8757 Y58.9840
G01 X3.8459 Y58.9009
G01 X3.8388 Y58.8793
G01 X3.8327 Y58.8574
G01 X3.8112 Y58.7717
G01 X3.8063 Y58.7495
G01 X3.8024 Y58.7271
G01 X3.7894 Y58.6397
G01 X3.7866 Y58.6171
G01 X3.7849 Y58.5945
G01 X3.7806 Y58.5062
G01 X3.7801 Y58.4835
G01 X3.7806 Y58.4608
G01 X3.7849 Y58.3725
G01 X3.7866 Y58.3499
G01 X3.7894 Y58.3273
G01 X3.8024 Y58.2399
G01 X3.8063 Y58.2175
G01 X3.8112 Y58.1953
G01 X3.8327 Y58.1096
G01 X3.8388 Y58.0877
G01 X3.8459 Y58.0661
G01 X3.8757 Y57.9830
G01 X3.8838 Y57.9617
G01 X3.8931 Y57.9409
G01 X3.9308 Y57.8611
G01 X3.9410 Y57.8408
G01 X3.9523 Y57.8210
G01 X3.9977 Y57.7452
G01 X4.0098 Y57.7260
G01 X4.0229 Y57.7074
G01 X4.0755 Y57.6365
G01 X4.0895 Y57.6185
G01 X4.1044 Y57.6013
G01 X4.1637 Y57.5359
G01 X4.1794 Y57.5194
G01 X4.1959 Y57.5037
G01 X4.2613 Y57.4444
G01 X4.2785 Y57.4295
G01 X4.2965 Y57.4155
G01 X4.3674 Y57.3629
G01 X4.3860 Y57.3498
G01 X4.4052 Y57.3377
G01 X4.4810 Y57.2923
G01 X4.4908 Y57.2865
G01 X4.5109 Y57.2758
G01 X4.6113 Y57.2283
G01 X4.6323 Y57.2196
G01 X4.6490 Y57.2135
G01 X4.6217 Y57.2032
G01 X4.6009 Y57.1939
G01 X4.5109 Y57.1512
G01 X4.5008 Y57.1460
G01 X4.4810 Y57.1347
G01 X4.4052 Y57.0893
G01 X4.3860 Y57.0772
G01 X4.3674 Y57.0641
G01 X4.2965 Y57.0115
G01 X4.2785 Y56.9975
G01 X4.2698 Y56.9901
G01 X4.1959 Y56.9233
G01 X4.1794 Y56.9076
G01 X4.1637 Y56.8911
G01 X4.1044 Y56.8257
G01 X4.0895 Y56.8085
G01 X4.0755 Y56.7905
G01 X4.0229 Y56.7196
G01 X4.0098 Y56.7010
G01 X3.9977 Y56.6818
G01 X3.9465 Y56.5962
G01 X3.9358 Y56.5761
G01 X3.9308 Y56.5659
G01 X3.8931 Y56.4861
G01 X3.8838 Y56.4653
G01 X3.8757 Y56.4440
G01 X3.8459 Y56.3609
G01 X3.8388 Y56.3393
G01 X3.8356 Y56.3284
G01 X3.8112 Y56.2317
G01 X3.8063 Y56.2095
G01 X3.8024 Y56.1871
G01 X3.7894 Y56.0997
G01 X3.7866 Y56.0771
G01 X3.7849 Y56.0545
G01 X3.7806 Y55.9662
G01 X3.7801 Y55.9435
G01 X3.7806 Y55.9208
G01 X3.7849 Y55.8325
G01 X3.7866 Y55.8099
G01 X3.7894 Y55.7873
G01 X3.8042 Y55.6887
G01 X3.8063 Y55.6775
G01 X3.8112 Y55.6553
G01 X3.8327 Y55.5696
G01 X3.8388 Y55.5477
G01 X3.8459 Y55.5261
G01 X3.8757 Y55.4430
G01 X3.8838 Y55.4217
G01 X3.8931 Y55.4009
G01 X3.9308 Y55.3211
G01 X3.9410 Y55.3008
G01 X3.9523 Y55.2810
G01 X3.9977 Y55.2052
G01 X4.0098 Y55.1860
G01 X4.0229 Y55.1674
G01 X4.0755 Y55.0965
G01 X4.0895 Y55.0785
G01 X4.1044 Y55.0613
G01 X4.1637 Y54.9959
G01 X4.1794 Y54.9794
G01 X4.1959 Y54.9637
G01 X4.2613 Y54.9044
G01 X4.2785 Y54.8895
G01 X4.2965 Y54.8755
G01 X4.3674 Y54.8229
G01 X4.3860 Y54.8098
G01 X4.4052 Y54.7977
G01 X4.4810 Y54.7523
G01 X4.5008 Y54.7410
G01 X4.5211 Y54.7308
G01 X4.6113 Y54.6883
G01 X4.6323 Y54.6796
G01 X4.6490 Y54.6735
G01 X4.6217 Y54.6632
G01 X4.6009 Y54.6539
G01 X4.5109 Y54.6112
G01 X4.5008 Y54.6060
G01 X4.4810 Y54.5947
G01 X4.4052 Y54.5493
G01 X4.3860 Y54.5372
G01 X4.3674 Y54.5241
G01 X4.2965 Y54.4715
G01 X4.2785 Y54.4575
G01 X4.2613 Y54.4426
G01 X4.1959 Y54.3833
G01 X4.1794 Y54.3676
G01 X4.1637 Y54.3511
G01 X4.1044 Y54.2857
G01 X4.0895 Y54.2685
G01 X4.0755 Y54.2505
G01 X4.0163 Y54.1704
G01 X4.0036 Y54.1515
G01 X3.9977 Y54.1418
G01 X3.9523 Y54.0660
G01 X3.9410 Y54.0462
G01 X3.9308 Y54.0259
G01 X3.8931 Y53.9461
G01 X3.8838 Y53.9253
G01 X3.8757 Y53.9040
G01 X3.8459 Y53.8209
G01 X3.8388 Y53.7993
G01 X3.8327 Y53.7774
G01 X3.8112 Y53.6917
G01 X3.8063 Y53.6695
G01 X3.8024 Y53.6471
G01 X3.7879 Y53.5484
G01 X3.7866 Y53.5371
G01 X3.7849 Y53.5145
G01 X3.7806 Y53.4262
G01 X3.7801 Y53.4035
G01 X3.7806 Y53.3808
G01 X3.7849 Y53.2925
G01 X3.7866 Y53.2699
G01 X3.7879 Y53.2586
G01 X3.8024 Y53.1599
G01 X3.8063 Y53.1375
G01 X3.8112 Y53.1153
G01 X3.8327 Y53.0296
G01 X3.8388 Y53.0077
G01 X3.8459 Y52.9861
G01 X3.8757 Y52.9030
G01 X3.8838 Y52.8817
G01 X3.8931 Y52.8609
G01 X3.9308 Y52.7811
G01 X3.9410 Y52.7608
G01 X3.9523 Y52.7410
G01 X3.9977 Y52.6652
G01 X4.0098 Y52.6460
G01 X4.0229 Y52.6274
G01 X4.0824 Y52.5474
G01 X4.0969 Y52.5298
G01 X4.1044 Y52.5213
G01 X4.1637 Y52.4559
G01 X4.1794 Y52.4394
G01 X4.1959 Y52.4237
G01 X4.2613 Y52.3644
G01 X4.2785 Y52.3495
G01 X4.2965 Y52.3355
G01 X4.3674 Y52.2829
G01 X4.3860 Y52.2698
G01 X4.4052 Y52.2577
G01 X4.4810 Y52.2123
G01 X4.5008 Y52.2010
G01 X4.5211 Y52.1908
G01 X4.6113 Y52.1483
G01 X4.6323 Y52.1396
G01 X4.6490 Y52.1335
G01 X4.6217 Y52.1232
G01 X4.6009 Y52.1139
G01 X4.5109 Y52.0712
G01 X4.5008 Y52.0660
G01 X4.4810 Y52.0547
G01 X4.4052 Y52.0093
G01 X4.3860 Y51.9972
G01 X4.3674 Y51.9841
G01 X4.2965 Y51.9315
G01 X4.2785 Y51.9175
G01 X4.2613 Y51.9026
G01 X4.1959 Y51.8433
G01 X4.1794 Y51.8276
G01 X4.1637 Y51.8111
G01 X4.1044 Y51.7457
G01 X4.0895 Y51.7285
G01 X4.0755 Y51.7105
G01 X4.0229 Y51.6396
G01 X4.0163 Y51.6304
G01 X4.0036 Y51.6115
G01 X3.9523 Y51.5260
G01 X3.9410 Y51.5062
G01 X3.9308 Y51.4859
G01 X3.8931 Y51.4061
G01 X3.8838 Y51.3853
G01 X3.8757 Y51.3640
G01 X3.8459 Y51.2809
G01 X3.8388 Y51.2593
G01 X3.8327 Y51.2374
G01 X3.8112 Y51.1517
G01 X3.8063 Y51.1295
G01 X3.8024 Y51.1071
G01 X3.7894 Y51.0197
G01 X3.7879 Y51.0084
G01 X3.7856 Y50.9858
G01 X3.7806 Y50.8862
G01 X3.7801 Y50.8635
G01 X3.7806 Y50.8408
G01 X3.7856 Y50.7412
G01 X3.7866 Y50.7299
G01 X3.7894 Y50.7073
G01 X3.8024 Y50.6199
G01 X3.8063 Y50.5975
G01 X3.8112 Y50.5753
G01 X3.8327 Y50.4896
G01 X3.8388 Y50.4677
G01 X3.8459 Y50.4461
G01 X3.8757 Y50.3630
G01 X3.8838 Y50.3417
G01 X3.8931 Y50.3209
G01 X3.9308 Y50.2411
G01 X3.9410 Y50.2208
G01 X3.9523 Y50.2010
G01 X3.9977 Y50.1252
G01 X4.0098 Y50.1060
G01 X4.0229 Y50.0874
G01 X4.0755 Y50.0165
G01 X4.0895 Y49.9985
G01 X4.1044 Y49.9813
G01 X4.1637 Y49.9159
G01 X4.1715 Y49.9075
G01 X4.1875 Y49.8915
G01 X4.2613 Y49.8244
G01 X4.2785 Y49.8095
G01 X4.2965 Y49.7955
G01 X4.3674 Y49.7429
G01 X4.3860 Y49.7298
G01 X4.4052 Y49.7177
G01 X4.4810 Y49.6723
G01 X4.5008 Y49.6610
G01 X4.5211 Y49.6508
G01 X4.6113 Y49.6083
G01 X4.6323 Y49.5996
G01 X4.6490 Y49.5935
G01 X4.6217 Y49.5832
G01 X4.6009 Y49.5739
G01 X4.5109 Y49.5312
G01 X4.5008 Y49.5260
G01 X4.4810 Y49.5147
G01 X4.4052 Y49.4693
G01 X4.3860 Y49.4572
G01 X4.3674 Y49.4441
G01 X4.2965 Y49.3915
G01 X4.2785 Y49.3775
G01 X4.2613 Y49.3626
G01 X4.1959 Y49.3033
G01 X4.1794 Y49.2876
G01 X4.1637 Y49.2711
G01 X4.1044 Y49.2057
G01 X4.0895 Y49.1885
G01 X4.0755 Y49.1705
G01 X4.0229 Y49.0996
G01 X4.0098 Y49.0810
G01 X4.0036 Y49.0715
G01 X3.9523 Y48.9860
G01 X3.9410 Y48.9662
G01 X3.9308 Y48.9459
G01 X3.8883 Y48.8557
G01 X3.8796 Y48.8347
G01 X3.8757 Y48.8240
G01 X3.8459 Y48.7409
G01 X3.8388 Y48.7193
G01 X3.8327 Y48.6974
G01 X3.8112 Y48.6117
G01 X3.8063 Y48.5895
G01 X3.8024 Y48.5671
G01 X3.7894 Y48.4797
G01 X3.7866 Y48.4571
G01 X3.7849 Y48.4345
G01 X3.7806 Y48.3462
G01 X3.7801 Y48.3235
G01 X3.7806 Y48.3008
G01 X3.7856 Y48.2012
G01 X3.7866 Y48.1899
G01 X3.7894 Y48.1673
G01 X3.8024 Y48.0799
G01 X3.8063 Y48.0575
G01 X3.8112 Y48.0353
G01 X3.8327 Y47.9496
G01 X3.8388 Y47.9277
G01 X3.8459 Y47.9061
G01 X3.8757 Y47.8230
G01 X3.8838 Y47.8017
G01 X3.8931 Y47.7809
G01 X3.9308 Y47.7011
G01 X3.9410 Y47.6808
G01 X3.9523 Y47.6610
G01 X3.9977 Y47.5852
G01 X4.0098 Y47.5660
G01 X4.0229 Y47.5474
G01 X4.0755 Y47.4765
G01 X4.0895 Y47.4585
G01 X4.1044 Y47.4413
G01 X4.1637 Y47.3759
G01 X4.1794 Y47.3594
G01 X4.1875 Y47.3515
G01 X4.2613 Y47.2844
G01 X4.2785 Y47.2695
G01 X4.2965 Y47.2555
G01 X4.3674 Y47.2029
G01 X4.3860 Y47.1898
G01 X4.4052 Y47.1777
G01 X4.4810 Y47.1323
G01 X4.5008 Y47.1210
G01 X4.5211 Y47.1108
G01 X4.6113 Y47.0683
G01 X4.6323 Y47.0596
G01 X4.6490 Y47.0535
G01 X4.6217 Y47.0432
G01 X4.6009 Y47.0339
G01 X4.5109 Y46.9912
G01 X4.4908 Y46.9805
G01 X4.4810 Y46.9747
G01 X4.4052 Y46.9293
G01 X4.3860 Y46.9172
G01 X4.3674 Y46.9041
G01 X4.2965 Y46.8515
G01 X4.2785 Y46.8375
G01 X4.2613 Y46.8226
G01 X4.1959 Y46.7633
G01 X4.1794 Y46.7476
G01 X4.1637 Y46.7311
G01 X4.1044 Y46.6657
G01 X4.0895 Y46.6485
G01 X4.0755 Y46.6305
G01 X4.0229 Y46.5596
G01 X4.0163 Y46.5504
G01 X4.0036 Y46.5315
G01 X3.9523 Y46.4460
G01 X3.9410 Y46.4262
G01 X3.9308 Y46.4059
G01 X3.8883 Y46.3157
G01 X3.8796 Y46.2947
G01 X3.8757 Y46.2840
G01 X3.8459 Y46.2009
G01 X3.8388 Y46.1793
G01 X3.8327 Y46.1574
G01 X3.8112 Y46.0717
G01 X3.8063 Y46.0495
G01 X3.8024 Y46.0271
G01 X3.7894 Y45.9397
G01 X3.7866 Y45.9171
G01 X3.7849 Y45.8945
G01 X3.7806 Y45.8062
G01 X3.7801 Y45.7835
G01 X3.7806 Y45.7608
G01 X3.7849 Y45.6725
G01 X3.7866 Y45.6499
G01 X3.7894 Y45.6273
G01 X3.8024 Y45.5399
G01 X3.8042 Y45.5287
G01 X3.8086 Y45.5064
G01 X3.8327 Y45.4096
G01 X3.8388 Y45.3877
G01 X3.8459 Y45.3661
G01 X3.8796 Y45.2723
G01 X3.8883 Y45.2513
G01 X3.8931 Y45.2409
G01 X3.9308 Y45.1611
G01 X3.9410 Y45.1408
G01 X3.9523 Y45.1210
G01 X3.9977 Y45.0452
G01 X4.0098 Y45.0260
G01 X4.0229 Y45.0074
G01 X4.0755 Y44.9365
G01 X4.0895 Y44.9185
G01 X4.1044 Y44.9013
G01 X4.1637 Y44.8359
G01 X4.1794 Y44.8194
G01 X4.1875 Y44.8115
G01 X4.2613 Y44.7444
G01 X4.2785 Y44.7295
G01 X4.2965 Y44.7155
G01 X4.3674 Y44.6629
G01 X4.3860 Y44.6498
G01 X4.4052 Y44.6377
G01 X4.4810 Y44.5923
G01 X4.5008 Y44.5810
G01 X4.5211 Y44.5708
G01 X4.6113 Y44.5283
G01 X4.6323 Y44.5196
G01 X4.6490 Y44.5135
G01 X4.6217 Y44.5032
G01 X4.6009 Y44.4939
G01 X4.5109 Y44.4512
G01 X4.4908 Y44.4405
G01 X4.4810 Y44.4347
G01 X4.4052 Y44.3893
G01 X4.3860 Y44.3772
G01 X4.3674 Y44.3641
G01 X4.2965 Y44.3115
G01 X4.2785 Y44.2975
G01 X4.2613 Y44.2826
G01 X4.1959 Y44.2233
G01 X4.1794 Y44.2076
G01 X4.1637 Y44.1911
G01 X4.1044 Y44.1257
G01 X4.0895 Y44.1085
G01 X4.0755 Y44.0905
G01 X4.0229 Y44.0196
G01 X4.0098 Y44.0010
G01 X3.9977 Y43.9818
G01 X3.9523 Y43.9060
G01 X3.9410 Y43.8862
G01 X3.9308 Y43.8659
G01 X3.8931 Y43.7861
G01 X3.8838 Y43.7653
G01 X3.8757 Y43.7440
G01 X3.8459 Y43.6609
G01 X3.8388 Y43.6393
G01 X3.8327 Y43.6174
G01 X3.8112 Y43.5317
G01 X3.8063 Y43.5095
G01 X3.8024 Y43.4871
G01 X3.7894 Y43.3997
G01 X3.7879 Y43.3884
G01 X3.7856 Y43.3658
G01 X3.7806 Y43.2662
G01 X3.7801 Y43.2435
G01 X3.7806 Y43.2208
G01 X3.7849 Y43.1325
G01 X3.7866 Y43.1099
G01 X3.7894 Y43.0873
G01 X3.8024 Y42.9999
G01 X3.8063 Y42.9775
G01 X3.8112 Y42.9553
G01 X3.8327 Y42.8696
G01 X3.8388 Y42.8477
G01 X3.8459 Y42.8261
G01 X3.8757 Y42.7430
G01 X3.8838 Y42.7217
G01 X3.8931 Y42.7009
G01 X3.9308 Y42.6211
G01 X3.9410 Y42.6008
G01 X3.9523 Y42.5810
G01 X3.9977 Y42.5052
G01 X4.0036 Y42.4955
G01 X4.0163 Y42.4766
G01 X4.0755 Y42.3965
G01 X4.0895 Y42.3785
G01 X4.1044 Y42.3613
G01 X4.1637 Y42.2959
G01 X4.1794 Y42.2794
G01 X4.1959 Y42.2637
G01 X4.2613 Y42.2044
G01 X4.2698 Y42.1969
G01 X4.2874 Y42.1824
G01 X4.3674 Y42.1229
G01 X4.3860 Y42.1098
G01 X4.4052 Y42.0977
G01 X4.4908 Y42.0465
G01 X4.5109 Y42.0358
G01 X4.5211 Y42.0308
G01 X4.6009 Y41.9931
G01 X4.6217 Y41.9838
G01 X4.6490 Y41.9735
G01 X4.6217 Y41.9632
G01 X4.6009 Y41.9539
G01 X4.5109 Y41.9112
G01 X4.5008 Y41.9060
G01 X4.4810 Y41.8947
G01 X4.4052 Y41.8493
G01 X4.3860 Y41.8372
G01 X4.3674 Y41.8241
G01 X4.2965 Y41.7715
G01 X4.2785 Y41.7575
G01 X4.2613 Y41.7426
G01 X4.1959 Y41.6833
G01 X4.1794 Y41.6676
G01 X4.1637 Y41.6511
G01 X4.1044 Y41.5857
G01 X4.0895 Y41.5685
G01 X4.0755 Y41.5505
G01 X4.0229 Y41.4796
G01 X4.0098 Y41.4610
G01 X3.9977 Y41.4418
G01 X3.9523 Y41.3660
G01 X3.9410 Y41.3462
G01 X3.9308 Y41.3259
G01 X3.8931 Y41.2461
G01 X3.8838 Y41.2253
G01 X3.8757 Y41.2040
G01 X3.8459 Y41.1209
G01 X3.8388 Y41.0993
G01 X3.8327 Y41.0774
G01 X3.8112 Y40.9917
G01 X3.8063 Y40.9695
G01 X3.8024 Y40.9471
G01 X3.7894 Y40.8597
G01 X3.7879 Y40.8484
G01 X3.7856 Y40.8258
G01 X3.7806 Y40.7262
G01 X3.7801 Y40.7035
G01 X3.7806 Y40.6808
G01 X3.7849 Y40.5925
G01 X3.7866 Y40.5699
G01 X3.7894 Y40.5473
G01 X3.8024 Y40.4599
G01 X3.8063 Y40.4375
G01 X3.8112 Y40.4153
G01 X3.8327 Y40.3296
G01 X3.8388 Y40.3077
G01 X3.8459 Y40.2861
G01 X3.8757 Y40.2030
G01 X3.8838 Y40.1817
G01 X3.8931 Y40.1609
G01 X3.9308 Y40.0811
G01 X3.9410 Y40.0608
G01 X3.9523 Y40.0410
G01 X3.9977 Y39.9652
G01 X4.0036 Y39.9555
G01 X4.0163 Y39.9366
G01 X4.0755 Y39.8565
G01 X4.0895 Y39.8385
G01 X4.1044 Y39.8213
G01 X4.1637 Y39.7559
G01 X4.1794 Y39.7394
G01 X4.1959 Y39.7237
G01 X4.2613 Y39.6644
G01 X4.2698 Y39.6569
G01 X4.2874 Y39.6424
G01 X4.3674 Y39.5829
G01 X4.3860 Y39.5698
G01 X4.4052 Y39.5577
G01 X4.4908 Y39.5065
G01 X4.5109 Y39.4958
G01 X4.5211 Y39.4908
G01 X4.6009 Y39.4531
G01 X4.6217 Y39.4438
G01 X4.6490 Y39.4335
G01 X4.6217 Y39.4232
G01 X4.6009 Y39.4139
G01 X4.5109 Y39.3712
G01 X4.4908 Y39.3605
G01 X4.4810 Y39.3547
G01 X4.4052 Y39.3093
G01 X4.3860 Y39.2972
G01 X4.3674 Y39.2841
G01 X4.2965 Y39.2315
G01 X4.2785 Y39.2175
G01 X4.2613 Y39.2026
G01 X4.1959 Y39.1433
G01 X4.1794 Y39.1276
G01 X4.1637 Y39.1111
G01 X4.1044 Y39.0457
G01 X4.0895 Y39.0285
G01 X4.0755 Y39.0105
G01 X4.0229 Y38.9396
G01 X4.0098 Y38.9210
G01 X3.9977 Y38.9018
G01 X3.9523 Y38.8260
G01 X3.9410 Y38.8062
G01 X3.9308 Y38.7859
G01 X3.8931 Y38.7061
G01 X3.8838 Y38.6853
G01 X3.8757 Y38.6640
G01 X3.8459 Y38.5809
G01 X3.8388 Y38.5593
G01 X3.8327 Y38.5374
G01 X3.8112 Y38.4517
G01 X3.8063 Y38.4295
G01 X3.8024 Y38.4071
G01 X3.7894 Y38.3197
G01 X3.7866 Y38.2971
G01 X3.7849 Y38.2745
G01 X3.7806 Y38.1862
G01 X3.7802 Y38.1749
G01 X3.7802 Y38.1521
G01 X3.7849 Y38.0525
G01 X3.7866 Y38.0299
G01 X3.7894 Y38.0073
G01 X3.8024 Y37.9199
G01 X3.8063 Y37.8975
G01 X3.8112 Y37.8753
G01 X3.8327 Y37.7896
G01 X3.8388 Y37.7677
G01 X3.8459 Y37.7461
G01 X3.8757 Y37.6630
G01 X3.8838 Y37.6417
G01 X3.8931 Y37.6209
G01 X3.9308 Y37.5411
G01 X3.9410 Y37.5208
G01 X3.9523 Y37.5010
G01 X3.9977 Y37.4252
G01 X4.0036 Y37.4155
G01 X4.0163 Y37.3966
G01 X4.0755 Y37.3165
G01 X4.0895 Y37.2985
G01 X4.1044 Y37.2813
G01 X4.1637 Y37.2159
G01 X4.1794 Y37.1994
G01 X4.1959 Y37.1837
G01 X4.2613 Y37.1244
G01 X4.2698 Y37.1169
G01 X4.2874 Y37.1024
G01 X4.3674 Y37.0429
G01 X4.3860 Y37.0298
G01 X4.4052 Y37.0177
G01 X4.4908 Y36.9665
G01 X4.5109 Y36.9558
G01 X4.5211 Y36.9508
G01 X4.6009 Y36.9131
G01 X4.6217 Y36.9038
G01 X4.6490 Y36.8935
G01 X4.6217 Y36.8832
G01 X4.6009 Y36.8739
G01 X4.5109 Y36.8312
G01 X4.5008 Y36.8260
G01 X4.4810 Y36.8147
G01 X4.4052 Y36.7693
G01 X4.3860 Y36.7572
G01 X4.3674 Y36.7441
G01 X4.2965 Y36.6915
G01 X4.2785 Y36.6775
G01 X4.2613 Y36.6626
G01 X4.1959 Y36.6033
G01 X4.1794 Y36.5876
G01 X4.1637 Y36.5711
G01 X4.1044 Y36.5057
G01 X4.0895 Y36.4885
G01 X4.0755 Y36.4705
G01 X4.0229 Y36.3996
G01 X4.0098 Y36.3810
G01 X3.9977 Y36.3618
G01 X3.9523 Y36.2860
G01 X3.9410 Y36.2662
G01 X3.9308 Y36.2459
G01 X3.8931 Y36.1661
G01 X3.8838 Y36.1453
G01 X3.8757 Y36.1240
G01 X3.8459 Y36.0409
G01 X3.8388 Y36.0193
G01 X3.8327 Y35.9974
G01 X3.8112 Y35.9117
G01 X3.8063 Y35.8895
G01 X3.8024 Y35.8671
G01 X3.7894 Y35.7797
G01 X3.7866 Y35.7571
G01 X3.7849 Y35.7345
G01 X3.7806 Y35.6462
G01 X3.7802 Y35.6349
G01 X3.7802 Y35.6121
G01 X3.7849 Y35.5125
G01 X3.7866 Y35.4899
G01 X3.7894 Y35.4673
G01 X3.8024 Y35.3799
G01 X3.8063 Y35.3575
G01 X3.8112 Y35.3353
G01 X3.8327 Y35.2496
G01 X3.8388 Y35.2277
G01 X3.8459 Y35.2061
G01 X3.8757 Y35.1230
G01 X3.8838 Y35.1017
G01 X3.8931 Y35.0809
G01 X3.9308 Y35.0011
G01 X3.9410 Y34.9808
G01 X3.9523 Y34.9610
G01 X3.9977 Y34.8852
G01 X4.0036 Y34.8755
G01 X4.0163 Y34.8566
G01 X4.0755 Y34.7765
G01 X4.0895 Y34.7585
G01 X4.1044 Y34.7413
G01 X4.1637 Y34.6759
G01 X4.1794 Y34.6594
G01 X4.1959 Y34.6437
G01 X4.2613 Y34.5844
G01 X4.2698 Y34.5769
G01 X4.2874 Y34.5624
G01 X4.3674 Y34.5029
G01 X4.3860 Y34.4898
G01 X4.4052 Y34.4777
G01 X4.4908 Y34.4265
G01 X4.5109 Y34.4158
G01 X4.5211 Y34.4108
G01 X4.6009 Y34.3731
G01 X4.6217 Y34.3638
G01 X4.6490 Y34.3535
G01 X4.6217 Y34.3432
G01 X4.6009 Y34.3339
G01 X4.5109 Y34.2912
G01 X4.4908 Y34.2805
G01 X4.4810 Y34.2747
G01 X4.4052 Y34.2293
G01 X4.3860 Y34.2172
G01 X4.3674 Y34.2041
G01 X4.2965 Y34.1515
G01 X4.2785 Y34.1375
G01 X4.2613 Y34.1226
G01 X4.1959 Y34.0633
G01 X4.1794 Y34.0476
G01 X4.1637 Y34.0311
G01 X4.1044 Y33.9657
G01 X4.0895 Y33.9485
G01 X4.0755 Y33.9305
G01 X4.0229 Y33.8596
G01 X4.0098 Y33.8410
G01 X3.9977 Y33.8218
G01 X3.9523 Y33.7460
G01 X3.9410 Y33.7262
G01 X3.9308 Y33.7059
G01 X3.8931 Y33.6261
G01 X3.8838 Y33.6053
G01 X3.8757 Y33.5840
G01 X3.8459 Y33.5009
G01 X3.8388 Y33.4793
G01 X3.8327 Y33.4574
G01 X3.8112 Y33.3717
G01 X3.8063 Y33.3495
G01 X3.8024 Y33.3271
G01 X3.7894 Y33.2397
G01 X3.7866 Y33.2171
G01 X3.7849 Y33.1945
G01 X3.7806 Y33.1062
G01 X3.7802 Y33.0949
G01 X3.7802 Y33.0721
G01 X3.7849 Y32.9725
G01 X3.7866 Y32.9499
G01 X3.7894 Y32.9273
G01 X3.8024 Y32.8399
G01 X3.8063 Y32.8175
G01 X3.8112 Y32.7953
G01 X3.8327 Y32.7096
G01 X3.8388 Y32.6877
G01 X3.8459 Y32.6661
G01 X3.8757 Y32.5830
G01 X3.8838 Y32.5617
G01 X3.8931 Y32.5409
G01 X3.9308 Y32.4611
G01 X3.9410 Y32.4408
G01 X3.9523 Y32.4210
G01 X3.9977 Y32.3452
G01 X4.0036 Y32.3355
G01 X4.0163 Y32.3166
G01 X4.0755 Y32.2365
G01 X4.0895 Y32.2185
G01 X4.1044 Y32.2013
G01 X4.1637 Y32.1359
G01 X4.1794 Y32.1194
G01 X4.1959 Y32.1037
G01 X4.2613 Y32.0444
G01 X4.2698 Y32.0369
G01 X4.2874 Y32.0224
G01 X4.3674 Y31.9629
G01 X4.3860 Y31.9498
G01 X4.4052 Y31.9377
G01 X4.4908 Y31.8865
G01 X4.5109 Y31.8758
G01 X4.5211 Y31.8708
G01 X4.6009 Y31.8331
G01 X4.6217 Y31.8238
G01 X4.6490 Y31.8135
G01 X4.6217 Y31.8032
G01 X4.6009 Y31.7939
G01 X4.5109 Y31.7512
G01 X4.5008 Y31.7460
G01 X4.4810 Y31.7347
G01 X4.4052 Y31.6893
G01 X4.3860 Y31.6772
G01 X4.3674 Y31.6641
G01 X4.2965 Y31.6115
G01 X4.2785 Y31.5975
G01 X4.2613 Y31.5826
G01 X4.1959 Y31.5233
G01 X4.1794 Y31.5076
G01 X4.1637 Y31.4911
G01 X4.1044 Y31.4257
G01 X4.0895 Y31.4085
G01 X4.0755 Y31.3905
G01 X4.0229 Y31.3196
G01 X4.0098 Y31.3010
G01 X4.0036 Y31.2915
G01 X3.9523 Y31.2060
G01 X3.9410 Y31.1862
G01 X3.9308 Y31.1659
G01 X3.8883 Y31.0757
G01 X3.8838 Y31.0653
G01 X3.8757 Y31.0440
G01 X3.8459 Y30.9609
G01 X3.8388 Y30.9393
G01 X3.8327 Y30.9174
G01 X3.8112 Y30.8317
G01 X3.8063 Y30.8095
G01 X3.8024 Y30.7871
G01 X3.7894 Y30.6997
G01 X3.7866 Y30.6771
G01 X3.7849 Y30.6545
G01 X3.7806 Y30.5662
G01 X3.7801 Y30.5435
G01 X3.7806 Y30.5208
G01 X3.7856 Y30.4212
G01 X3.7866 Y30.4099
G01 X3.7894 Y30.3873
G01 X3.8024 Y30.2999
G01 X3.8063 Y30.2775
G01 X3.8112 Y30.2553
G01 X3.8327 Y30.1696
G01 X3.8388 Y30.1477
G01 X3.8459 Y30.1261
G01 X3.8757 Y30.0430
G01 X3.8838 Y30.0217
G01 X3.8931 Y30.0009
G01 X3.9308 Y29.9211
G01 X3.9410 Y29.9008
G01 X3.9523 Y29.8810
G01 X3.9977 Y29.8052
G01 X4.0098 Y29.7860
G01 X4.0229 Y29.7674
G01 X4.0755 Y29.6965
G01 X4.0895 Y29.6785
G01 X4.1044 Y29.6613
G01 X4.1637 Y29.5959
G01 X4.1794 Y29.5794
G01 X4.1959 Y29.5637
G01 X4.2613 Y29.5044
G01 X4.2785 Y29.4895
G01 X4.2965 Y29.4755
G01 X4.3674 Y29.4229
G01 X4.3860 Y29.4098
G01 X4.4052 Y29.3977
G01 X4.4908 Y29.3465
G01 X4.5109 Y29.3358
G01 X4.5211 Y29.3308
G01 X4.6009 Y29.2931
G01 X4.6217 Y29.2838
G01 X4.6430 Y29.2757
G01 X4.7261 Y29.2459
G01 X4.7477 Y29.2388
G01 X4.7696 Y29.2327
G01 X4.8553 Y29.2112
G01 X4.8775 Y29.2063
G01 X4.8999 Y29.2024
G01 X4.9873 Y29.1894
G01 X5.0099 Y29.1866
G01 X5.0325 Y29.1849
G01 X5.1208 Y29.1806
G01 X5.1435 Y29.1801
G01 X5.1662 Y29.1806
G01 X5.2545 Y29.1849
G01 X5.2771 Y29.1866
G01 X5.2997 Y29.1894
G01 X5.3871 Y29.2024
G01 X5.4095 Y29.2063
G01 X5.4317 Y29.2112
G01 X5.5174 Y29.2327
G01 X5.5393 Y29.2388
G01 X5.5609 Y29.2459
G01 X5.6440 Y29.2757
G01 X5.6653 Y29.2838
G01 X5.6861 Y29.2931
G01 X5.7659 Y29.3308
G01 X5.7862 Y29.3410
G01 X5.8060 Y29.3523
G01 X5.8818 Y29.3977
G01 X5.9010 Y29.4098
G01 X5.9196 Y29.4229
G01 X5.9905 Y29.4755
G01 X6.0085 Y29.4895
G01 X6.0257 Y29.5044
G01 X6.0911 Y29.5637
G01 X6.1080 Y29.5799
G00 Z2.0000
G00 X5.9750 Y29.8778
G01 F60.00
G01 Z-0.2001
G01 F320.00
G01 X6.8520 Y29.8778
G01 X6.8598 Y29.8675
G01 X6.8651 Y29.8614
G01 X6.9300 Y29.7900
G01 X7.0075 Y29.7198
G01 X7.0915 Y29.6575
G01 X7.1741 Y29.6078
G01 X7.1885 Y29.6001
G01 X7.2757 Y29.5591
G01 X7.3665 Y29.5264
G01 X7.3820 Y29.5217
G01 X7.4677 Y29.5002
G01 X7.4836 Y29.4970
G01 X7.5791 Y29.4831
G01 X7.6835 Y29.4780
G01 X7.7879 Y29.4831
G01 X7.8834 Y29.4970
G01 X7.8993 Y29.5002
G01 X7.9928 Y29.5238
G01 X8.0837 Y29.5561
G01 X8.0987 Y29.5624
G01 X8.1785 Y29.6001
G01 X8.1929 Y29.6078
G01 X8.2755 Y29.6575
G01 X8.3595 Y29.7198
G01 X8.4370 Y29.7900
G01 X8.5019 Y29.8614
G01 X8.5072 Y29.8675
G01 X8.5150 Y29.8778
G01 X14.4720 Y29.8778
G01 X14.4798 Y29.8675
G01 X14.4851 Y29.8614
G01 X14.5500 Y29.7900
G01 X14.6275 Y29.7198
G01 X14.7115 Y29.6575
G01 X14.7941 Y29.6078
G01 X14.8085 Y29.6001
G01 X14.8957 Y29.5591
G01 X14.9865 Y29.5264
G01 X15.0020 Y29.5217
G01 X15.0877 Y29.5002
G01 X15.1036 Y29.4970
G01 X15.1991 Y29.4831
G01 X15.3035 Y29.4780
G01 X15.4079 Y29.4831
G01 X15.5034 Y29.4970
G01 X15.5193 Y29.5002
G01 X15.6050 Y29.5217
G01 X15.6205 Y29.5264
G01 X15.7113 Y29.5591
G01 X15.7985 Y29.6001
G01 X15.8129 Y29.6078
G01 X15.8955 Y29.6575
G01 X15.9795 Y29.7198
G01 X16.0570 Y29.7900
G01 X16.1219 Y29.8614
G01 X16.1272 Y29.8675
G01 X16.1350 Y29.8778
G01 X17.0120 Y29.8778
G01 X17.0198 Y29.8675
G01 X17.0251 Y29.8614
G01 X17.0900 Y29.7900
G01 X17.1614 Y29.7251
G01 X17.1739 Y29.7148
G01 X17.2515 Y29.6575
G01 X17.3341 Y29.6078
G01 X17.3485 Y29.6001
G01 X17.4357 Y29.5591
G01 X17.5342 Y29.5238
G01 X17.6277 Y29.5002
G01 X17.6436 Y29.4970
G01 X17.7310 Y29.4841
G01 X17.7472 Y29.4825
G01 X17.8435 Y29.4780
G01 X17.9398 Y29.4825
G01 X17.9560 Y29.4841
G01 X18.0514 Y29.4984
G01 X18.1528 Y29.5238
G01 X18.2513 Y29.5591
G01 X18.3458 Y29.6038
G01 X18.4355 Y29.6575
G01 X18.5195 Y29.7198
G01 X18.5970 Y29.7900
G01 X18.6672 Y29.8675
G01 X18.7295 Y29.9515
G01 X18.7832 Y30.0412
G01 X18.8279 Y30.1357
G01 X18.8632 Y30.2342
G01 X18.8886 Y30.3356
G01 X18.9039 Y30.4391
G01 X18.9090 Y30.5435
G01 X18.9045 Y30.6398
G01 X18.9029 Y30.6560
G01 X18.8886 Y30.7514
G01 X18.8632 Y30.8528
G01 X18.8279 Y30.9513
G01 X18.7869 Y31.0385
G01 X18.7792 Y31.0529
G01 X18.7295 Y31.1355
G01 X18.6722 Y31.2131
G01 X18.6619 Y31.2256
G01 X18.6026 Y31.2911
G01 X18.5911 Y31.3026
G01 X18.5195 Y31.3672
G01 X18.4355 Y31.4295
G01 X18.3458 Y31.4832
G01 X18.2513 Y31.5279
G01 X18.1528 Y31.5632
G01 X18.0514 Y31.5886
G01 X17.9479 Y31.6039
G01 X17.8516 Y31.6088
G01 X17.8354 Y31.6088
G01 X17.7391 Y31.6039
G01 X17.6436 Y31.5900
G01 X17.6277 Y31.5868
G01 X17.5420 Y31.5653
G01 X17.5265 Y31.5606
G01 X17.4357 Y31.5279
G01 X17.3485 Y31.4869
G01 X17.3341 Y31.4792
G01 X17.2515 Y31.4295
G01 X17.1675 Y31.3672
G01 X17.0900 Y31.2970
G01 X17.0251 Y31.2256
G01 X17.0198 Y31.2195
G01 X17.0120 Y31.2092
G01 X16.1350 Y31.2092
G01 X16.1272 Y31.2195
G01 X16.1219 Y31.2256
G01 X16.0570 Y31.2970
G01 X15.9795 Y31.3672
G01 X15.8955 Y31.4295
G01 X15.8129 Y31.4792
G01 X15.7985 Y31.4869
G01 X15.7113 Y31.5279
G01 X15.6205 Y31.5606
G01 X15.6050 Y31.5653
G01 X15.5193 Y31.5868
G01 X15.5034 Y31.5900
G01 X15.4079 Y31.6039
G01 X15.3035 Y31.6090
G01 X15.1991 Y31.6039
G01 X15.1036 Y31.5900
G01 X15.0877 Y31.5868
G01 X15.0020 Y31.5653
G01 X14.9865 Y31.5606
G01 X14.8957 Y31.5279
G01 X14.8085 Y31.4869
G01 X14.7941 Y31.4792
G01 X14.7115 Y31.4295
G01 X14.6275 Y31.3672
G01 X14.5500 Y31.2970
G01 X14.4851 Y31.2256
G01 X14.4798 Y31.2195
G01 X14.4720 Y31.2092
G01 X8.5150 Y31.2092
G01 X8.5072 Y31.2195
G01 X8.5019 Y31.2256
G01 X8.4370 Y31.2970
G01 X8.3595 Y31.3672
G01 X8.2755 Y31.4295
G01 X8.1929 Y31.4792
G01 X8.1785 Y31.4869
G01 X8.0913 Y31.5279
G01 X8.0005 Y31.5606
G01 X7.9850 Y31.5653
G01 X7.8993 Y31.5868
G01 X7.8834 Y31.5900
G01 X7.7879 Y31.6039
G01 X7.6835 Y31.6090
G01 X7.5791 Y31.6039
G01 X7.4836 Y31.5900
G01 X7.4677 Y31.5868
G01 X7.3742 Y31.5632
G01 X7.2833 Y31.5309
G01 X7.2683 Y31.5246
G01 X7.1885 Y31.4869
G01 X7.1741 Y31.4792
G01 X7.0915 Y31.4295
G01 X7.0075 Y31.3672
G01 X6.9300 Y31.2970
G01 X6.8651 Y31.2256
G01 X6.8598 Y31.2195
G01 X6.8520 Y31.2092
G01 X5.9750 Y31.2092
G01 X5.9672 Y31.2195
G01 X5.9619 Y31.2256
G01 X5.8970 Y31.2970
G01 X5.8195 Y31.3672
G01 X5.7355 Y31.4295
G01 X5.6529 Y31.4792
G01 X5.6385 Y31.4869
G01 X5.5513 Y31.5279
G01 X5.4605 Y31.5606
G01 X5.4450 Y31.5653
G01 X5.3593 Y31.5868
G01 X5.3434 Y31.5900
G01 X5.2479 Y31.6039
G01 X5.1435 Y31.6090
G01 X5.0391 Y31.6039
G01 X4.9436 Y31.5900
G01 X4.9277 Y31.5868
G01 X4.8342 Y31.5632
G01 X4.7433 Y31.5309
G01 X4.7283 Y31.5246
G01 X4.6485 Y31.4869
G01 X4.6341 Y31.4792
G01 X4.5515 Y31.4295
G01 X4.4675 Y31.3672
G01 X4.3900 Y31.2970
G01 X4.3198 Y31.2195
G01 X4.2575 Y31.1355
G01 X4.2038 Y31.0458
G01 X4.1591 Y30.9513
G01 X4.1238 Y30.8528
G01 X4.0984 Y30.7514
G01 X4.0831 Y30.6479
G01 X4.0780 Y30.5435
G01 X4.0831 Y30.4391
G01 X4.0984 Y30.3356
G01 X4.1238 Y30.2342
G01 X4.1591 Y30.1357
G01 X4.2038 Y30.0412
G01 X4.2575 Y29.9515
G01 X4.3198 Y29.8675
G01 X4.3900 Y29.7900
G01 X4.4675 Y29.7198
G01 X4.5515 Y29.6575
G01 X4.6412 Y29.6038
G01 X4.7357 Y29.5591
G01 X4.8342 Y29.5238
G01 X4.9356 Y29.4984
G01 X5.0391 Y29.4831
G01 X5.1435 Y29.4780
G01 X5.2479 Y29.4831
G01 X5.3514 Y29.4984
G01 X5.4528 Y29.5238
G01 X5.5513 Y29.5591
G01 X5.6458 Y29.6038
G01 X5.7355 Y29.6575
G01 X5.8195 Y29.7198
G01 X5.8970 Y29.7900
G01 X5.9619 Y29.8614
G01 X5.9672 Y29.8675
G01 X5.9750 Y29.8778
G00 Z2.0000
G00 X6.2142 Y31.8135
G01 F60.00
G01 Z-0.2001
G01 F320.00
G01 X6.2238 Y31.8050
G01 X6.6032 Y31.8050
G01 X6.6128 Y31.8135
G01 X6.6032 Y31.8220
G01 X6.2238 Y31.8220
G01 X6.2142 Y31.8135
G00 Z2.0000
G00 X5.6380 Y31.8135
G01 F60.00
G01 Z-0.2001
G01 F320.00
G01 X5.6547 Y31.8074
G01 X5.6757 Y31.7987
G01 X5.7761 Y31.7512
G01 X5.7962 Y31.7405
G01 X5.8060 Y31.7347
G01 X5.8818 Y31.6893
G01 X5.9010 Y31.6772
G01 X5.9196 Y31.6641
G01 X5.9905 Y31.6115
G01 X6.0085 Y31.5975
G01 X6.0257 Y31.5826
G01 X6.0911 Y31.5233
G01 X6.1080 Y31.5071
G01 X6.7190 Y31.5071
G01 X6.7359 Y31.5233
G01 X6.8013 Y31.5826
G01 X6.8185 Y31.5975
G01 X6.8365 Y31.6115
G01 X6.9074 Y31.6641
G01 X6.9260 Y31.6772
G01 X6.9452 Y31.6893
G01 X7.0210 Y31.7347
G01 X7.0408 Y31.7460
G01 X7.0509 Y31.7512
G01 X7.1513 Y31.7987
G01 X7.1723 Y31.8074
G01 X7.1890 Y31.8135
G01 X7.1723 Y31.8196
G01 X7.1513 Y31.8283
G01 X7.0509 Y31.8758
G01 X7.0308 Y31.8865
G01 X7.0210 Y31.8923
G01 X6.9452 Y31.9377
G01 X6.9260 Y31.9498
G01 X6.9074 Y31.9629
G01 X6.8365 Y32.0155
G01 X6.8185 Y32.0295
G01 X6.8013 Y32.0444
G01 X6.7359 Y32.1037
G01 X6.7190 Y32.1199
G01 X6.1080 Y32.1199
G01 X6.0911 Y32.1037
G01 X6.0257 Y32.0444
G01 X6.0085 Y32.0295
G01 X5.9905 Y32.0155
G01 X5.9196 Y31.9629
G01 X5.9010 Y31.9498
G01 X5.8818 Y31.9377
G01 X5.8060 Y31.8923
G01 X5.7862 Y31.8810
G01 X5.7761 Y31.8758
G01 X5.6757 Y31.8283
G01 X5.6547 Y31.8196
G01 X5.6380 Y31.8135
G00 Z2.0000
G00 X5.9750 Y33.7492
G01 F60.00
G01 Z-0.2001
G01 F320.00
G01 X5.9672 Y33.7595
G01 X5.9619 Y33.7656
G01 X5.8970 Y33.8370
G01 X5.8195 Y33.9072
G01 X5.7355 Y33.9695
G01 X5.6458 Y34.0232
G01 X5.5513 Y34.0679
G01 X5.4528 Y34.1032
G01 X5.3514 Y34.1286
G01 X5.2479 Y34.1439
G01 X5.1435 Y34.1490
G01 X5.0391 Y34.1439
G01 X4.9356 Y34.1286
G01 X4.8342 Y34.1032
G01 X4.7357 Y34.0679
G01 X4.6412 Y34.0232
G01 X4.5515 Y33.9695
G01 X4.4675 Y33.9072
G01 X4.3900 Y33.8370
G01 X4.3198 Y33.7595
G01 X4.2575 Y33.6755
G01 X4.2038 Y33.5858
G01 X4.1591 Y33.4913
G01 X4.1238 Y33.3928
G01 X4.0984 Y33.2914
G01 X4.0831 Y33.1879
G01 X4.0780 Y33.0835
G01 X4.0831 Y32.9791
G01 X4.0984 Y32.8756
G01 X4.1238 Y32.7742
G01 X4.1591 Y32.6757
G01 X4.2038 Y32.5812
G01 X4.2575 Y32.4915
G01 X4.3198 Y32.4075
G01 X4.3900 Y32.3300
G01 X4.4614 Y32.2651
G01 X4.4739 Y32.2548
G01 X4.5515 Y32.1975
G01 X4.6341 Y32.1478
G01 X4.6485 Y32.1401
G01 X4.7283 Y32.1024
G01 X4.7433 Y32.0961
G01 X4.8342 Y32.0638
G01 X4.9356 Y32.0384
G01 X5.0391 Y32.0231
G01 X5.1435 Y32.0180
G01 X5.2479 Y32.0231
G01 X5.3434 Y32.0370
G01 X5.3593 Y32.0402
G01 X5.4528 Y32.0638
G01 X5.5437 Y32.0961
G01 X5.5587 Y32.1024
G01 X5.6385 Y32.1401
G01 X5.6529 Y32.1478
G01 X5.7355 Y32.1975
G01 X5.8195 Y32.2598
G01 X5.8970 Y32.3300
G01 X5.9619 Y32.4014
G01 X5.9672 Y32.4075
G01 X5.9750 Y32.4178
G01 X6.8520 Y32.4178
G01 X6.8598 Y32.4075
G01 X6.8651 Y32.4014
G01 X6.9300 Y32.3300
G01 X7.0075 Y32.2598
G01 X7.0915 Y32.1975
G01 X7.1741 Y32.1478
G01 X7.1885 Y32.1401
G01 X7.2757 Y32.0991
G01 X7.3665 Y32.0664
G01 X7.3820 Y32.0617
G01 X7.4677 Y32.0402
G01 X7.4836 Y32.0370
G01 X7.5791 Y32.0231
G01 X7.6835 Y32.0180
G01 X7.7879 Y32.0231
G01 X7.8834 Y32.0370
G01 X7.8993 Y32.0402
G01 X7.9928 Y32.0638
G01 X8.0837 Y32.0961
G01 X8.0987 Y32.1024
G01 X8.1785 Y32.1401
G01 X8.1929 Y32.1478
G01 X8.2755 Y32.1975
G01 X8.3595 Y32.2598
G01 X8.4370 Y32.3300
G01 X8.5019 Y32.4014
G01 X8.5072 Y32.4075
G01 X8.5150 Y32.4178
G01 X14.4720 Y32.4178
G01 X14.4798 Y32.4075
G01 X14.4851 Y32.4014
G01 X14.5500 Y32.3300
G01 X14.6275 Y32.2598
G01 X14.7115 Y32.1975
G01 X14.7941 Y32.1478
G01 X14.8085 Y32.1401
G01 X14.8957 Y32.0991
G01 X14.9865 Y32.0664
G01 X15.0020 Y32.0617
G01 X15.0877 Y32.0402
G01 X15.1036 Y32.0370
G01 X15.1991 Y32.0231
G01 X15.3035 Y32.0180
G01 X15.4079 Y32.0231
G01 X15.5034 Y32.0370
G01 X15.5193 Y32.0402
G01 X15.6050 Y32.0617
G01 X15.6205 Y32.0664
G01 X15.7113 Y32.0991
G01 X15.7985 Y32.1401
G01 X15.8129 Y32.1478
G01 X15.8955 Y32.1975
G01 X15.9795 Y32.2598
G01 X16.0570 Y32.3300
G01 X16.1219 Y32.4014
G01 X16.1272 Y32.4075
G01 X16.1350 Y32.4178
G01 X17.0120 Y32.4178
G01 X17.0198 Y32.4075
G01 X17.0251 Y32.4014
G01 X17.0900 Y32.3300
G01 X17.1675 Y32.2598
G01 X17.2515 Y32.1975
G01 X17.3341 Y32.1478
G01 X17.3485 Y32.1401
G01 X17.4357 Y32.0991
G01 X17.5265 Y32.0664
G01 X17.5420 Y32.0617
G01 X17.6277 Y32.0402
G01 X17.6436 Y32.0370
G01 X17.7391 Y32.0231
G01 X17.8354 Y32.0182
G01 X17.8516 Y32.0182
G01 X17.9479 Y32.0231
G01 X18.0514 Y32.0384
G01 X18.1528 Y32.0638
G01 X18.2513 Y32.0991
G01 X18.3458 Y32.1438
G01 X18.4355 Y32.1975
G01 X18.5195 Y32.2598
G01 X18.5911 Y32.3244
G01 X18.6026 Y32.3359
G01 X18.6672 Y32.4075
G01 X18.7248 Y32.4849
G01 X18.7338 Y32.4984
G01 X18.7792 Y32.5741
G01 X18.7869 Y32.5885
G01 X18.8279 Y32.6757
G01 X18.8632 Y32.7742
G01 X18.8886 Y32.8756
G01 X18.9029 Y32.9710
G01 X18.9045 Y32.9872
G01 X18.9090 Y33.0835
G01 X18.9039 Y33.1879
G01 X18.8886 Y33.2914
G01 X18.8632 Y33.3928
G01 X18.8279 Y33.4913
G01 X18.7832 Y33.5858
G01 X18.7295 Y33.6755
G01 X18.6672 Y33.7595
G01 X18.5970 Y33.8370
G01 X18.5195 Y33.9072
G01 X18.4355 Y33.9695
G01 X18.3458 Y34.0232
G01 X18.2513 Y34.0679
G01 X18.1528 Y34.1032
G01 X18.0514 Y34.1286
G01 X17.9560 Y34.1429
G01 X17.9398 Y34.1445
G01 X17.8516 Y34.1488
G01 X17.8354 Y34.1488
G01 X17.7391 Y34.1439
G01 X17.6436 Y34.1300
G01 X17.6277 Y34.1268
G01 X17.5342 Y34.1032
G01 X17.4357 Y34.0679
G01 X17.3485 Y34.0269
G01 X17.3341 Y34.0192
G01 X17.2515 Y33.9695
G01 X17.1739 Y33.9122
G01 X17.1614 Y33.9019
G01 X17.0900 Y33.8370
G01 X17.0251 Y33.7656
G01 X17.0198 Y33.7595
G01 X17.0120 Y33.7492
G01 X16.1350 Y33.7492
G01 X16.1272 Y33.7595
G01 X16.1219 Y33.7656
G01 X16.0570 Y33.8370
G01 X15.9795 Y33.9072
G01 X15.8955 Y33.9695
G01 X15.8129 Y34.0192
G01 X15.7985 Y34.0269
G01 X15.7113 Y34.0679
G01 X15.6205 Y34.1006
G01 X15.6050 Y34.1053
G01 X15.5193 Y34.1268
G01 X15.5034 Y34.1300
G01 X15.4079 Y34.1439
G01 X15.3035 Y34.1490
G01 X15.1991 Y34.1439
G01 X15.1036 Y34.1300
G01 X15.0877 Y34.1268
G01 X15.0020 Y34.1053
G01 X14.9865 Y34.1006
G01 X14.8957 Y34.0679
G01 X14.8085 Y34.0269
G01 X14.7941 Y34.0192
G01 X14.7115 Y33.9695
G01 X14.6275 Y33.9072
G01 X14.5500 Y33.8370
G01 X14.4851 Y33.7656
G01 X14.4798 Y33.7595
G01 X14.4720 Y33.7492
G01 X8.5150 Y33.7492
G01 X8.5072 Y33.7595
G01 X8.5019 Y33.7656
G01 X8.4370 Y33.8370
G01 X8.3595 Y33.9072
G01 X8.2755 Y33.9695
G01 X8.1929 Y34.0192
G01 X8.1785 Y34.0269
G01 X8.0913 Y34.0679
G01 X8.0005 Y34.1006
G01 X7.9850 Y34.1053
G01 X7.8993 Y34.1268
G01 X7.8834 Y34.1300
G01 X7.7879 Y34.1439
G01 X7.6835 Y34.1490
G01 X7.5791 Y34.1439
G01 X7.4836 Y34.1300
G01 X7.4677 Y34.1268
G01 X7.3742 Y34.1032
G01 X7.2833 Y34.0709
G01 X7.2683 Y34.0646
G01 X7.1885 Y34.0269
G01 X7.1741 Y34.0192
G01 X7.0915 Y33.9695
G01 X7.0075 Y33.9072
G01 X6.9300 Y33.8370
G01 X6.8651 Y33.7656
G01 X6.8598 Y33.7595
G01 X6.8520 Y33.7492
G01 X5.9750 Y33.7492
G00 Z2.0000
G00 X6.1080 Y34.0471
G01 F60.00
G01 Z-0.2001
G01 F320.00
G01 X6.7190 Y34.0471
G01 X6.7359 Y34.0633
G01 X6.8013 Y34.1226
G01 X6.8185 Y34.1375
G01 X6.8365 Y34.1515
G01 X6.9074 Y34.2041
G01 X6.9260 Y34.2172
G01 X6.9452 Y34.2293
G01 X7.0210 Y34.2747
G01 X7.0408 Y34.2860
G01 X7.0509 Y34.2912
G01 X7.1513 Y34.3387
G01 X7.1723 Y34.3474
G01 X7.1890 Y34.3535
G01 X7.1723 Y34.3596
G01 X7.1513 Y34.3683
G01 X7.0509 Y34.4158
G01 X7.0308 Y34.4265
G01 X7.0210 Y34.4323
G01 X6.9452 Y34.4777
G01 X6.9260 Y34.4898
G01 X6.9074 Y34.5029
G01 X6.8365 Y34.5555
G01 X6.8185 Y34.5695
G01 X6.8013 Y34.5844
G01 X6.7359 Y34.6437
G01 X6.7190 Y34.6599
G01 X6.1080 Y34.6599
G01 X6.0911 Y34.6437
G01 X6.0257 Y34.5844
G01 X6.0085 Y34.5695
G01 X5.9905 Y34.5555
G01 X5.9196 Y34.5029
G01 X5.9010 Y34.4898
G01 X5.8818 Y34.4777
G01 X5.8060 Y34.4323
G01 X5.7862 Y34.4210
G01 X5.7761 Y34.4158
G01 X5.6757 Y34.3683
G01 X5.6547 Y34.3596
G01 X5.6380 Y34.3535
G01 X5.6547 Y34.3474
G01 X5.6757 Y34.3387
G01 X5.7761 Y34.2912
G01 X5.7862 Y34.2860
G01 X5.8060 Y34.2747
G01 X5.8818 Y34.2293
G01 X5.9010 Y34.2172
G01 X5.9196 Y34.2041
G01 X5.9905 Y34.1515
G01 X6.0085 Y34.1375
G01 X6.0257 Y34.1226
G01 X6.0911 Y34.0633
G01 X6.1080 Y34.0471
G00 Z2.0000
G00 X6.2238 Y34.3450
G01 F60.00
G01 Z-0.2001
G01 F320.00
G01 X6.6032 Y34.3450
G01 X6.6128 Y34.3535
G01 X6.6032 Y34.3620
G01 X6.2238 Y34.3620
G01 X6.2142 Y34.3535
G01 X6.2238 Y34.3450
G00 Z2.0000
G00 X5.9750 Y34.9578
G01 F60.00
G01 Z-0.2001
G01 F320.00
G01 X6.8520 Y34.9578
G01 X6.8598 Y34.9475
G01 X6.8651 Y34.9414
G01 X6.9300 Y34.8700
G01 X7.0075 Y34.7998
G01 X7.0915 Y34.7375
G01 X7.1741 Y34.6878
G01 X7.1885 Y34.6801
G01 X7.2757 Y34.6391
G01 X7.3665 Y34.6064
G01 X7.3820 Y34.6017
G01 X7.4677 Y34.5802
G01 X7.4836 Y34.5770
G01 X7.5791 Y34.5631
G01 X7.6835 Y34.5580
G01 X7.7879 Y34.5631
G01 X7.8834 Y34.5770
G01 X7.8993 Y34.5802
G01 X7.9928 Y34.6038
G01 X8.0837 Y34.6361
G01 X8.0987 Y34.6424
G01 X8.1785 Y34.6801
G01 X8.1929 Y34.6878
G01 X8.2755 Y34.7375
G01 X8.3595 Y34.7998
G01 X8.4370 Y34.8700
G01 X8.5019 Y34.9414
G01 X8.5072 Y34.9475
G01 X8.5150 Y34.9578
G01 X14.4720 Y34.9578
G01 X14.4798 Y34.9475
G01 X14.4851 Y34.9414
G01 X14.5500 Y34.8700
G01 X14.6275 Y34.7998
G01 X14.7115 Y34.7375
G01 X14.7941 Y34.6878
G01 X14.8085 Y34.6801
G01 X14.8957 Y34.6391
G01 X14.9865 Y34.6064
G01 X15.0020 Y34.6017
G01 X15.0877 Y34.5802
G01 X15.1036 Y34.5770
G01 X15.1991 Y34.5631
G01 X15.3035 Y34.5580
G01 X15.4079 Y34.5631
G01 X15.5034 Y34.5770
G01 X15.5193 Y34.5802
G01 X15.6050 Y34.6017
G01 X15.6205 Y34.6064
G01 X15.7113 Y34.6391
G01 X15.7985 Y34.6801
G01 X15.8129 Y34.6878
G01 X15.8955 Y34.7375
G01 X15.9795 Y34.7998
G01 X16.0570 Y34.8700
G01 X16.1219 Y34.9414
G01 X16.1272 Y34.9475
G01 X16.1350 Y34.9578
G01 X17.0120 Y34.9578
G01 X17.0198 Y34.9475
G01 X17.0251 Y34.9414
G01 X17.0900 Y34.8700
G01 X17.1614 Y34.8051
G01 X17.1739 Y34.7948
G01 X17.2515 Y34.7375
G01 X17.3341 Y34.6878
G01 X17.3485 Y34.6801
G01 X17.4357 Y34.6391
G01 X17.5342 Y34.6038
G01 X17.6277 Y34.5802
G01 X17.6436 Y34.5770
G01 X17.7310 Y34.5641
G01 X17.7472 Y34.5625
G01 X17.8435 Y34.5580
G01 X17.9398 Y34.5625
G01 X17.9560 Y34.5641
G01 X18.0514 Y34.5784
G01 X18.1528 Y34.6038
G01 X18.2513 Y34.6391
G01 X18.3458 Y34.6838
G01 X18.4355 Y34.7375
G01 X18.5195 Y34.7998
G01 X18.5970 Y34.8700
G01 X18.6672 Y34.9475
G01 X18.7295 Y35.0315
G01 X18.7832 Y35.1212
G01 X18.8279 Y35.2157
G01 X18.8632 Y35.3142
G01 X18.8886 Y35.4156
G01 X18.9039 Y35.5191
G01 X18.9090 Y35.6235
G01 X18.9045 Y35.7198
G01 X18.9029 Y35.7360
G01 X18.8886 Y35.8314
G01 X18.8632 Y35.9328
G01 X18.8279 Y36.0313
G01 X18.7869 Y36.1185
G01 X18.7792 Y36.1329
G01 X18.7295 Y36.2155
G01 X18.6722 Y36.2931
G01 X18.6619 Y36.3056
G01 X18.6026 Y36.3711
G01 X18.5911 Y36.3826
G01 X18.5195 Y36.4472
G01 X18.4355 Y36.5095
G01 X18.3458 Y36.5632
G01 X18.2513 Y36.6079
G01 X18.1528 Y36.6432
G01 X18.0514 Y36.6686
G01 X17.9479 Y36.6839
G01 X17.8516 Y36.6888
G01 X17.8354 Y36.6888
G01 X17.7391 Y36.6839
G01 X17.6436 Y36.6700
G01 X17.6277 Y36.6668
G01 X17.5420 Y36.6453
G01 X17.5265 Y36.6406
G01 X17.4357 Y36.6079
G01 X17.3485 Y36.5669
G01 X17.3341 Y36.5592
G01 X17.2515 Y36.5095
G01 X17.1675 Y36.4472
G01 X17.0900 Y36.3770
G01 X17.0251 Y36.3056
G01 X17.0198 Y36.2995
G01 X17.0120 Y36.2892
G01 X16.1350 Y36.2892
G01 X16.1272 Y36.2995
G01 X16.1219 Y36.3056
G01 X16.0570 Y36.3770
G01 X15.9795 Y36.4472
G01 X15.8955 Y36.5095
G01 X15.8129 Y36.5592
G01 X15.7985 Y36.5669
G01 X15.7113 Y36.6079
G01 X15.6205 Y36.6406
G01 X15.6050 Y36.6453
G01 X15.5193 Y36.6668
G01 X15.5034 Y36.6700
G01 X15.4079 Y36.6839
G01 X15.3035 Y36.6890
G01 X15.1991 Y36.6839
G01 X15.1036 Y36.6700
G01 X15.0877 Y36.6668
G01 X15.0020 Y36.6453
G01 X14.9865 Y36.6406
G01 X14.8957 Y36.6079
G01 X14.8085 Y36.5669
G01 X14.7941 Y36.5592
G01 X14.7115 Y36.5095
G01 X14.6275 Y36.4472
G01 X14.5500 Y36.3770
G01 X14.4851 Y36.3056
G01 X14.4798 Y36.2995
G01 X14.4720 Y36.2892
G01 X8.5150 Y36.2892
G01 X8.5072 Y36.2995
G01 X8.5019 Y36.3056
G01 X8.4370 Y36.3770
G01 X8.3595 Y36.4472
G01 X8.2755 Y36.5095
G01 X8.1929 Y36.5592
G01 X8.1785 Y36.5669
G01 X8.0913 Y36.6079
G01 X8.0005 Y36.6406
G01 X7.9850 Y36.6453
G01 X7.8993 Y36.6668
G01 X7.8834 Y36.6700
G01 X7.7879 Y36.6839
G01 X7.6835 Y36.6890
G01 X7.5791 Y36.6839
G01 X7.4836 Y36.6700
G01 X7.4677 Y36.6668
G01 X7.3742 Y36.6432
G01 X7.2833 Y36.6109
G01 X7.2683 Y36.6046
G01 X7.1885 Y36.5669
G01 X7.1741 Y36.5592
G01 X7.0915 Y36.5095
G01 X7.0075 Y36.4472
G01 X6.9300 Y36.3770
G01 X6.8651 Y36.3056
G01 X6.8598 Y36.2995
G01 X6.8520 Y36.2892
G01 X5.9750 Y36.2892
G01 X5.9672 Y36.2995
G01 X5.9619 Y36.3056
G01 X5.8970 Y36.3770
G01 X5.8195 Y36.4472
G01 X5.7355 Y36.5095
G01 X5.6529 Y36.5592
G01 X5.6385 Y36.5669
G01 X5.5513 Y36.6079
G01 X5.4605 Y36.6406
G01 X5.4450 Y36.6453
G01 X5.3593 Y36.6668
G01 X5.3434 Y36.6700
G01 X5.2479 Y36.6839
G01 X5.1435 Y36.6890
G01 X5.0391 Y36.6839
G01 X4.9436 Y36.6700
G01 X4.9277 Y36.6668
G01 X4.8420 Y36.6453
G01 X4.8265 Y36.6406
G01 X4.7357 Y36.6079
G01 X4.6485 Y36.5669
G01 X4.6341 Y36.5592
G01 X4.5515 Y36.5095
G01 X4.4675 Y36.4472
G01 X4.3900 Y36.3770
G01 X4.3198 Y36.2995
G01 X4.2575 Y36.2155
G01 X4.2038 Y36.1258
G01 X4.1591 Y36.0313
G01 X4.1238 Y35.9328
G01 X4.0984 Y35.8314
G01 X4.0831 Y35.7279
G01 X4.0780 Y35.6235
G01 X4.0831 Y35.5191
G01 X4.0984 Y35.4156
G01 X4.1238 Y35.3142
G01 X4.1591 Y35.2157
G01 X4.2038 Y35.1212
G01 X4.2575 Y35.0315
G01 X4.3198 Y34.9475
G01 X4.3900 Y34.8700
G01 X4.4675 Y34.7998
G01 X4.5515 Y34.7375
G01 X4.6412 Y34.6838
G01 X4.7357 Y34.6391
G01 X4.8342 Y34.6038
G01 X4.9356 Y34.5784
G01 X5.0391 Y34.5631
G01 X5.1435 Y34.5580
G01 X5.2479 Y34.5631
G01 X5.3514 Y34.5784
G01 X5.4528 Y34.6038
G01 X5.5513 Y34.6391
G01 X5.6458 Y34.6838
G01 X5.7355 Y34.7375
G01 X5.8195 Y34.7998
G01 X5.8970 Y34.8700
G01 X5.9619 Y34.9414
G01 X5.9672 Y34.9475
G01 X5.9750 Y34.9578
G00 Z2.0000
G00 X6.2142 Y36.8935
G01 F60.00
G01 Z-0.2001
G01 F320.00
G01 X6.2238 Y36.8850
G01 X6.6032 Y36.8850
G01 X6.6128 Y36.8935
G01 X6.6032 Y36.9020
G01 X6.2238 Y36.9020
G01 X6.2142 Y36.8935
G00 Z2.0000
G00 X5.6380 Y36.8935
G01 F60.00
G01 Z-0.2001
G01 F320.00
G01 X5.6547 Y36.8874
G01 X5.6757 Y36.8787
G01 X5.7761 Y36.8312
G01 X5.7862 Y36.8260
G01 X5.8060 Y36.8147
G01 X5.8818 Y36.7693
G01 X5.9010 Y36.7572
G01 X5.9196 Y36.7441
G01 X5.9905 Y36.6915
G01 X6.0085 Y36.6775
G01 X6.0257 Y36.6626
G01 X6.0911 Y36.6033
G01 X6.1080 Y36.5871
G01 X6.7190 Y36.5871
G01 X6.7359 Y36.6033
G01 X6.8013 Y36.6626
G01 X6.8185 Y36.6775
G01 X6.8365 Y36.6915
G01 X6.9074 Y36.7441
G01 X6.9260 Y36.7572
G01 X6.9452 Y36.7693
G01 X7.0210 Y36.8147
G01 X7.0408 Y36.8260
G01 X7.0509 Y36.8312
G01 X7.1513 Y36.8787
G01 X7.1723 Y36.8874
G01 X7.1890 Y36.8935
G01 X7.1723 Y36.8996
G01 X7.1513 Y36.9083
G01 X7.0509 Y36.9558
