(G-CODE GENERATED BY FLATCAM v8.994 - www.flatcam.org - Version Date: 2020/11/7)

(Name: Conn2 - NC Drill Data - [Through Hole].drl_cnc)
(Type: G-code from Geometry)
(Units: MM)

(Created on Monday, 09 December 2024 at 10:52)

(This preprocessor is the default preprocessor used by FlatCAM.)
(It is made to work with MACH3 compatible motion controllers.)


(TOOLS DIAMETER: )
(Tool: 1 -> Dia: 0.889)

(FEEDRATE Z: )
(Tool: 1 -> Feedrate: 300)

(FEEDRATE RAPIDS: )
(Tool: 1 -> Feedrate Rapids: 1500)

(Z_CUT: )
(Tool: 1 -> Z_Cut: -2.0)

(Tools Offset: )
(Tool: 1 -> Offset Z: 0.0)

(Z_MOVE: )
(Tool: 1 -> Z_Move: 2)

(Z Toolchange: 15 mm)
(X,Y Toolchange: 0.0000, 0.0000 mm)
(Z Start: None mm)
(Z End: 0.5 mm)
(X,Y End: None mm)
(Steps per circle: 64)
(Preprocessor Excellon: default)

(X range:    4.6990 ...  208.7880  mm)
(Y range:    4.6990 ...   89.4677  mm)

(Spindle Speed: 0 RPM)
G21
G90
G94

G01 F300.00
G00 Z15.0000

G01 F300.00
M03
G00 X5.1435 Y30.5435
G01 Z-2.0000
G01 Z0
G00 Z2.0000
G00 X5.1435 Y33.0835
G01 Z-2.0000
G01 Z0
G00 Z2.0000
G00 X5.1435 Y35.6235
G01 Z-2.0000
G01 Z0
G00 Z2.0000
G00 X5.1435 Y38.1635
G01 Z-2.0000
G01 Z0
G00 Z2.0000
G00 X5.1435 Y40.7035
G01 Z-2.0000
G01 Z0
G00 Z2.0000
G00 X5.1435 Y43.2435
G01 Z-2.0000
G01 Z0
G00 Z2.0000
G00 X5.1435 Y45.7835
G01 Z-2.0000
G01 Z0
G00 Z2.0000
G00 X5.1435 Y48.3235
G01 Z-2.0000
G01 Z0
G00 Z2.0000
G00 X5.1435 Y50.8635
G01 Z-2.0000
G01 Z0
G00 Z2.0000
G00 X5.1435 Y53.4035
G01 Z-2.0000
G01 Z0
G00 Z2.0000
G00 X5.1435 Y55.9435
G01 Z-2.0000
G01 Z0
G00 Z2.0000
G00 X5.1435 Y58.4835
G01 Z-2.0000
G01 Z0
G00 Z2.0000
G00 X7.6835 Y58.4835
G01 Z-2.0000
G01 Z0
G00 Z2.0000
G00 X7.6835 Y55.9435
G01 Z-2.0000
G01 Z0
G00 Z2.0000
G00 X7.6835 Y53.4035
G01 Z-2.0000
G01 Z0
G00 Z2.0000
G00 X7.6835 Y50.8635
G01 Z-2.0000
G01 Z0
G00 Z2.0000
G00 X7.6835 Y48.3235
G01 Z-2.0000
G01 Z0
G00 Z2.0000
G00 X7.6835 Y45.7835
G01 Z-2.0000
G01 Z0
G00 Z2.0000
G00 X7.6835 Y43.2435
G01 Z-2.0000
G01 Z0
G00 Z2.0000
G00 X7.6835 Y40.7035
G01 Z-2.0000
G01 Z0
G00 Z2.0000
G00 X7.6835 Y38.1635
G01 Z-2.0000
G01 Z0
G00 Z2.0000
G00 X7.6835 Y35.6235
G01 Z-2.0000
G01 Z0
G00 Z2.0000
G00 X15.3035 Y35.6235
G01 Z-2.0000
G01 Z0
G00 Z2.0000
G00 X15.3035 Y38.1635
G01 Z-2.0000
G01 Z0
G00 Z2.0000
G00 X17.8435 Y38.1635
G01 Z-2.0000
G01 Z0
G00 Z2.0000
G00 X17.8435 Y40.7035
G01 Z-2.0000
G01 Z0
G00 Z2.0000
G00 X15.3035 Y40.7035
G01 Z-2.0000
G01 Z0
G00 Z2.0000
G00 X15.3035 Y43.2435
G01 Z-2.0000
G01 Z0
G00 Z2.0000
G00 X17.8435 Y43.2435
G01 Z-2.0000
G01 Z0
G00 Z2.0000
G00 X17.8435 Y45.7835
G01 Z-2.0000
G01 Z0
G00 Z2.0000
G00 X15.3035 Y45.7835
G01 Z-2.0000
G01 Z0
G00 Z2.0000
G00 X15.3035 Y48.3235
G01 Z-2.0000
G01 Z0
G00 Z2.0000
G00 X15.3035 Y50.8635
G01 Z-2.0000
G01 Z0
G00 Z2.0000
G00 X15.3035 Y53.4035
G01 Z-2.0000
G01 Z0
G00 Z2.0000
G00 X15.3035 Y55.9435
G01 Z-2.0000
G01 Z0
G00 Z2.0000
G00 X15.3035 Y58.4835
G01 Z-2.0000
G01 Z0
G00 Z2.0000
G00 X17.8435 Y58.4835
G01 Z-2.0000
G01 Z0
G00 Z2.0000
G00 X17.8435 Y55.9435
G01 Z-2.0000
G01 Z0
G00 Z2.0000
G00 X17.8435 Y53.4035
G01 Z-2.0000
G01 Z0
G00 Z2.0000
G00 X17.8435 Y50.8635
G01 Z-2.0000
G01 Z0
G00 Z2.0000
G00 X17.8435 Y48.3235
G01 Z-2.0000
G01 Z0
G00 Z2.0000
G00 X30.5435 Y55.9435
G01 Z-2.0000
G01 Z0
G00 Z2.0000
G00 X33.0835 Y55.9435
G01 Z-2.0000
G01 Z0
G00 Z2.0000
G00 X35.6235 Y55.9435
G01 Z-2.0000
G01 Z0
G00 Z2.0000
G00 X38.1635 Y55.9435
G01 Z-2.0000
G01 Z0
G00 Z2.0000
G00 X40.7035 Y55.9435
G01 Z-2.0000
G01 Z0
G00 Z2.0000
G00 X43.2435 Y55.9435
G01 Z-2.0000
G01 Z0
G00 Z2.0000
G00 X55.9435 Y43.2435
G01 Z-2.0000
G01 Z0
G00 Z2.0000
G00 X58.4835 Y43.2435
G01 Z-2.0000
G01 Z0
G00 Z2.0000
G00 X61.0235 Y43.2435
G01 Z-2.0000
G01 Z0
G00 Z2.0000
G00 X63.5635 Y43.2435
G01 Z-2.0000
G01 Z0
G00 Z2.0000
G00 X66.1035 Y43.2435
G01 Z-2.0000
G01 Z0
G00 Z2.0000
G00 X68.6435 Y43.2435
G01 Z-2.0000
G01 Z0
G00 Z2.0000
G00 X71.1835 Y43.2435
G01 Z-2.0000
G01 Z0
G00 Z2.0000
G00 X73.7235 Y43.2435
G01 Z-2.0000
G01 Z0
G00 Z2.0000
G00 X76.2635 Y43.2435
G01 Z-2.0000
G01 Z0
G00 Z2.0000
G00 X78.8035 Y43.2435
G01 Z-2.0000
G01 Z0
G00 Z2.0000
G00 X81.3435 Y43.2435
G01 Z-2.0000
G01 Z0
G00 Z2.0000
G00 X88.9635 Y55.9435
G01 Z-2.0000
G01 Z0
G00 Z2.0000
G00 X86.4235 Y55.9435
G01 Z-2.0000
G01 Z0
G00 Z2.0000
G00 X83.8835 Y55.9435
G01 Z-2.0000
G01 Z0
G00 Z2.0000
G00 X81.3435 Y55.9435
G01 Z-2.0000
G01 Z0
G00 Z2.0000
G00 X78.8035 Y55.9435
G01 Z-2.0000
G01 Z0
G00 Z2.0000
G00 X76.2635 Y55.9435
G01 Z-2.0000
G01 Z0
G00 Z2.0000
G00 X73.7235 Y55.9435
G01 Z-2.0000
G01 Z0
G00 Z2.0000
G00 X71.1835 Y55.9435
G01 Z-2.0000
G01 Z0
G00 Z2.0000
G00 X68.6435 Y55.9435
G01 Z-2.0000
G01 Z0
G00 Z2.0000
G00 X66.1035 Y55.9435
G01 Z-2.0000
G01 Z0
G00 Z2.0000
G00 X63.5635 Y55.9435
G01 Z-2.0000
G01 Z0
G00 Z2.0000
G00 X61.0235 Y55.9435
G01 Z-2.0000
G01 Z0
G00 Z2.0000
G00 X58.4835 Y55.9435
G01 Z-2.0000
G01 Z0
G00 Z2.0000
G00 X55.9435 Y55.9435
G01 Z-2.0000
G01 Z0
G00 Z2.0000
G00 X53.4035 Y55.9435
G01 Z-2.0000
G01 Z0
G00 Z2.0000
G00 X50.8635 Y55.9435
G01 Z-2.0000
G01 Z0
G00 Z2.0000
G00 X48.3235 Y55.9435
G01 Z-2.0000
G01 Z0
G00 Z2.0000
G00 X45.7835 Y55.9435
G01 Z-2.0000
G01 Z0
G00 Z2.0000
G00 X38.1635 Y66.1035
G01 Z-2.0000
G01 Z0
G00 Z2.0000
G00 X35.6235 Y66.1035
G01 Z-2.0000
G01 Z0
G00 Z2.0000
G00 X33.0835 Y66.1035
G01 Z-2.0000
G01 Z0
G00 Z2.0000
G00 X30.5435 Y66.1035
G01 Z-2.0000
G01 Z0
G00 Z2.0000
G00 X33.0835 Y78.8035
G01 Z-2.0000
G01 Z0
G00 Z2.0000
G00 X30.5435 Y78.8035
G01 Z-2.0000
G01 Z0
G00 Z2.0000
G00 X28.0035 Y78.8035
G01 Z-2.0000
G01 Z0
G00 Z2.0000
G00 X25.4635 Y78.8035
G01 Z-2.0000
G01 Z0
G00 Z2.0000
G00 X22.9235 Y78.8035
G01 Z-2.0000
G01 Z0
G00 Z2.0000
G00 X20.3835 Y78.8035
G01 Z-2.0000
G01 Z0
G00 Z2.0000
G00 X17.8435 Y78.8035
G01 Z-2.0000
G01 Z0
G00 Z2.0000
G00 X15.3035 Y78.8035
G01 Z-2.0000
G01 Z0
G00 Z2.0000
G00 X12.7635 Y78.8035
G01 Z-2.0000
G01 Z0
G00 Z2.0000
G00 X10.2235 Y78.8035
G01 Z-2.0000
G01 Z0
G00 Z2.0000
G00 X7.6835 Y78.8035
G01 Z-2.0000
G01 Z0
G00 Z2.0000
G00 X7.6835 Y88.9635
G01 Z-2.0000
G01 Z0
G00 Z2.0000
G00 X10.2235 Y88.9635
G01 Z-2.0000
G01 Z0
G00 Z2.0000
G00 X12.7635 Y88.9635
G01 Z-2.0000
G01 Z0
G00 Z2.0000
G00 X15.3035 Y88.9635
G01 Z-2.0000
G01 Z0
G00 Z2.0000
G00 X17.8435 Y88.9635
G01 Z-2.0000
G01 Z0
G00 Z2.0000
G00 X20.3835 Y88.9635
G01 Z-2.0000
G01 Z0
G00 Z2.0000
G00 X22.9235 Y88.9635
G01 Z-2.0000
G01 Z0
G00 Z2.0000
G00 X25.4635 Y88.9635
G01 Z-2.0000
G01 Z0
G00 Z2.0000
G00 X28.0035 Y88.9635
G01 Z-2.0000
G01 Z0
G00 Z2.0000
G00 X30.5435 Y88.9635
G01 Z-2.0000
G01 Z0
G00 Z2.0000
G00 X33.0835 Y88.9635
G01 Z-2.0000
G01 Z0
G00 Z2.0000
G00 X35.6235 Y88.9635
G01 Z-2.0000
G01 Z0
G00 Z2.0000
G00 X38.1635 Y88.9635
G01 Z-2.0000
G01 Z0
G00 Z2.0000
G00 X40.7035 Y88.9635
G01 Z-2.0000
G01 Z0
G00 Z2.0000
G00 X43.2435 Y88.9635
G01 Z-2.0000
G01 Z0
G00 Z2.0000
G00 X45.7835 Y88.9635
G01 Z-2.0000
G01 Z0
G00 Z2.0000
G00 X48.3235 Y88.9635
G01 Z-2.0000
G01 Z0
G00 Z2.0000
G00 X50.8635 Y88.9635
G01 Z-2.0000
G01 Z0
G00 Z2.0000
G00 X53.4035 Y88.9635
G01 Z-2.0000
G01 Z0
G00 Z2.0000
G00 X55.9435 Y88.9635
G01 Z-2.0000
G01 Z0
G00 Z2.0000
G00 X58.4835 Y89.0232
G01 Z-2.0000
G01 Z0
G00 Z2.0000
G00 X61.0235 Y89.0232
G01 Z-2.0000
G01 Z0
G00 Z2.0000
G00 X63.5635 Y89.0232
G01 Z-2.0000
G01 Z0
G00 Z2.0000
G00 X66.1035 Y89.0232
G01 Z-2.0000
G01 Z0
G00 Z2.0000
G00 X66.1035 Y78.8035
G01 Z-2.0000
G01 Z0
G00 Z2.0000
G00 X63.5635 Y78.8035
G01 Z-2.0000
G01 Z0
G00 Z2.0000
G00 X61.0235 Y78.8035
G01 Z-2.0000
G01 Z0
G00 Z2.0000
G00 X58.4835 Y78.8035
G01 Z-2.0000
G01 Z0
G00 Z2.0000
G00 X55.9435 Y78.8035
G01 Z-2.0000
G01 Z0
G00 Z2.0000
G00 X53.4035 Y78.8035
G01 Z-2.0000
G01 Z0
G00 Z2.0000
G00 X50.8635 Y78.8035
G01 Z-2.0000
G01 Z0
G00 Z2.0000
G00 X48.3235 Y78.8035
G01 Z-2.0000
G01 Z0
G00 Z2.0000
G00 X45.7835 Y78.8035
G01 Z-2.0000
G01 Z0
G00 Z2.0000
G00 X43.2435 Y78.8035
G01 Z-2.0000
G01 Z0
G00 Z2.0000
G00 X40.7035 Y78.8035
G01 Z-2.0000
G01 Z0
G00 Z2.0000
G00 X38.1635 Y78.8035
G01 Z-2.0000
G01 Z0
G00 Z2.0000
G00 X35.6235 Y78.8035
G01 Z-2.0000
G01 Z0
G00 Z2.0000
G00 X40.7035 Y66.1035
G01 Z-2.0000
G01 Z0
G00 Z2.0000
G00 X43.2435 Y66.1035
G01 Z-2.0000
G01 Z0
G00 Z2.0000
G00 X45.7835 Y66.1035
G01 Z-2.0000
G01 Z0
G00 Z2.0000
G00 X48.3235 Y66.1035
G01 Z-2.0000
G01 Z0
G00 Z2.0000
G00 X50.8635 Y66.1035
G01 Z-2.0000
G01 Z0
G00 Z2.0000
G00 X53.4035 Y66.1035
G01 Z-2.0000
G01 Z0
G00 Z2.0000
G00 X55.9435 Y66.1035
G01 Z-2.0000
G01 Z0
G00 Z2.0000
G00 X58.4835 Y66.1035
G01 Z-2.0000
G01 Z0
G00 Z2.0000
G00 X61.0235 Y66.1035
G01 Z-2.0000
G01 Z0
G00 Z2.0000
G00 X63.5635 Y66.1035
G01 Z-2.0000
G01 Z0
G00 Z2.0000
G00 X66.1035 Y66.1035
G01 Z-2.0000
G01 Z0
G00 Z2.0000
G00 X68.6435 Y66.1035
G01 Z-2.0000
G01 Z0
G00 Z2.0000
G00 X71.1835 Y66.1035
G01 Z-2.0000
G01 Z0
G00 Z2.0000
G00 X73.7235 Y66.1035
G01 Z-2.0000
G01 Z0
G00 Z2.0000
G00 X76.2635 Y66.1035
G01 Z-2.0000
G01 Z0
G00 Z2.0000
G00 X78.8035 Y66.1035
G01 Z-2.0000
G01 Z0
G00 Z2.0000
G00 X81.3435 Y66.1632
G01 Z-2.0000
G01 Z0
G00 Z2.0000
G00 X83.8835 Y66.1632
G01 Z-2.0000
G01 Z0
G00 Z2.0000
G00 X86.4235 Y66.1632
G01 Z-2.0000
G01 Z0
G00 Z2.0000
G00 X88.9635 Y66.1632
G01 Z-2.0000
G01 Z0
G00 Z2.0000
G00 X101.6635 Y55.9435
G01 Z-2.0000
G01 Z0
G00 Z2.0000
G00 X104.2035 Y55.9435
G01 Z-2.0000
G01 Z0
G00 Z2.0000
G00 X106.7435 Y55.9435
G01 Z-2.0000
G01 Z0
G00 Z2.0000
G00 X109.2835 Y55.9435
G01 Z-2.0000
G01 Z0
G00 Z2.0000
G00 X111.8235 Y55.9435
G01 Z-2.0000
G01 Z0
G00 Z2.0000
G00 X114.3635 Y55.9435
G01 Z-2.0000
G01 Z0
G00 Z2.0000
G00 X116.9035 Y55.9435
G01 Z-2.0000
G01 Z0
G00 Z2.0000
G00 X119.4435 Y55.9435
G01 Z-2.0000
G01 Z0
G00 Z2.0000
G00 X121.9835 Y55.9435
G01 Z-2.0000
G01 Z0
G00 Z2.0000
G00 X124.5235 Y55.9435
G01 Z-2.0000
G01 Z0
G00 Z2.0000
G00 X127.0635 Y55.9435
G01 Z-2.0000
G01 Z0
G00 Z2.0000
G00 X129.6035 Y55.9435
G01 Z-2.0000
G01 Z0
G00 Z2.0000
G00 X132.1435 Y55.9435
G01 Z-2.0000
G01 Z0
G00 Z2.0000
G00 X134.6835 Y55.9435
G01 Z-2.0000
G01 Z0
G00 Z2.0000
G00 X137.2235 Y55.9435
G01 Z-2.0000
G01 Z0
G00 Z2.0000
G00 X139.7635 Y55.9435
G01 Z-2.0000
G01 Z0
G00 Z2.0000
G00 X142.3035 Y55.9435
G01 Z-2.0000
G01 Z0
G00 Z2.0000
G00 X144.8435 Y55.9435
G01 Z-2.0000
G01 Z0
G00 Z2.0000
G00 X147.3835 Y55.9435
G01 Z-2.0000
G01 Z0
G00 Z2.0000
G00 X149.9235 Y55.9435
G01 Z-2.0000
G01 Z0
G00 Z2.0000
G00 X152.4635 Y55.9435
G01 Z-2.0000
G01 Z0
G00 Z2.0000
G00 X155.0035 Y55.9435
G01 Z-2.0000
G01 Z0
G00 Z2.0000
G00 X157.5435 Y55.9435
G01 Z-2.0000
G01 Z0
G00 Z2.0000
G00 X160.0835 Y55.9435
G01 Z-2.0000
G01 Z0
G00 Z2.0000
G00 X162.6235 Y55.9435
G01 Z-2.0000
G01 Z0
G00 Z2.0000
G00 X162.6235 Y63.5635
G01 Z-2.0000
G01 Z0
G00 Z2.0000
G00 X162.6235 Y66.1035
G01 Z-2.0000
G01 Z0
G00 Z2.0000
G00 X160.0835 Y66.1035
G01 Z-2.0000
G01 Z0
G00 Z2.0000
G00 X160.0835 Y63.5635
G01 Z-2.0000
G01 Z0
G00 Z2.0000
G00 X157.5435 Y63.5635
G01 Z-2.0000
G01 Z0
G00 Z2.0000
G00 X157.5435 Y66.1035
G01 Z-2.0000
G01 Z0
G00 Z2.0000
G00 X155.0035 Y66.1035
G01 Z-2.0000
G01 Z0
G00 Z2.0000
G00 X155.0035 Y63.5635
G01 Z-2.0000
G01 Z0
G00 Z2.0000
G00 X152.4635 Y63.5635
G01 Z-2.0000
G01 Z0
G00 Z2.0000
G00 X152.4635 Y66.1035
G01 Z-2.0000
G01 Z0
G00 Z2.0000
G00 X149.9235 Y66.1035
G01 Z-2.0000
G01 Z0
G00 Z2.0000
G00 X149.9235 Y63.5635
G01 Z-2.0000
G01 Z0
G00 Z2.0000
G00 X147.3835 Y63.5635
G01 Z-2.0000
G01 Z0
G00 Z2.0000
G00 X147.3835 Y66.1035
G01 Z-2.0000
G01 Z0
G00 Z2.0000
G00 X144.8435 Y66.1035
G01 Z-2.0000
G01 Z0
G00 Z2.0000
G00 X144.8435 Y63.5635
G01 Z-2.0000
G01 Z0
G00 Z2.0000
G00 X142.3035 Y63.5635
G01 Z-2.0000
G01 Z0
G00 Z2.0000
G00 X142.3035 Y66.1035
G01 Z-2.0000
G01 Z0
G00 Z2.0000
G00 X139.7635 Y66.1035
G01 Z-2.0000
G01 Z0
G00 Z2.0000
G00 X139.7635 Y63.5635
G01 Z-2.0000
G01 Z0
G00 Z2.0000
G00 X137.2235 Y63.5635
G01 Z-2.0000
G01 Z0
G00 Z2.0000
G00 X137.2235 Y66.1035
G01 Z-2.0000
G01 Z0
G00 Z2.0000
G00 X134.6835 Y66.1035
G01 Z-2.0000
G01 Z0
G00 Z2.0000
G00 X134.6835 Y63.5635
G01 Z-2.0000
G01 Z0
G00 Z2.0000
G00 X132.1435 Y63.5635
G01 Z-2.0000
G01 Z0
G00 Z2.0000
G00 X132.1435 Y66.1035
G01 Z-2.0000
G01 Z0
G00 Z2.0000
G00 X129.6035 Y66.1035
G01 Z-2.0000
G01 Z0
G00 Z2.0000
G00 X129.6035 Y63.5635
G01 Z-2.0000
G01 Z0
G00 Z2.0000
G00 X127.0635 Y63.5635
G01 Z-2.0000
G01 Z0
G00 Z2.0000
G00 X127.0635 Y66.1035
G01 Z-2.0000
G01 Z0
G00 Z2.0000
G00 X124.5235 Y66.1035
G01 Z-2.0000
G01 Z0
G00 Z2.0000
G00 X124.5235 Y63.5635
G01 Z-2.0000
G01 Z0
G00 Z2.0000
G00 X121.9835 Y63.5635
G01 Z-2.0000
G01 Z0
G00 Z2.0000
G00 X121.9835 Y66.1035
G01 Z-2.0000
G01 Z0
G00 Z2.0000
G00 X119.4435 Y66.1035
G01 Z-2.0000
G01 Z0
G00 Z2.0000
G00 X119.4435 Y63.5635
G01 Z-2.0000
G01 Z0
G00 Z2.0000
G00 X116.9035 Y63.5635
G01 Z-2.0000
G01 Z0
G00 Z2.0000
G00 X116.9035 Y66.1035
G01 Z-2.0000
G01 Z0
G00 Z2.0000
G00 X114.3635 Y66.1035
G01 Z-2.0000
G01 Z0
G00 Z2.0000
G00 X114.3635 Y63.5635
G01 Z-2.0000
G01 Z0
G00 Z2.0000
G00 X111.8235 Y63.5635
G01 Z-2.0000
G01 Z0
G00 Z2.0000
G00 X111.8235 Y66.1035
G01 Z-2.0000
G01 Z0
G00 Z2.0000
G00 X109.2835 Y66.1035
G01 Z-2.0000
G01 Z0
G00 Z2.0000
G00 X109.2835 Y63.5635
G01 Z-2.0000
G01 Z0
G00 Z2.0000
G00 X106.7435 Y63.5635
G01 Z-2.0000
G01 Z0
G00 Z2.0000
G00 X106.7435 Y66.1035
G01 Z-2.0000
G01 Z0
G00 Z2.0000
G00 X104.2035 Y66.1035
G01 Z-2.0000
G01 Z0
G00 Z2.0000
G00 X104.2035 Y63.5635
G01 Z-2.0000
G01 Z0
G00 Z2.0000
G00 X101.6635 Y63.5635
G01 Z-2.0000
G01 Z0
G00 Z2.0000
G00 X101.6635 Y66.1035
G01 Z-2.0000
G01 Z0
G00 Z2.0000
G00 X104.2035 Y78.8035
G01 Z-2.0000
G01 Z0
G00 Z2.0000
G00 X106.7435 Y78.8035
G01 Z-2.0000
G01 Z0
G00 Z2.0000
G00 X109.2835 Y78.8035
G01 Z-2.0000
G01 Z0
G00 Z2.0000
G00 X111.8235 Y78.8035
G01 Z-2.0000
G01 Z0
G00 Z2.0000
G00 X114.3635 Y78.8035
G01 Z-2.0000
G01 Z0
G00 Z2.0000
G00 X114.3635 Y81.3435
G01 Z-2.0000
G01 Z0
G00 Z2.0000
G00 X111.8235 Y81.3435
G01 Z-2.0000
G01 Z0
G00 Z2.0000
G00 X109.2835 Y81.3435
G01 Z-2.0000
G01 Z0
G00 Z2.0000
G00 X106.7435 Y81.3435
G01 Z-2.0000
G01 Z0
G00 Z2.0000
G00 X104.2035 Y81.3435
G01 Z-2.0000
G01 Z0
G00 Z2.0000
G00 X101.6635 Y81.3435
G01 Z-2.0000
G01 Z0
G00 Z2.0000
G00 X101.6635 Y78.8035
G01 Z-2.0000
G01 Z0
G00 Z2.0000
G00 X99.1235 Y78.7438
G01 Z-2.0000
G01 Z0
G00 Z2.0000
G00 X99.1235 Y81.2838
G01 Z-2.0000
G01 Z0
G00 Z2.0000
G00 X96.5835 Y81.2838
G01 Z-2.0000
G01 Z0
G00 Z2.0000
G00 X96.5835 Y78.7438
G01 Z-2.0000
G01 Z0
G00 Z2.0000
G00 X94.0435 Y78.7438
G01 Z-2.0000
G01 Z0
G00 Z2.0000
G00 X94.0435 Y81.2838
G01 Z-2.0000
G01 Z0
G00 Z2.0000
G00 X91.5035 Y81.2838
G01 Z-2.0000
G01 Z0
G00 Z2.0000
G00 X91.5035 Y78.7438
G01 Z-2.0000
G01 Z0
G00 Z2.0000
G00 X88.9635 Y78.8035
G01 Z-2.0000
G01 Z0
G00 Z2.0000
G00 X88.9635 Y81.3435
G01 Z-2.0000
G01 Z0
G00 Z2.0000
G00 X86.4235 Y81.3435
G01 Z-2.0000
G01 Z0
G00 Z2.0000
G00 X86.4235 Y78.8035
G01 Z-2.0000
G01 Z0
G00 Z2.0000
G00 X83.8835 Y78.8035
G01 Z-2.0000
G01 Z0
G00 Z2.0000
G00 X83.8835 Y81.3435
G01 Z-2.0000
G01 Z0
G00 Z2.0000
G00 X81.3435 Y81.3435
G01 Z-2.0000
G01 Z0
G00 Z2.0000
G00 X81.3435 Y78.8035
G01 Z-2.0000
G01 Z0
G00 Z2.0000
G00 X78.8035 Y78.8035
G01 Z-2.0000
G01 Z0
G00 Z2.0000
G00 X78.8035 Y81.3435
G01 Z-2.0000
G01 Z0
G00 Z2.0000
G00 X78.8035 Y88.9635
G01 Z-2.0000
G01 Z0
G00 Z2.0000
G00 X81.3435 Y88.9635
G01 Z-2.0000
G01 Z0
G00 Z2.0000
G00 X83.8835 Y88.9635
G01 Z-2.0000
G01 Z0
G00 Z2.0000
G00 X86.4235 Y88.9635
G01 Z-2.0000
G01 Z0
G00 Z2.0000
G00 X88.9635 Y88.9635
G01 Z-2.0000
G01 Z0
G00 Z2.0000
G00 X91.5035 Y88.9038
G01 Z-2.0000
G01 Z0
G00 Z2.0000
G00 X94.0435 Y88.9038
G01 Z-2.0000
G01 Z0
G00 Z2.0000
G00 X96.5835 Y88.9038
G01 Z-2.0000
G01 Z0
G00 Z2.0000
G00 X99.1235 Y88.9038
G01 Z-2.0000
G01 Z0
G00 Z2.0000
G00 X101.6635 Y88.9635
G01 Z-2.0000
G01 Z0
G00 Z2.0000
G00 X104.2035 Y88.9635
G01 Z-2.0000
G01 Z0
G00 Z2.0000
G00 X106.7435 Y88.9635
G01 Z-2.0000
G01 Z0
G00 Z2.0000
G00 X109.2835 Y88.9635
G01 Z-2.0000
G01 Z0
G00 Z2.0000
G00 X111.8235 Y88.9635
G01 Z-2.0000
G01 Z0
G00 Z2.0000
G00 X114.3635 Y88.9635
G01 Z-2.0000
G01 Z0
G00 Z2.0000
G00 X127.0635 Y88.9635
G01 Z-2.0000
G01 Z0
G00 Z2.0000
G00 X129.6035 Y88.9635
G01 Z-2.0000
G01 Z0
G00 Z2.0000
G00 X132.1435 Y88.9635
G01 Z-2.0000
G01 Z0
G00 Z2.0000
G00 X134.6835 Y88.9635
G01 Z-2.0000
G01 Z0
G00 Z2.0000
G00 X137.2235 Y88.9635
G01 Z-2.0000
G01 Z0
G00 Z2.0000
G00 X139.7635 Y88.9635
G01 Z-2.0000
G01 Z0
G00 Z2.0000
G00 X142.3035 Y88.9635
G01 Z-2.0000
G01 Z0
G00 Z2.0000
G00 X144.8435 Y88.9635
G01 Z-2.0000
G01 Z0
G00 Z2.0000
G00 X147.3835 Y88.9635
G01 Z-2.0000
G01 Z0
G00 Z2.0000
G00 X149.9235 Y88.9635
G01 Z-2.0000
G01 Z0
G00 Z2.0000
G00 X152.4635 Y88.9635
G01 Z-2.0000
G01 Z0
G00 Z2.0000
G00 X155.0035 Y88.9635
G01 Z-2.0000
G01 Z0
G00 Z2.0000
G00 X157.5435 Y88.9635
G01 Z-2.0000
G01 Z0
G00 Z2.0000
G00 X160.0835 Y88.9635
G01 Z-2.0000
G01 Z0
G00 Z2.0000
G00 X162.6235 Y88.9635
G01 Z-2.0000
G01 Z0
G00 Z2.0000
G00 X162.6235 Y86.4235
G01 Z-2.0000
G01 Z0
G00 Z2.0000
G00 X160.0835 Y86.4235
G01 Z-2.0000
G01 Z0
G00 Z2.0000
G00 X157.5435 Y86.4235
G01 Z-2.0000
G01 Z0
G00 Z2.0000
G00 X155.0035 Y86.4235
G01 Z-2.0000
G01 Z0
G00 Z2.0000
G00 X152.4635 Y86.4235
G01 Z-2.0000
G01 Z0
G00 Z2.0000
G00 X149.9235 Y86.4235
G01 Z-2.0000
G01 Z0
G00 Z2.0000
G00 X147.3835 Y86.4235
G01 Z-2.0000
G01 Z0
G00 Z2.0000
G00 X144.8435 Y86.4235
G01 Z-2.0000
G01 Z0
G00 Z2.0000
G00 X142.3035 Y86.4235
G01 Z-2.0000
G01 Z0
G00 Z2.0000
G00 X139.7635 Y86.4235
G01 Z-2.0000
G01 Z0
G00 Z2.0000
G00 X137.2235 Y86.4235
G01 Z-2.0000
G01 Z0
G00 Z2.0000
G00 X134.6835 Y86.4235
G01 Z-2.0000
G01 Z0
G00 Z2.0000
G00 X132.1435 Y86.4235
G01 Z-2.0000
G01 Z0
G00 Z2.0000
G00 X129.6035 Y86.4235
G01 Z-2.0000
G01 Z0
G00 Z2.0000
G00 X127.0635 Y86.4235
G01 Z-2.0000
G01 Z0
G00 Z2.0000
G00 X127.0635 Y78.8035
G01 Z-2.0000
G01 Z0
G00 Z2.0000
G00 X129.6035 Y78.8035
G01 Z-2.0000
G01 Z0
G00 Z2.0000
G00 X132.1435 Y78.8035
G01 Z-2.0000
G01 Z0
G00 Z2.0000
G00 X134.6835 Y78.8035
G01 Z-2.0000
G01 Z0
G00 Z2.0000
G00 X137.2235 Y78.8035
G01 Z-2.0000
G01 Z0
G00 Z2.0000
G00 X139.7635 Y78.8035
G01 Z-2.0000
G01 Z0
G00 Z2.0000
G00 X142.3035 Y78.8035
G01 Z-2.0000
G01 Z0
G00 Z2.0000
G00 X144.8435 Y78.8035
G01 Z-2.0000
G01 Z0
G00 Z2.0000
G00 X147.3835 Y78.8035
G01 Z-2.0000
G01 Z0
G00 Z2.0000
G00 X149.9235 Y78.8035
G01 Z-2.0000
G01 Z0
G00 Z2.0000
G00 X152.4635 Y78.8035
G01 Z-2.0000
G01 Z0
G00 Z2.0000
G00 X155.0035 Y78.8035
G01 Z-2.0000
G01 Z0
G00 Z2.0000
G00 X157.5435 Y78.8035
G01 Z-2.0000
G01 Z0
G00 Z2.0000
G00 X160.0835 Y78.8035
G01 Z-2.0000
G01 Z0
G00 Z2.0000
G00 X162.6235 Y78.8035
G01 Z-2.0000
G01 Z0
G00 Z2.0000
G00 X175.3235 Y81.3435
G01 Z-2.0000
G01 Z0
G00 Z2.0000
G00 X175.3235 Y78.8035
G01 Z-2.0000
G01 Z0
G00 Z2.0000
G00 X175.3235 Y76.2635
G01 Z-2.0000
G01 Z0
G00 Z2.0000
G00 X177.8635 Y76.2635
G01 Z-2.0000
G01 Z0
G00 Z2.0000
G00 X177.8635 Y78.8035
G01 Z-2.0000
G01 Z0
G00 Z2.0000
G00 X177.8635 Y81.3435
G01 Z-2.0000
G01 Z0
G00 Z2.0000
G00 X177.8635 Y83.8835
G01 Z-2.0000
G01 Z0
G00 Z2.0000
G00 X175.3235 Y83.8835
G01 Z-2.0000
G01 Z0
G00 Z2.0000
G00 X175.3235 Y86.4235
G01 Z-2.0000
G01 Z0
G00 Z2.0000
G00 X175.3235 Y88.9635
G01 Z-2.0000
G01 Z0
G00 Z2.0000
G00 X177.8635 Y88.9635
G01 Z-2.0000
G01 Z0
G00 Z2.0000
G00 X177.8635 Y86.4235
G01 Z-2.0000
G01 Z0
G00 Z2.0000
G00 X185.4835 Y88.9635
G01 Z-2.0000
G01 Z0
G00 Z2.0000
G00 X185.4835 Y86.4235
G01 Z-2.0000
G01 Z0
G00 Z2.0000
G00 X185.4835 Y83.8835
G01 Z-2.0000
G01 Z0
G00 Z2.0000
G00 X185.4835 Y81.3435
G01 Z-2.0000
G01 Z0
G00 Z2.0000
G00 X185.4835 Y78.8035
G01 Z-2.0000
G01 Z0
G00 Z2.0000
G00 X185.4835 Y76.2635
G01 Z-2.0000
G01 Z0
G00 Z2.0000
G00 X185.4835 Y66.1035
G01 Z-2.0000
G01 Z0
G00 Z2.0000
G00 X185.4835 Y63.5635
G01 Z-2.0000
G01 Z0
G00 Z2.0000
G00 X185.4835 Y61.0235
G01 Z-2.0000
G01 Z0
G00 Z2.0000
G00 X185.4835 Y58.4835
G01 Z-2.0000
G01 Z0
G00 Z2.0000
G00 X185.4835 Y55.9435
G01 Z-2.0000
G01 Z0
G00 Z2.0000
G00 X185.4835 Y53.4035
G01 Z-2.0000
G01 Z0
G00 Z2.0000
G00 X185.4835 Y50.8635
G01 Z-2.0000
G01 Z0
G00 Z2.0000
G00 X177.8635 Y50.8635
G01 Z-2.0000
G01 Z0
G00 Z2.0000
G00 X177.8635 Y53.4035
G01 Z-2.0000
G01 Z0
G00 Z2.0000
G00 X177.8635 Y55.9435
G01 Z-2.0000
G01 Z0
G00 Z2.0000
G00 X177.8635 Y58.4835
G01 Z-2.0000
G01 Z0
G00 Z2.0000
G00 X177.8635 Y61.0235
G01 Z-2.0000
G01 Z0
G00 Z2.0000
G00 X177.8635 Y63.5635
G01 Z-2.0000
G01 Z0
G00 Z2.0000
G00 X177.8635 Y66.1035
G01 Z-2.0000
G01 Z0
G00 Z2.0000
G00 X175.3235 Y66.1035
G01 Z-2.0000
G01 Z0
G00 Z2.0000
G00 X175.3235 Y63.5635
G01 Z-2.0000
G01 Z0
G00 Z2.0000
G00 X175.3235 Y61.0235
G01 Z-2.0000
G01 Z0
G00 Z2.0000
G00 X175.3235 Y58.4835
G01 Z-2.0000
G01 Z0
G00 Z2.0000
G00 X175.3235 Y55.9435
G01 Z-2.0000
G01 Z0
G00 Z2.0000
G00 X175.3235 Y53.4035
G01 Z-2.0000
G01 Z0
G00 Z2.0000
G00 X175.3235 Y50.8635
G01 Z-2.0000
G01 Z0
G00 Z2.0000
G00 X177.8635 Y40.7035
G01 Z-2.0000
G01 Z0
G00 Z2.0000
G00 X180.4035 Y40.7035
G01 Z-2.0000
G01 Z0
G00 Z2.0000
G00 X182.9435 Y40.7035
G01 Z-2.0000
G01 Z0
G00 Z2.0000
G00 X185.4835 Y40.7035
G01 Z-2.0000
G01 Z0
G00 Z2.0000
G00 X185.4835 Y38.1635
G01 Z-2.0000
G01 Z0
G00 Z2.0000
G00 X182.9435 Y38.1635
G01 Z-2.0000
G01 Z0
G00 Z2.0000
G00 X180.4035 Y38.1635
G01 Z-2.0000
G01 Z0
G00 Z2.0000
G00 X177.8635 Y38.1635
G01 Z-2.0000
G01 Z0
G00 Z2.0000
G00 X175.3235 Y38.1635
G01 Z-2.0000
G01 Z0
G00 Z2.0000
G00 X175.3235 Y40.7035
G01 Z-2.0000
G01 Z0
G00 Z2.0000
G00 X172.7835 Y40.7035
G01 Z-2.0000
G01 Z0
G00 Z2.0000
G00 X172.7835 Y38.1635
G01 Z-2.0000
G01 Z0
G00 Z2.0000
G00 X170.2435 Y38.1635
G01 Z-2.0000
G01 Z0
G00 Z2.0000
G00 X170.2435 Y40.7035
G01 Z-2.0000
G01 Z0
G00 Z2.0000
G00 X167.7035 Y40.7035
G01 Z-2.0000
G01 Z0
G00 Z2.0000
G00 X167.7035 Y38.1635
G01 Z-2.0000
G01 Z0
G00 Z2.0000
G00 X165.1635 Y38.1635
G01 Z-2.0000
G01 Z0
G00 Z2.0000
G00 X165.1635 Y40.7035
G01 Z-2.0000
G01 Z0
G00 Z2.0000
G00 X162.6235 Y40.7035
G01 Z-2.0000
G01 Z0
G00 Z2.0000
G00 X162.6235 Y38.1635
G01 Z-2.0000
G01 Z0
G00 Z2.0000
G00 X160.0835 Y38.1038
G01 Z-2.0000
G01 Z0
G00 Z2.0000
G00 X160.0835 Y40.6438
G01 Z-2.0000
G01 Z0
G00 Z2.0000
G00 X157.5435 Y40.6438
G01 Z-2.0000
G01 Z0
G00 Z2.0000
G00 X157.5435 Y38.1038
G01 Z-2.0000
G01 Z0
G00 Z2.0000
G00 X165.1635 Y30.5435
G01 Z-2.0000
G01 Z0
G00 Z2.0000
G00 X167.7035 Y30.5435
G01 Z-2.0000
G01 Z0
G00 Z2.0000
G00 X170.2435 Y30.5435
G01 Z-2.0000
G01 Z0
G00 Z2.0000
G00 X172.7835 Y30.5435
G01 Z-2.0000
G01 Z0
G00 Z2.0000
G00 X175.3235 Y30.5435
G01 Z-2.0000
G01 Z0
G00 Z2.0000
G00 X177.8635 Y30.5435
G01 Z-2.0000
G01 Z0
G00 Z2.0000
G00 X180.4035 Y30.5435
G01 Z-2.0000
G01 Z0
G00 Z2.0000
G00 X182.9435 Y30.5435
G01 Z-2.0000
G01 Z0
G00 Z2.0000
G00 X185.4835 Y30.5435
G01 Z-2.0000
G01 Z0
G00 Z2.0000
G00 X198.1835 Y45.7835
G01 Z-2.0000
G01 Z0
G00 Z2.0000
G00 X198.1835 Y48.3235
G01 Z-2.0000
G01 Z0
G00 Z2.0000
G00 X198.1835 Y50.8635
G01 Z-2.0000
G01 Z0
G00 Z2.0000
G00 X198.1835 Y53.4035
G01 Z-2.0000
G01 Z0
G00 Z2.0000
G00 X198.1835 Y55.9435
G01 Z-2.0000
G01 Z0
G00 Z2.0000
G00 X198.1238 Y58.4835
G01 Z-2.0000
G01 Z0
G00 Z2.0000
G00 X198.1238 Y61.0235
G01 Z-2.0000
G01 Z0
G00 Z2.0000
G00 X198.1238 Y63.5635
G01 Z-2.0000
G01 Z0
G00 Z2.0000
G00 X198.1238 Y66.1035
G01 Z-2.0000
G01 Z0
G00 Z2.0000
G00 X198.1238 Y68.6435
G01 Z-2.0000
G01 Z0
G00 Z2.0000
G00 X205.7438 Y68.6435
G01 Z-2.0000
G01 Z0
G00 Z2.0000
G00 X208.2838 Y68.6435
G01 Z-2.0000
G01 Z0
G00 Z2.0000
G00 X208.2838 Y66.1035
G01 Z-2.0000
G01 Z0
G00 Z2.0000
G00 X205.7438 Y66.1035
G01 Z-2.0000
G01 Z0
G00 Z2.0000
G00 X205.7438 Y63.5635
G01 Z-2.0000
G01 Z0
G00 Z2.0000
G00 X208.2838 Y63.5635
G01 Z-2.0000
G01 Z0
G00 Z2.0000
G00 X208.2838 Y61.0235
G01 Z-2.0000
G01 Z0
G00 Z2.0000
G00 X205.7438 Y61.0235
G01 Z-2.0000
G01 Z0
G00 Z2.0000
G00 X205.7438 Y58.4835
G01 Z-2.0000
G01 Z0
G00 Z2.0000
G00 X208.2838 Y58.4835
G01 Z-2.0000
G01 Z0
G00 Z2.0000
G00 X208.3435 Y55.9435
G01 Z-2.0000
G01 Z0
G00 Z2.0000
G00 X205.8035 Y55.9435
G01 Z-2.0000
G01 Z0
G00 Z2.0000
G00 X205.8035 Y53.4035
G01 Z-2.0000
G01 Z0
G00 Z2.0000
G00 X208.3435 Y53.4035
G01 Z-2.0000
G01 Z0
G00 Z2.0000
G00 X208.3435 Y50.8635
G01 Z-2.0000
G01 Z0
G00 Z2.0000
G00 X208.3435 Y48.3235
G01 Z-2.0000
G01 Z0
G00 Z2.0000
G00 X208.3435 Y45.7835
G01 Z-2.0000
G01 Z0
G00 Z2.0000
G00 X208.3435 Y43.2435
G01 Z-2.0000
G01 Z0
G00 Z2.0000
G00 X208.3435 Y40.7035
G01 Z-2.0000
G01 Z0
G00 Z2.0000
G00 X208.3435 Y38.1635
G01 Z-2.0000
G01 Z0
G00 Z2.0000
G00 X208.3435 Y35.6235
G01 Z-2.0000
G01 Z0
G00 Z2.0000
G00 X208.3435 Y33.0835
G01 Z-2.0000
G01 Z0
G00 Z2.0000
G00 X208.3435 Y30.5435
G01 Z-2.0000
G01 Z0
G00 Z2.0000
G00 X208.3435 Y28.0035
G01 Z-2.0000
G01 Z0
G00 Z2.0000
G00 X208.3435 Y25.4635
G01 Z-2.0000
G01 Z0
G00 Z2.0000
G00 X208.3435 Y22.9235
G01 Z-2.0000
G01 Z0
G00 Z2.0000
G00 X208.3435 Y20.3835
G01 Z-2.0000
G01 Z0
G00 Z2.0000
G00 X208.3435 Y17.8435
G01 Z-2.0000
G01 Z0
G00 Z2.0000
G00 X208.3435 Y15.3035
G01 Z-2.0000
G01 Z0
G00 Z2.0000
G00 X208.3435 Y12.7635
G01 Z-2.0000
G01 Z0
G00 Z2.0000
G00 X208.3435 Y10.2235
G01 Z-2.0000
G01 Z0
G00 Z2.0000
G00 X205.8035 Y10.2235
G01 Z-2.0000
G01 Z0
G00 Z2.0000
G00 X205.8035 Y12.7635
G01 Z-2.0000
G01 Z0
G00 Z2.0000
G00 X205.8035 Y15.3035
G01 Z-2.0000
G01 Z0
G00 Z2.0000
G00 X205.8035 Y17.8435
G01 Z-2.0000
G01 Z0
G00 Z2.0000
G00 X205.8035 Y20.3835
G01 Z-2.0000
G01 Z0
G00 Z2.0000
G00 X205.8035 Y22.9235
G01 Z-2.0000
G01 Z0
G00 Z2.0000
G00 X205.8035 Y25.4635
G01 Z-2.0000
G01 Z0
G00 Z2.0000
G00 X205.8035 Y28.0035
G01 Z-2.0000
G01 Z0
G00 Z2.0000
G00 X205.8035 Y30.5435
G01 Z-2.0000
G01 Z0
G00 Z2.0000
G00 X205.8035 Y33.0835
G01 Z-2.0000
G01 Z0
G00 Z2.0000
G00 X205.8035 Y35.6235
G01 Z-2.0000
G01 Z0
G00 Z2.0000
G00 X205.8035 Y38.1635
G01 Z-2.0000
G01 Z0
G00 Z2.0000
G00 X205.8035 Y40.7035
G01 Z-2.0000
G01 Z0
G00 Z2.0000
G00 X205.8035 Y43.2435
G01 Z-2.0000
G01 Z0
G00 Z2.0000
G00 X205.8035 Y45.7835
G01 Z-2.0000
G01 Z0
G00 Z2.0000
G00 X205.8035 Y48.3235
G01 Z-2.0000
G01 Z0
G00 Z2.0000
G00 X205.8035 Y50.8635
G01 Z-2.0000
G01 Z0
G00 Z2.0000
G00 X198.1835 Y43.2435
G01 Z-2.0000
G01 Z0
G00 Z2.0000
G00 X198.1835 Y40.7035
G01 Z-2.0000
G01 Z0
G00 Z2.0000
G00 X198.1835 Y38.1635
G01 Z-2.0000
G01 Z0
G00 Z2.0000
G00 X198.1835 Y35.6235
G01 Z-2.0000
G01 Z0
G00 Z2.0000
G00 X198.1835 Y33.0835
G01 Z-2.0000
G01 Z0
G00 Z2.0000
G00 X198.1835 Y30.5435
G01 Z-2.0000
G01 Z0
G00 Z2.0000
G00 X198.1835 Y28.0035
G01 Z-2.0000
G01 Z0
G00 Z2.0000
G00 X198.1835 Y25.4635
G01 Z-2.0000
G01 Z0
G00 Z2.0000
G00 X198.1835 Y22.9235
G01 Z-2.0000
G01 Z0
G00 Z2.0000
G00 X198.1835 Y20.3835
G01 Z-2.0000
G01 Z0
G00 Z2.0000
G00 X198.1835 Y17.8435
G01 Z-2.0000
G01 Z0
G00 Z2.0000
G00 X198.1835 Y15.3035
G01 Z-2.0000
G01 Z0
G00 Z2.0000
G00 X198.1835 Y12.7635
G01 Z-2.0000
G01 Z0
G00 Z2.0000
G00 X198.1835 Y10.2235
G01 Z-2.0000
G01 Z0
G00 Z2.0000
G00 X175.3235 Y5.1435
G01 Z-2.0000
G01 Z0
G00 Z2.0000
G00 X172.7835 Y5.1435
G01 Z-2.0000
G01 Z0
G00 Z2.0000
G00 X170.2435 Y5.1435
G01 Z-2.0000
G01 Z0
G00 Z2.0000
G00 X167.7035 Y5.1435
G01 Z-2.0000
G01 Z0
G00 Z2.0000
G00 X165.1635 Y5.1435
G01 Z-2.0000
G01 Z0
G00 Z2.0000
G00 X162.6235 Y5.1435
G01 Z-2.0000
G01 Z0
G00 Z2.0000
G00 X160.0835 Y5.1435
G01 Z-2.0000
G01 Z0
G00 Z2.0000
G00 X157.5435 Y5.1435
G01 Z-2.0000
G01 Z0
G00 Z2.0000
G00 X155.0035 Y5.1435
G01 Z-2.0000
G01 Z0
G00 Z2.0000
G00 X152.4635 Y5.1435
G01 Z-2.0000
G01 Z0
G00 Z2.0000
G00 X149.9235 Y5.1435
G01 Z-2.0000
G01 Z0
G00 Z2.0000
G00 X147.3835 Y5.1435
G01 Z-2.0000
G01 Z0
G00 Z2.0000
G00 X144.8435 Y5.1435
G01 Z-2.0000
G01 Z0
G00 Z2.0000
G00 X142.3035 Y5.1435
G01 Z-2.0000
G01 Z0
G00 Z2.0000
G00 X139.7635 Y5.1435
G01 Z-2.0000
G01 Z0
G00 Z2.0000
G00 X137.2235 Y5.1435
G01 Z-2.0000
G01 Z0
G00 Z2.0000
G00 X134.6835 Y5.1435
G01 Z-2.0000
G01 Z0
G00 Z2.0000
G00 X134.6835 Y17.8435
G01 Z-2.0000
G01 Z0
G00 Z2.0000
G00 X137.2235 Y17.8435
G01 Z-2.0000
G01 Z0
G00 Z2.0000
G00 X139.7635 Y17.8435
G01 Z-2.0000
G01 Z0
G00 Z2.0000
G00 X142.3035 Y17.8435
G01 Z-2.0000
G01 Z0
G00 Z2.0000
G00 X144.8435 Y17.8435
G01 Z-2.0000
G01 Z0
G00 Z2.0000
G00 X147.3835 Y17.8435
G01 Z-2.0000
G01 Z0
G00 Z2.0000
G00 X149.9235 Y17.8435
G01 Z-2.0000
G01 Z0
G00 Z2.0000
G00 X152.4635 Y17.8435
G01 Z-2.0000
G01 Z0
G00 Z2.0000
G00 X155.0035 Y17.8435
G01 Z-2.0000
G01 Z0
G00 Z2.0000
G00 X157.5435 Y17.8435
G01 Z-2.0000
G01 Z0
G00 Z2.0000
G00 X160.0835 Y17.8435
G01 Z-2.0000
G01 Z0
G00 Z2.0000
G00 X162.6235 Y17.8435
G01 Z-2.0000
G01 Z0
G00 Z2.0000
G00 X165.1635 Y17.8435
G01 Z-2.0000
G01 Z0
G00 Z2.0000
G00 X167.7035 Y17.8435
G01 Z-2.0000
G01 Z0
G00 Z2.0000
G00 X170.2435 Y17.8435
G01 Z-2.0000
G01 Z0
G00 Z2.0000
G00 X172.7835 Y17.8435
G01 Z-2.0000
G01 Z0
G00 Z2.0000
G00 X175.3235 Y17.8435
G01 Z-2.0000
G01 Z0
G00 Z2.0000
G00 X162.6235 Y30.5435
G01 Z-2.0000
G01 Z0
G00 Z2.0000
G00 X160.0835 Y30.4838
G01 Z-2.0000
G01 Z0
G00 Z2.0000
G00 X157.5435 Y30.4838
G01 Z-2.0000
G01 Z0
G00 Z2.0000
G00 X144.8435 Y30.5435
G01 Z-2.0000
G01 Z0
G00 Z2.0000
G00 X144.8435 Y33.0835
G01 Z-2.0000
G01 Z0
G00 Z2.0000
G00 X142.3035 Y33.0835
G01 Z-2.0000
G01 Z0
G00 Z2.0000
G00 X142.3035 Y30.5435
G01 Z-2.0000
G01 Z0
G00 Z2.0000
G00 X139.7635 Y30.5435
G01 Z-2.0000
G01 Z0
G00 Z2.0000
G00 X139.7635 Y33.0835
G01 Z-2.0000
G01 Z0
G00 Z2.0000
G00 X137.2235 Y33.0835
G01 Z-2.0000
G01 Z0
G00 Z2.0000
G00 X137.2235 Y30.5435
G01 Z-2.0000
G01 Z0
G00 Z2.0000
G00 X134.6835 Y30.5435
G01 Z-2.0000
G01 Z0
G00 Z2.0000
G00 X134.6835 Y33.0835
G01 Z-2.0000
G01 Z0
G00 Z2.0000
G00 X132.1435 Y33.0835
G01 Z-2.0000
G01 Z0
G00 Z2.0000
G00 X132.1435 Y30.5435
G01 Z-2.0000
G01 Z0
G00 Z2.0000
G00 X129.6035 Y30.5435
G01 Z-2.0000
G01 Z0
G00 Z2.0000
G00 X129.6035 Y33.0835
G01 Z-2.0000
G01 Z0
G00 Z2.0000
G00 X127.0635 Y33.0835
G01 Z-2.0000
G01 Z0
G00 Z2.0000
G00 X127.0635 Y30.5435
G01 Z-2.0000
G01 Z0
G00 Z2.0000
G00 X124.5235 Y30.5435
G01 Z-2.0000
G01 Z0
G00 Z2.0000
G00 X124.5235 Y33.0835
G01 Z-2.0000
G01 Z0
G00 Z2.0000
G00 X121.9835 Y33.0835
G01 Z-2.0000
G01 Z0
G00 Z2.0000
G00 X121.9835 Y30.5435
G01 Z-2.0000
G01 Z0
G00 Z2.0000
G00 X119.4435 Y30.5435
G01 Z-2.0000
G01 Z0
G00 Z2.0000
G00 X119.4435 Y33.0835
G01 Z-2.0000
G01 Z0
G00 Z2.0000
G00 X116.9035 Y30.5435
G01 Z-2.0000
G01 Z0
G00 Z2.0000
G00 X116.9035 Y33.0835
G01 Z-2.0000
G01 Z0
G00 Z2.0000
G00 X116.9035 Y40.7035
G01 Z-2.0000
G01 Z0
G00 Z2.0000
G00 X119.4435 Y40.7035
G01 Z-2.0000
G01 Z0
G00 Z2.0000
G00 X121.9835 Y40.7035
G01 Z-2.0000
G01 Z0
G00 Z2.0000
G00 X124.5235 Y40.7035
G01 Z-2.0000
G01 Z0
G00 Z2.0000
G00 X127.0635 Y40.7035
G01 Z-2.0000
G01 Z0
G00 Z2.0000
G00 X129.6035 Y40.7035
G01 Z-2.0000
G01 Z0
G00 Z2.0000
G00 X132.1435 Y40.7035
G01 Z-2.0000
G01 Z0
G00 Z2.0000
G00 X134.6835 Y40.7035
G01 Z-2.0000
G01 Z0
G00 Z2.0000
G00 X137.2235 Y40.7035
G01 Z-2.0000
G01 Z0
G00 Z2.0000
G00 X139.7635 Y40.7035
G01 Z-2.0000
G01 Z0
G00 Z2.0000
G00 X142.3035 Y40.7035
G01 Z-2.0000
G01 Z0
G00 Z2.0000
G00 X144.8435 Y40.7035
G01 Z-2.0000
G01 Z0
G00 Z2.0000
G00 X144.8435 Y43.2435
G01 Z-2.0000
G01 Z0
G00 Z2.0000
G00 X142.3035 Y43.2435
G01 Z-2.0000
G01 Z0
G00 Z2.0000
G00 X139.7635 Y43.2435
G01 Z-2.0000
G01 Z0
G00 Z2.0000
G00 X137.2235 Y43.2435
G01 Z-2.0000
G01 Z0
G00 Z2.0000
G00 X134.6835 Y43.2435
G01 Z-2.0000
G01 Z0
G00 Z2.0000
G00 X132.1435 Y43.2435
G01 Z-2.0000
G01 Z0
G00 Z2.0000
G00 X129.6035 Y43.2435
G01 Z-2.0000
G01 Z0
G00 Z2.0000
G00 X127.0635 Y43.2435
G01 Z-2.0000
G01 Z0
G00 Z2.0000
G00 X124.5235 Y43.2435
G01 Z-2.0000
G01 Z0
G00 Z2.0000
G00 X121.9835 Y43.2435
G01 Z-2.0000
G01 Z0
G00 Z2.0000
G00 X119.4435 Y43.2435
G01 Z-2.0000
G01 Z0
G00 Z2.0000
G00 X116.9035 Y43.2435
G01 Z-2.0000
G01 Z0
G00 Z2.0000
G00 X81.3435 Y30.5435
G01 Z-2.0000
G01 Z0
G00 Z2.0000
G00 X78.8035 Y30.5435
G01 Z-2.0000
G01 Z0
G00 Z2.0000
G00 X76.2635 Y30.5435
G01 Z-2.0000
G01 Z0
G00 Z2.0000
G00 X73.7235 Y30.5435
G01 Z-2.0000
G01 Z0
G00 Z2.0000
G00 X71.1835 Y30.5435
G01 Z-2.0000
G01 Z0
G00 Z2.0000
G00 X68.6435 Y30.5435
G01 Z-2.0000
G01 Z0
G00 Z2.0000
G00 X66.1035 Y30.5435
G01 Z-2.0000
G01 Z0
G00 Z2.0000
G00 X63.5635 Y30.5435
G01 Z-2.0000
G01 Z0
G00 Z2.0000
G00 X61.0235 Y30.5435
G01 Z-2.0000
G01 Z0
G00 Z2.0000
G00 X58.4835 Y30.5435
G01 Z-2.0000
G01 Z0
G00 Z2.0000
G00 X55.9435 Y30.5435
G01 Z-2.0000
G01 Z0
G00 Z2.0000
G00 X17.8435 Y35.6235
G01 Z-2.0000
G01 Z0
G00 Z2.0000
G00 X17.8435 Y33.0835
G01 Z-2.0000
G01 Z0
G00 Z2.0000
G00 X17.8435 Y30.5435
G01 Z-2.0000
G01 Z0
G00 Z2.0000
G00 X15.3035 Y30.5435
G01 Z-2.0000
G01 Z0
G00 Z2.0000
G00 X15.3035 Y33.0835
G01 Z-2.0000
G01 Z0
G00 Z2.0000
G00 X7.6835 Y33.0835
G01 Z-2.0000
G01 Z0
G00 Z2.0000
G00 X7.6835 Y30.5435
G01 Z-2.0000
G01 Z0
G00 Z2.0000
M05
G00 Z0.50


