(G-CODE GENERATED BY FLATCAM v8.994 - www.flatcam.org - Version Date: 2020/11/7)

(Name: Conn2 - Outline.gbr_iso_combined_cnc)
(Type: G-code from Geometry)
(Units: MM)

(Created on Monday, 09 December 2024 at 10:51)

(This preprocessor is the default preprocessor used by FlatCAM.)
(It is made to work with MACH3 compatible motion controllers.)

(TOOL DIAMETER: 1.5 mm)
(Feedrate_XY: 120.0 mm/min)
(Feedrate_Z: 60.0 mm/min)
(Feedrate rapids 1500.0 mm/min)

(Z_Cut: -2.4 mm)
(Z_Move: 2.0 mm)
(Z Start: None mm)
(Z End: 15.0 mm)
(X,Y End: None mm)
(Steps per circle: 64)
(Preprocessor Geometry: default)

(X range:   -0.7500 ...  214.2370  mm)
(Y range:   -0.7500 ...   94.8570  mm)

(Spindle Speed: 0.0 RPM)
G21
G90
G94

G01 F120.00
G00 Z15.0000

M03
G01 F120.00
G00 X5.9580 Y7.6835
G01 F60.00
G01 Z-2.4000
G01 F120.00
G01 X5.9785 Y8.1016
G01 X6.0400 Y8.5157
G01 X6.1417 Y8.9217
G01 X6.2827 Y9.3158
G01 X6.4617 Y9.6942
G01 X6.6769 Y10.0533
G01 X6.9262 Y10.3895
G01 X7.2073 Y10.6997
G01 X7.5175 Y10.9808
G01 X7.8537 Y11.2301
G01 X8.2128 Y11.4453
G01 X8.5912 Y11.6243
G01 X8.9853 Y11.7653
G01 X9.3913 Y11.8670
G01 X9.8054 Y11.9285
G01 X10.2235 Y11.9490
G01 X10.6416 Y11.9285
G01 X11.0557 Y11.8670
G01 X11.4617 Y11.7653
G01 X11.8558 Y11.6243
G01 X12.2342 Y11.4453
G01 X12.5933 Y11.2301
G01 X12.9295 Y10.9808
G01 X13.2397 Y10.6997
G01 X13.5208 Y10.3895
G01 X13.7701 Y10.0533
G01 X13.9853 Y9.6942
G01 X14.1643 Y9.3158
G01 X14.3053 Y8.9217
G01 X14.4070 Y8.5157
G01 X14.4685 Y8.1016
G01 X14.4890 Y7.6835
G01 X14.4685 Y7.2654
G01 X14.4070 Y6.8513
G01 X14.3053 Y6.4453
G01 X14.1643 Y6.0512
G01 X13.9853 Y5.6728
G01 X13.7701 Y5.3137
G01 X13.5208 Y4.9775
G01 X13.2397 Y4.6673
G01 X12.9295 Y4.3862
G01 X12.5933 Y4.1369
G01 X12.2342 Y3.9217
G01 X11.8558 Y3.7427
G01 X11.4617 Y3.6017
G01 X11.0557 Y3.5000
G01 X10.6416 Y3.4385
G01 X10.2235 Y3.4180
G01 X9.8054 Y3.4385
G01 X9.3913 Y3.5000
G01 X8.9853 Y3.6017
G01 X8.5912 Y3.7427
G01 X8.2128 Y3.9217
G01 X7.8537 Y4.1369
G01 X7.5175 Y4.3862
G01 X7.2073 Y4.6673
G01 X6.9262 Y4.9775
G01 X6.6769 Y5.3137
G01 X6.4617 Y5.6728
G01 X6.2827 Y6.0512
G01 X6.1417 Y6.4453
G01 X6.0400 Y6.8513
G01 X5.9785 Y7.2654
G01 X5.9580 Y7.6835
G00 Z2.0000
G00 X21.1980 Y7.6835
G01 F60.00
G01 Z-2.4000
G01 F120.00
G01 X21.2185 Y8.1016
G01 X21.2800 Y8.5157
G01 X21.3817 Y8.9217
G01 X21.5227 Y9.3158
G01 X21.7017 Y9.6942
G01 X21.9169 Y10.0533
G01 X22.1662 Y10.3895
G01 X22.4473 Y10.6997
G01 X22.7575 Y10.9808
G01 X23.0937 Y11.2301
G01 X23.4528 Y11.4453
G01 X23.8312 Y11.6243
G01 X24.2253 Y11.7653
G01 X24.6313 Y11.8670
G01 X25.0454 Y11.9285
G01 X25.4635 Y11.9490
G01 X25.8816 Y11.9285
G01 X26.2957 Y11.8670
G01 X26.7017 Y11.7653
G01 X27.0958 Y11.6243
G01 X27.4742 Y11.4453
G01 X27.8333 Y11.2301
G01 X28.1695 Y10.9808
G01 X28.4797 Y10.6997
G01 X28.7608 Y10.3895
G01 X29.0101 Y10.0533
G01 X29.2253 Y9.6942
G01 X29.4043 Y9.3158
G01 X29.5453 Y8.9217
G01 X29.6470 Y8.5157
G01 X29.7085 Y8.1016
G01 X29.7290 Y7.6835
G01 X29.7085 Y7.2654
G01 X29.6470 Y6.8513
G01 X29.5453 Y6.4453
G01 X29.4043 Y6.0512
G01 X29.2253 Y5.6728
G01 X29.0101 Y5.3137
G01 X28.7608 Y4.9775
G01 X28.4797 Y4.6673
G01 X28.1695 Y4.3862
G01 X27.8333 Y4.1369
G01 X27.4742 Y3.9217
G01 X27.0958 Y3.7427
G01 X26.7017 Y3.6017
G01 X26.2957 Y3.5000
G01 X25.8816 Y3.4385
G01 X25.4635 Y3.4180
G01 X25.0454 Y3.4385
G01 X24.6313 Y3.5000
G01 X24.2253 Y3.6017
G01 X23.8312 Y3.7427
G01 X23.4528 Y3.9217
G01 X23.0937 Y4.1369
G01 X22.7575 Y4.3862
G01 X22.4473 Y4.6673
G01 X22.1662 Y4.9775
G01 X21.9169 Y5.3137
G01 X21.7017 Y5.6728
G01 X21.5227 Y6.0512
G01 X21.3817 Y6.4453
G01 X21.2800 Y6.8513
G01 X21.2185 Y7.2654
G01 X21.1980 Y7.6835
G00 Z2.0000
G00 X36.4380 Y7.6835
G01 F60.00
G01 Z-2.4000
G01 F120.00
G01 X36.4585 Y8.1016
G01 X36.5200 Y8.5157
G01 X36.6217 Y8.9217
G01 X36.7627 Y9.3158
G01 X36.9417 Y9.6942
G01 X37.1569 Y10.0533
G01 X37.4062 Y10.3895
G01 X37.6873 Y10.6997
G01 X37.9975 Y10.9808
G01 X38.3337 Y11.2301
G01 X38.6928 Y11.4453
G01 X39.0712 Y11.6243
G01 X39.4653 Y11.7653
G01 X39.8713 Y11.8670
G01 X40.2854 Y11.9285
G01 X40.7035 Y11.9490
G01 X41.1216 Y11.9285
G01 X41.5357 Y11.8670
G01 X41.9417 Y11.7653
G01 X42.3358 Y11.6243
G01 X42.7142 Y11.4453
G01 X43.0733 Y11.2301
G01 X43.4095 Y10.9808
G01 X43.7197 Y10.6997
G01 X44.0008 Y10.3895
G01 X44.2501 Y10.0533
G01 X44.4653 Y9.6942
G01 X44.6443 Y9.3158
G01 X44.7853 Y8.9217
G01 X44.8870 Y8.5157
G01 X44.9485 Y8.1016
G01 X44.9690 Y7.6835
G01 X44.9485 Y7.2654
G01 X44.8870 Y6.8513
G01 X44.7853 Y6.4453
G01 X44.6443 Y6.0512
G01 X44.4653 Y5.6728
G01 X44.2501 Y5.3137
G01 X44.0008 Y4.9775
G01 X43.7197 Y4.6673
G01 X43.4095 Y4.3862
G01 X43.0733 Y4.1369
G01 X42.7142 Y3.9217
G01 X42.3358 Y3.7427
G01 X41.9417 Y3.6017
G01 X41.5357 Y3.5000
G01 X41.1216 Y3.4385
G01 X40.7035 Y3.4180
G01 X40.2854 Y3.4385
G01 X39.8713 Y3.5000
G01 X39.4653 Y3.6017
G01 X39.0712 Y3.7427
G01 X38.6928 Y3.9217
G01 X38.3337 Y4.1369
G01 X37.9975 Y4.3862
G01 X37.6873 Y4.6673
G01 X37.4062 Y4.9775
G01 X37.1569 Y5.3137
G01 X36.9417 Y5.6728
G01 X36.7627 Y6.0512
G01 X36.6217 Y6.4453
G01 X36.5200 Y6.8513
G01 X36.4585 Y7.2654
G01 X36.4380 Y7.6835
G00 Z2.0000
G00 X51.6780 Y7.6835
G01 F60.00
G01 Z-2.4000
G01 F120.00
G01 X51.6985 Y8.1016
G01 X51.7600 Y8.5157
G01 X51.8617 Y8.9217
G01 X52.0027 Y9.3158
G01 X52.1817 Y9.6942
G01 X52.3969 Y10.0533
G01 X52.6462 Y10.3895
G01 X52.9273 Y10.6997
G01 X53.2375 Y10.9808
G01 X53.5737 Y11.2301
G01 X53.9328 Y11.4453
G01 X54.3112 Y11.6243
G01 X54.7053 Y11.7653
G01 X55.1113 Y11.8670
G01 X55.5254 Y11.9285
G01 X55.9435 Y11.9490
G01 X56.3616 Y11.9285
G01 X56.7757 Y11.8670
G01 X57.1817 Y11.7653
G01 X57.5758 Y11.6243
G01 X57.9542 Y11.4453
G01 X58.3133 Y11.2301
G01 X58.6495 Y10.9808
G01 X58.9597 Y10.6997
G01 X59.2408 Y10.3895
G01 X59.4901 Y10.0533
G01 X59.7053 Y9.6942
G01 X59.8843 Y9.3158
G01 X60.0253 Y8.9217
G01 X60.1270 Y8.5157
G01 X60.1885 Y8.1016
G01 X60.2090 Y7.6835
G01 X60.1885 Y7.2654
G01 X60.1270 Y6.8513
G01 X60.0253 Y6.4453
G01 X59.8843 Y6.0512
G01 X59.7053 Y5.6728
G01 X59.4901 Y5.3137
G01 X59.2408 Y4.9775
G01 X58.9597 Y4.6673
G01 X58.6495 Y4.3862
G01 X58.3133 Y4.1369
G01 X57.9542 Y3.9217
G01 X57.5758 Y3.7427
G01 X57.1817 Y3.6017
G01 X56.7757 Y3.5000
G01 X56.3616 Y3.4385
G01 X55.9435 Y3.4180
G01 X55.5254 Y3.4385
G01 X55.1113 Y3.5000
G01 X54.7053 Y3.6017
G01 X54.3112 Y3.7427
G01 X53.9328 Y3.9217
G01 X53.5737 Y4.1369
G01 X53.2375 Y4.3862
G01 X52.9273 Y4.6673
G01 X52.6462 Y4.9775
G01 X52.3969 Y5.3137
G01 X52.1817 Y5.6728
G01 X52.0027 Y6.0512
G01 X51.8617 Y6.4453
G01 X51.7600 Y6.8513
G01 X51.6985 Y7.2654
G01 X51.6780 Y7.6835
G00 Z2.0000
G00 X66.9180 Y7.6835
G01 F60.00
G01 Z-2.4000
G01 F120.00
G01 X66.9385 Y8.1016
G01 X67.0000 Y8.5157
G01 X67.1017 Y8.9217
G01 X67.2427 Y9.3158
G01 X67.4217 Y9.6942
G01 X67.6369 Y10.0533
G01 X67.8862 Y10.3895
G01 X68.1673 Y10.6997
G01 X68.4775 Y10.9808
G01 X68.8137 Y11.2301
G01 X69.1728 Y11.4453
G01 X69.5512 Y11.6243
G01 X69.9453 Y11.7653
G01 X70.3513 Y11.8670
G01 X70.7654 Y11.9285
G01 X71.1835 Y11.9490
G01 X71.6016 Y11.9285
G01 X72.0157 Y11.8670
G01 X72.4217 Y11.7653
G01 X72.8158 Y11.6243
G01 X73.1942 Y11.4453
G01 X73.5533 Y11.2301
G01 X73.8895 Y10.9808
G01 X74.1997 Y10.6997
G01 X74.4808 Y10.3895
G01 X74.7301 Y10.0533
G01 X74.9453 Y9.6942
G01 X75.1243 Y9.3158
G01 X75.2653 Y8.9217
G01 X75.3670 Y8.5157
G01 X75.4285 Y8.1016
G01 X75.4490 Y7.6835
G01 X75.4285 Y7.2654
G01 X75.3670 Y6.8513
G01 X75.2653 Y6.4453
G01 X75.1243 Y6.0512
G01 X74.9453 Y5.6728
G01 X74.7301 Y5.3137
G01 X74.4808 Y4.9775
G01 X74.1997 Y4.6673
G01 X73.8895 Y4.3862
G01 X73.5533 Y4.1369
G01 X73.1942 Y3.9217
G01 X72.8158 Y3.7427
G01 X72.4217 Y3.6017
G01 X72.0157 Y3.5000
G01 X71.6016 Y3.4385
G01 X71.1835 Y3.4180
G01 X70.7654 Y3.4385
G01 X70.3513 Y3.5000
G01 X69.9453 Y3.6017
G01 X69.5512 Y3.7427
G01 X69.1728 Y3.9217
G01 X68.8137 Y4.1369
G01 X68.4775 Y4.3862
G01 X68.1673 Y4.6673
G01 X67.8862 Y4.9775
G01 X67.6369 Y5.3137
G01 X67.4217 Y5.6728
G01 X67.2427 Y6.0512
G01 X67.1017 Y6.4453
G01 X67.0000 Y6.8513
G01 X66.9385 Y7.2654
G01 X66.9180 Y7.6835
G00 Z2.0000
G00 X82.1580 Y7.6835
G01 F60.00
G01 Z-2.4000
G01 F120.00
G01 X82.1785 Y8.1016
G01 X82.2400 Y8.5157
G01 X82.3417 Y8.9217
G01 X82.4827 Y9.3158
G01 X82.6617 Y9.6942
G01 X82.8769 Y10.0533
G01 X83.1262 Y10.3895
G01 X83.4073 Y10.6997
G01 X83.7175 Y10.9808
G01 X84.0537 Y11.2301
G01 X84.4128 Y11.4453
G01 X84.7912 Y11.6243
G01 X85.1853 Y11.7653
G01 X85.5913 Y11.8670
G01 X86.0054 Y11.9285
G01 X86.4235 Y11.9490
G01 X86.8416 Y11.9285
G01 X87.2557 Y11.8670
G01 X87.6617 Y11.7653
G01 X88.0558 Y11.6243
G01 X88.4342 Y11.4453
G01 X88.7933 Y11.2301
G01 X89.1295 Y10.9808
G01 X89.4397 Y10.6997
G01 X89.7208 Y10.3895
G01 X89.9701 Y10.0533
G01 X90.1853 Y9.6942
G01 X90.3643 Y9.3158
G01 X90.5053 Y8.9217
G01 X90.6070 Y8.5157
G01 X90.6685 Y8.1016
G01 X90.6890 Y7.6835
G01 X90.6685 Y7.2654
G01 X90.6070 Y6.8513
G01 X90.5053 Y6.4453
G01 X90.3643 Y6.0512
G01 X90.1853 Y5.6728
G01 X89.9701 Y5.3137
G01 X89.7208 Y4.9775
G01 X89.4397 Y4.6673
G01 X89.1295 Y4.3862
G01 X88.7933 Y4.1369
G01 X88.4342 Y3.9217
G01 X88.0558 Y3.7427
G01 X87.6617 Y3.6017
G01 X87.2557 Y3.5000
G01 X86.8416 Y3.4385
G01 X86.4235 Y3.4180
G01 X86.0054 Y3.4385
G01 X85.5913 Y3.5000
G01 X85.1853 Y3.6017
G01 X84.7912 Y3.7427
G01 X84.4128 Y3.9217
G01 X84.0537 Y4.1369
G01 X83.7175 Y4.3862
G01 X83.4073 Y4.6673
G01 X83.1262 Y4.9775
G01 X82.8769 Y5.3137
G01 X82.6617 Y5.6728
G01 X82.4827 Y6.0512
G01 X82.3417 Y6.4453
G01 X82.2400 Y6.8513
G01 X82.1785 Y7.2654
G01 X82.1580 Y7.6835
G00 Z2.0000
G00 X97.3980 Y7.6835
G01 F60.00
G01 Z-2.4000
G01 F120.00
G01 X97.4185 Y8.1016
G01 X97.4800 Y8.5157
G01 X97.5817 Y8.9217
G01 X97.7227 Y9.3158
G01 X97.9017 Y9.6942
G01 X98.1169 Y10.0533
G01 X98.3662 Y10.3895
G01 X98.6473 Y10.6997
G01 X98.9575 Y10.9808
G01 X99.2937 Y11.2301
G01 X99.6528 Y11.4453
G01 X100.0312 Y11.6243
G01 X100.4253 Y11.7653
G01 X100.8313 Y11.8670
G01 X101.2454 Y11.9285
G01 X101.6635 Y11.9490
G01 X102.0816 Y11.9285
G01 X102.4957 Y11.8670
G01 X102.9017 Y11.7653
G01 X103.2958 Y11.6243
G01 X103.6742 Y11.4453
G01 X104.0333 Y11.2301
G01 X104.3695 Y10.9808
G01 X104.6797 Y10.6997
G01 X104.9608 Y10.3895
G01 X105.2101 Y10.0533
G01 X105.4253 Y9.6942
G01 X105.6043 Y9.3158
G01 X105.7453 Y8.9217
G01 X105.8470 Y8.5157
G01 X105.9085 Y8.1016
G01 X105.9290 Y7.6835
G01 X105.9085 Y7.2654
G01 X105.8470 Y6.8513
G01 X105.7453 Y6.4453
G01 X105.6043 Y6.0512
G01 X105.4253 Y5.6728
G01 X105.2101 Y5.3137
G01 X104.9608 Y4.9775
G01 X104.6797 Y4.6673
G01 X104.3695 Y4.3862
G01 X104.0333 Y4.1369
G01 X103.6742 Y3.9217
G01 X103.2958 Y3.7427
G01 X102.9017 Y3.6017
G01 X102.4957 Y3.5000
G01 X102.0816 Y3.4385
G01 X101.6635 Y3.4180
G01 X101.2454 Y3.4385
G01 X100.8313 Y3.5000
G01 X100.4253 Y3.6017
G01 X100.0312 Y3.7427
G01 X99.6528 Y3.9217
G01 X99.2937 Y4.1369
G01 X98.9575 Y4.3862
G01 X98.6473 Y4.6673
G01 X98.3662 Y4.9775
G01 X98.1169 Y5.3137
G01 X97.9017 Y5.6728
G01 X97.7227 Y6.0512
G01 X97.5817 Y6.4453
G01 X97.4800 Y6.8513
G01 X97.4185 Y7.2654
G01 X97.3980 Y7.6835
G00 Z2.0000
G00 X112.6380 Y7.6835
G01 F60.00
G01 Z-2.4000
G01 F120.00
G01 X112.6585 Y8.1016
G01 X112.7200 Y8.5157
G01 X112.8217 Y8.9217
G01 X112.9627 Y9.3158
G01 X113.1417 Y9.6942
G01 X113.3569 Y10.0533
G01 X113.6062 Y10.3895
G01 X113.8873 Y10.6997
G01 X114.1975 Y10.9808
G01 X114.5337 Y11.2301
G01 X114.8928 Y11.4453
G01 X115.2712 Y11.6243
G01 X115.6653 Y11.7653
G01 X116.0713 Y11.8670
G01 X116.4854 Y11.9285
G01 X116.9035 Y11.9490
G01 X117.3216 Y11.9285
G01 X117.7357 Y11.8670
G01 X118.1417 Y11.7653
G01 X118.5358 Y11.6243
G01 X118.9142 Y11.4453
G01 X119.2733 Y11.2301
G01 X119.6095 Y10.9808
G01 X119.9197 Y10.6997
G01 X120.2008 Y10.3895
G01 X120.4501 Y10.0533
G01 X120.6653 Y9.6942
G01 X120.8443 Y9.3158
G01 X120.9853 Y8.9217
G01 X121.0870 Y8.5157
G01 X121.1485 Y8.1016
G01 X121.1690 Y7.6835
G01 X121.1485 Y7.2654
G01 X121.0870 Y6.8513
G01 X120.9853 Y6.4453
G01 X120.8443 Y6.0512
G01 X120.6653 Y5.6728
G01 X120.4501 Y5.3137
G01 X120.2008 Y4.9775
G01 X119.9197 Y4.6673
G01 X119.6095 Y4.3862
G01 X119.2733 Y4.1369
G01 X118.9142 Y3.9217
G01 X118.5358 Y3.7427
G01 X118.1417 Y3.6017
G01 X117.7357 Y3.5000
G01 X117.3216 Y3.4385
G01 X116.9035 Y3.4180
G01 X116.4854 Y3.4385
G01 X116.0713 Y3.5000
G01 X115.6653 Y3.6017
G01 X115.2712 Y3.7427
G01 X114.8928 Y3.9217
G01 X114.5337 Y4.1369
G01 X114.1975 Y4.3862
G01 X113.8873 Y4.6673
G01 X113.6062 Y4.9775
G01 X113.3569 Y5.3137
G01 X113.1417 Y5.6728
G01 X112.9627 Y6.0512
G01 X112.8217 Y6.4453
G01 X112.7200 Y6.8513
G01 X112.6585 Y7.2654
G01 X112.6380 Y7.6835
G00 Z2.0000
G00 X128.7900 Y22.9235
G01 F60.00
G01 Z-2.4000
G01 F120.00
G01 X128.7902 Y0.0451
G01 X128.7912 Y0.0205
G01 X128.7939 Y-0.0162
G01 X128.7959 Y-0.0345
G01 X128.7993 Y-0.0589
G01 X128.8056 Y-0.0952
G01 X128.8094 Y-0.1132
G01 X128.8152 Y-0.1372
G01 X128.8250 Y-0.1727
G01 X128.8365 Y-0.2076
G01 X128.8451 Y-0.2307
G01 X128.8591 Y-0.2647
G01 X128.8695 Y-0.2871
G01 X128.8776 Y-0.3037
G01 X128.8949 Y-0.3361
G01 X128.9074 Y-0.3574
G01 X128.9271 Y-0.3885
G01 X128.9483 Y-0.4186
G01 X128.9631 Y-0.4382
G01 X128.9865 Y-0.4667
G01 X128.9987 Y-0.4805
G01 X129.0154 Y-0.4986
G01 X129.0414 Y-0.5246
G01 X129.0595 Y-0.5413
G01 X129.0874 Y-0.5654
G01 X129.1164 Y-0.5880
G01 X129.1363 Y-0.6025
G01 X129.1515 Y-0.6129
G01 X129.1826 Y-0.6326
G01 X129.2039 Y-0.6451
G01 X129.2200 Y-0.6540
G01 X129.2529 Y-0.6705
G01 X129.2753 Y-0.6809
G01 X129.2922 Y-0.6881
G01 X129.3265 Y-0.7014
G01 X129.3498 Y-0.7094
G01 X129.3673 Y-0.7150
G01 X129.4028 Y-0.7248
G01 X129.4268 Y-0.7306
G01 X129.4448 Y-0.7344
G01 X129.4811 Y-0.7407
G01 X129.5055 Y-0.7441
G01 X129.5238 Y-0.7461
G01 X129.5421 Y-0.7477
G01 X129.5667 Y-0.7491
G01 X129.6035 Y-0.7500
G01 X180.4035 Y-0.7500
G01 X180.4403 Y-0.7491
G01 X180.4649 Y-0.7477
G01 X180.5015 Y-0.7441
G01 X180.5198 Y-0.7416
G01 X180.5441 Y-0.7378
G01 X180.5802 Y-0.7306
G01 X180.6042 Y-0.7248
G01 X180.6397 Y-0.7150
G01 X180.6746 Y-0.7035
G01 X180.6977 Y-0.6949
G01 X180.7317 Y-0.6809
G01 X180.7485 Y-0.6732
G01 X180.7707 Y-0.6624
G01 X180.8031 Y-0.6451
G01 X180.8244 Y-0.6326
G01 X180.8555 Y-0.6129
G01 X180.8856 Y-0.5917
G01 X180.9052 Y-0.5769
G01 X180.9337 Y-0.5535
G01 X180.9475 Y-0.5413
G01 X180.9656 Y-0.5246
G01 X180.9916 Y-0.4986
G01 X181.0083 Y-0.4805
G01 X181.0324 Y-0.4526
G01 X181.0550 Y-0.4236
G01 X181.0695 Y-0.4037
G01 X181.0799 Y-0.3885
G01 X181.0996 Y-0.3574
G01 X181.1121 Y-0.3361
G01 X181.1210 Y-0.3200
G01 X181.1375 Y-0.2871
G01 X181.1479 Y-0.2647
G01 X181.1619 Y-0.2307
G01 X181.1684 Y-0.2135
G01 X181.1764 Y-0.1902
G01 X181.1820 Y-0.1727
G01 X181.1871 Y-0.1550
G01 X181.1933 Y-0.1311
G01 X181.2014 Y-0.0952
G01 X181.2077 Y-0.0589
G01 X181.2111 Y-0.0345
G01 X181.2131 Y-0.0162
G01 X181.2147 Y0.0021
G01 X181.2161 Y0.0267
G01 X181.2170 Y0.0635
G01 X181.2168 Y22.9419
G01 X181.2158 Y22.9665
G01 X181.2131 Y23.0032
G01 X181.2111 Y23.0215
G01 X181.2077 Y23.0459
G01 X181.2014 Y23.0822
G01 X181.1976 Y23.1002
G01 X181.1918 Y23.1242
G01 X181.1820 Y23.1597
G01 X181.1705 Y23.1946
G01 X181.1619 Y23.2177
G01 X181.1479 Y23.2517
G01 X181.1402 Y23.2685
G01 X181.1294 Y23.2907
G01 X181.1121 Y23.3231
G01 X181.0996 Y23.3444
G01 X181.0799 Y23.3755
G01 X181.0587 Y23.4056
G01 X181.0439 Y23.4252
G01 X181.0205 Y23.4537
G01 X181.0083 Y23.4675
G01 X180.9916 Y23.4856
G01 X180.9656 Y23.5116
G01 X180.9475 Y23.5283
G01 X180.9196 Y23.5524
G01 X180.8906 Y23.5750
G01 X180.8707 Y23.5895
G01 X180.8400 Y23.6100
G01 X180.8244 Y23.6196
G01 X180.8031 Y23.6321
G01 X180.7870 Y23.6410
G01 X180.7541 Y23.6575
G01 X180.7317 Y23.6679
G01 X180.6977 Y23.6819
G01 X180.6805 Y23.6884
G01 X180.6572 Y23.6964
G01 X180.6397 Y23.7020
G01 X180.6042 Y23.7118
G01 X180.5802 Y23.7176
G01 X180.5622 Y23.7214
G01 X180.5259 Y23.7277
G01 X180.5015 Y23.7311
G01 X180.4832 Y23.7331
G01 X180.4649 Y23.7347
G01 X180.4403 Y23.7361
G01 X180.4035 Y23.7370
G01 X129.5851 Y23.7368
G01 X129.5605 Y23.7358
G01 X129.5238 Y23.7331
G01 X129.4872 Y23.7286
G01 X129.4629 Y23.7248
G01 X129.4448 Y23.7214
G01 X129.4268 Y23.7176
G01 X129.4028 Y23.7118
G01 X129.3673 Y23.7020
G01 X129.3498 Y23.6964
G01 X129.3265 Y23.6884
G01 X129.2922 Y23.6751
G01 X129.2585 Y23.6602
G01 X129.2363 Y23.6494
G01 X129.2200 Y23.6410
G01 X129.2039 Y23.6321
G01 X129.1826 Y23.6196
G01 X129.1515 Y23.5999
G01 X129.1363 Y23.5895
G01 X129.1164 Y23.5750
G01 X129.0874 Y23.5524
G01 X129.0595 Y23.5283
G01 X129.0414 Y23.5116
G01 X129.0282 Y23.4988
G01 X129.0154 Y23.4856
G01 X128.9987 Y23.4675
G01 X128.9746 Y23.4396
G01 X128.9631 Y23.4252
G01 X128.9483 Y23.4056
G01 X128.9271 Y23.3755
G01 X128.9074 Y23.3444
G01 X128.8949 Y23.3231
G01 X128.8860 Y23.3070
G01 X128.8776 Y23.2907
G01 X128.8668 Y23.2685
G01 X128.8519 Y23.2348
G01 X128.8386 Y23.2005
G01 X128.8306 Y23.1772
G01 X128.8250 Y23.1597
G01 X128.8199 Y23.1420
G01 X128.8137 Y23.1181
G01 X128.8056 Y23.0822
G01 X128.7993 Y23.0459
G01 X128.7959 Y23.0215
G01 X128.7939 Y23.0032
G01 X128.7923 Y22.9849
G01 X128.7909 Y22.9603
G01 X128.7900 Y22.9235
G00 Z2.0000
G00 X101.6835 Y36.4367
G01 F60.00
G01 Z-2.4000
G01 F120.00
G01 X101.6635 Y36.4370
G01 X96.5651 Y36.4368
G01 X96.5436 Y36.4360
G01 X96.0457 Y36.4116
G01 X96.0089 Y36.4089
G01 X95.9844 Y36.4062
G01 X95.9662 Y36.4038
G01 X95.4549 Y36.3277
G01 X95.4307 Y36.3231
G01 X95.3948 Y36.3150
G01 X94.9112 Y36.1939
G01 X94.8757 Y36.1841
G01 X94.8522 Y36.1767
G01 X94.8348 Y36.1707
G01 X94.3654 Y36.0028
G01 X94.3481 Y35.9964
G01 X94.3253 Y35.9871
G01 X94.2916 Y35.9722
G01 X93.8410 Y35.7591
G01 X93.8081 Y35.7425
G01 X93.7865 Y35.7307
G01 X93.7706 Y35.7214
G01 X93.3430 Y35.4652
G01 X93.3119 Y35.4455
G01 X93.2915 Y35.4316
G01 X93.2766 Y35.4208
G01 X92.8762 Y35.1238
G01 X92.8615 Y35.1127
G01 X92.8423 Y35.0972
G01 X92.8144 Y35.0732
G01 X92.4451 Y34.7384
G01 X92.4184 Y34.7130
G01 X92.4011 Y34.6954
G01 X92.3886 Y34.6819
G01 X92.0538 Y34.3126
G01 X92.0298 Y34.2847
G01 X92.0143 Y34.2655
G01 X92.0032 Y34.2508
G01 X91.7062 Y33.8504
G01 X91.6954 Y33.8355
G01 X91.6815 Y33.8151
G01 X91.6618 Y33.7840
G01 X91.4056 Y33.3564
G01 X91.3874 Y33.3244
G01 X91.3760 Y33.3026
G01 X91.3679 Y33.2860
G01 X91.1548 Y32.8354
G01 X91.1399 Y32.8017
G01 X91.1306 Y32.7789
G01 X91.1242 Y32.7616
G01 X90.9563 Y32.2922
G01 X90.9447 Y32.2573
G01 X90.9378 Y32.2336
G01 X90.9331 Y32.2158
G01 X90.8120 Y31.7322
G01 X90.8077 Y31.7143
G01 X90.8027 Y31.6902
G01 X90.7964 Y31.6539
G01 X90.7232 Y31.1608
G01 X90.7187 Y31.1243
G01 X90.7165 Y31.0997
G01 X90.7154 Y31.0813
G01 X90.6910 Y30.5834
G01 X90.6902 Y30.5619
G01 X90.6900 Y25.4835
G01 X90.6685 Y25.0454
G01 X90.6070 Y24.6313
G01 X90.5053 Y24.2253
G01 X90.3643 Y23.8312
G01 X90.1853 Y23.4528
G01 X89.9701 Y23.0937
G01 X89.7208 Y22.7575
G01 X89.4397 Y22.4473
G01 X89.1295 Y22.1662
G01 X88.7933 Y21.9169
G01 X88.4342 Y21.7017
G01 X88.0558 Y21.5227
G01 X87.6617 Y21.3817
G01 X87.2557 Y21.2800
G01 X86.8416 Y21.2185
G01 X86.4035 Y21.1970
G01 X50.8835 Y21.1970
G01 X50.4454 Y21.2185
G01 X50.0313 Y21.2800
G01 X49.6253 Y21.3817
G01 X49.2312 Y21.5227
G01 X48.8528 Y21.7017
G01 X48.4937 Y21.9169
G01 X48.1575 Y22.1662
G01 X47.8473 Y22.4473
G01 X47.5662 Y22.7575
G01 X47.3169 Y23.0937
G01 X47.1017 Y23.4528
G01 X46.9227 Y23.8312
G01 X46.7817 Y24.2253
G01 X46.6800 Y24.6313
G01 X46.6185 Y25.0454
G01 X46.5970 Y25.4835
G01 X46.5968 Y30.5619
G01 X46.5960 Y30.5834
G01 X46.5716 Y31.0813
G01 X46.5689 Y31.1181
G01 X46.5662 Y31.1426
G01 X46.5638 Y31.1608
G01 X46.4877 Y31.6721
G01 X46.4831 Y31.6963
G01 X46.4750 Y31.7322
G01 X46.3539 Y32.2158
G01 X46.3441 Y32.2513
G01 X46.3367 Y32.2748
G01 X46.3307 Y32.2922
G01 X46.1628 Y32.7616
G01 X46.1564 Y32.7789
G01 X46.1471 Y32.8017
G01 X46.1322 Y32.8354
G01 X45.9191 Y33.2860
G01 X45.9025 Y33.3189
G01 X45.8907 Y33.3405
G01 X45.8814 Y33.3564
G01 X45.6252 Y33.7840
G01 X45.6055 Y33.8151
G01 X45.5916 Y33.8355
G01 X45.5808 Y33.8504
G01 X45.2838 Y34.2508
G01 X45.2612 Y34.2799
G01 X45.2454 Y34.2988
G01 X45.2332 Y34.3126
G01 X44.8984 Y34.6819
G01 X44.8730 Y34.7086
G01 X44.8554 Y34.7259
G01 X44.4726 Y35.0732
G01 X44.4588 Y35.0854
G01 X44.4399 Y35.1012
G01 X44.4108 Y35.1238
G01 X44.0104 Y35.4208
G01 X43.9803 Y35.4420
G01 X43.9597 Y35.4555
G01 X43.9440 Y35.4652
G01 X43.5164 Y35.7214
G01 X43.4844 Y35.7396
G01 X43.4626 Y35.7510
G01 X43.4460 Y35.7591
G01 X42.9954 Y35.9722
G01 X42.9617 Y35.9871
G01 X42.9389 Y35.9964
G01 X42.9216 Y36.0028
G01 X42.4522 Y36.1707
G01 X42.4173 Y36.1823
G01 X42.3936 Y36.1892
G01 X42.3758 Y36.1939
G01 X41.8922 Y36.3150
G01 X41.8743 Y36.3193
G01 X41.8502 Y36.3243
G01 X41.8139 Y36.3306
G01 X41.3026 Y36.4062
G01 X41.2781 Y36.4089
G01 X41.2413 Y36.4116
G01 X40.7434 Y36.4360
G01 X40.7035 Y36.4370
G01 X35.6235 Y36.4370
G01 X35.6020 Y36.4367
G01 X35.0857 Y36.4116
G01 X35.0489 Y36.4089
G01 X35.0244 Y36.4062
G01 X35.0062 Y36.4038
G01 X34.5131 Y36.3306
G01 X34.4768 Y36.3243
G01 X34.4527 Y36.3193
G01 X34.4348 Y36.3150
G01 X33.9512 Y36.1939
G01 X33.9157 Y36.1841
G01 X33.8922 Y36.1767
G01 X33.4054 Y36.0028
G01 X33.3881 Y35.9964
G01 X33.3653 Y35.9871
G01 X33.3316 Y35.9722
G01 X32.8810 Y35.7591
G01 X32.8481 Y35.7425
G01 X32.8265 Y35.7307
G01 X32.8106 Y35.7214
G01 X32.3830 Y35.4652
G01 X32.3519 Y35.4455
G01 X32.3315 Y35.4316
G01 X32.3166 Y35.4208
G01 X31.9162 Y35.1238
G01 X31.8871 Y35.1012
G01 X31.8682 Y35.0854
G01 X31.8544 Y35.0732
G01 X31.4851 Y34.7384
G01 X31.4584 Y34.7130
G01 X31.4411 Y34.6954
G01 X31.4286 Y34.6819
G01 X31.0938 Y34.3126
G01 X31.0698 Y34.2847
G01 X31.0543 Y34.2655
G01 X31.0432 Y34.2508
G01 X30.7462 Y33.8504
G01 X30.7250 Y33.8203
G01 X30.7115 Y33.7997
G01 X30.7018 Y33.7840
G01 X30.4456 Y33.3564
G01 X30.4274 Y33.3244
G01 X30.4160 Y33.3026
G01 X30.4079 Y33.2860
G01 X30.1871 Y32.8186
G01 X30.1775 Y32.7959
G01 X30.1642 Y32.7616
G01 X29.9963 Y32.2922
G01 X29.9847 Y32.2573
G01 X29.9778 Y32.2336
G01 X29.9731 Y32.2158
G01 X29.8520 Y31.7322
G01 X29.8439 Y31.6963
G01 X29.8393 Y31.6721
G01 X29.8364 Y31.6539
G01 X29.7632 Y31.1608
G01 X29.7587 Y31.1243
G01 X29.7565 Y31.0997
G01 X29.7310 Y30.5834
G01 X29.7300 Y30.5435
G01 X29.7300 Y25.4835
G01 X29.7085 Y25.0454
G01 X29.6470 Y24.6313
G01 X29.5453 Y24.2253
G01 X29.4043 Y23.8312
G01 X29.2253 Y23.4528
G01 X29.0101 Y23.0937
G01 X28.7608 Y22.7575
G01 X28.4797 Y22.4473
G01 X28.1695 Y22.1662
G01 X27.8333 Y21.9169
G01 X27.4742 Y21.7017
G01 X27.0958 Y21.5227
G01 X26.7017 Y21.3817
G01 X26.2957 Y21.2800
G01 X25.8816 Y21.2185
G01 X25.4435 Y21.1970
G01 X5.1435 Y21.1970
G01 X5.1036 Y21.1960
G01 X4.5873 Y21.1705
G01 X4.5627 Y21.1683
G01 X4.5262 Y21.1638
G01 X4.0331 Y21.0906
G01 X3.9968 Y21.0843
G01 X3.9727 Y21.0793
G01 X3.9548 Y21.0750
G01 X3.4712 Y20.9539
G01 X3.4357 Y20.9441
G01 X3.4122 Y20.9367
G01 X3.3948 Y20.9307
G01 X2.9254 Y20.7628
G01 X2.8911 Y20.7495
G01 X2.8684 Y20.7399
G01 X2.8516 Y20.7322
G01 X2.4010 Y20.5191
G01 X2.3844 Y20.5110
G01 X2.3626 Y20.4996
G01 X2.3306 Y20.4814
G01 X1.9030 Y20.2252
G01 X1.8873 Y20.2155
G01 X1.8667 Y20.2020
G01 X1.8366 Y20.1808
G01 X1.4362 Y19.8838
G01 X1.4071 Y19.8612
G01 X1.3882 Y19.8454
G01 X1.3744 Y19.8332
G01 X0.9916 Y19.4859
G01 X0.9740 Y19.4686
G01 X0.9486 Y19.4419
G01 X0.6138 Y19.0726
G01 X0.5898 Y19.0447
G01 X0.5743 Y19.0255
G01 X0.5632 Y19.0108
G01 X0.2662 Y18.6104
G01 X0.2450 Y18.5803
G01 X0.2315 Y18.5597
G01 X0.2218 Y18.5440
G01 X-0.0344 Y18.1164
G01 X-0.0526 Y18.0844
G01 X-0.0640 Y18.0626
G01 X-0.0721 Y18.0460
G01 X-0.2852 Y17.5954
G01 X-0.2929 Y17.5786
G01 X-0.3025 Y17.5559
G01 X-0.3158 Y17.5216
G01 X-0.4837 Y17.0522
G01 X-0.4897 Y17.0348
G01 X-0.4971 Y17.0113
G01 X-0.5069 Y16.9758
G01 X-0.6280 Y16.4922
G01 X-0.6323 Y16.4743
G01 X-0.6373 Y16.4502
G01 X-0.6436 Y16.4139
G01 X-0.7168 Y15.9208
G01 X-0.7192 Y15.9026
G01 X-0.7219 Y15.8781
G01 X-0.7246 Y15.8413
G01 X-0.7490 Y15.3434
G01 X-0.7500 Y15.3035
G01 X-0.7498 Y5.1251
G01 X-0.7490 Y5.1036
G01 X-0.7246 Y4.6057
G01 X-0.7219 Y4.5689
G01 X-0.7192 Y4.5444
G01 X-0.7168 Y4.5262
G01 X-0.6436 Y4.0331
G01 X-0.6373 Y3.9968
G01 X-0.6323 Y3.9727
G01 X-0.6280 Y3.9548
G01 X-0.5069 Y3.4712
G01 X-0.4971 Y3.4357
G01 X-0.4897 Y3.4122
G01 X-0.3158 Y2.9254
G01 X-0.3025 Y2.8911
G01 X-0.2929 Y2.8684
G01 X-0.2852 Y2.8516
G01 X-0.0721 Y2.4010
G01 X-0.0555 Y2.3681
G01 X-0.0437 Y2.3465
G01 X-0.0344 Y2.3306
G01 X0.2218 Y1.9030
G01 X0.2415 Y1.8719
G01 X0.2554 Y1.8515
G01 X0.2662 Y1.8366
G01 X0.5632 Y1.4362
G01 X0.5743 Y1.4215
G01 X0.5898 Y1.4023
G01 X0.6138 Y1.3744
G01 X0.9486 Y1.0051
G01 X0.9740 Y0.9784
G01 X0.9916 Y0.9611
G01 X1.0051 Y0.9486
G01 X1.3744 Y0.6138
G01 X1.4023 Y0.5898
G01 X1.4215 Y0.5743
G01 X1.4362 Y0.5632
G01 X1.8366 Y0.2662
G01 X1.8667 Y0.2450
G01 X1.8873 Y0.2315
G01 X1.9030 Y0.2218
G01 X2.3306 Y-0.0344
G01 X2.3626 Y-0.0526
G01 X2.3844 Y-0.0640
G01 X2.4010 Y-0.0721
G01 X2.8516 Y-0.2852
G01 X2.8684 Y-0.2929
G01 X2.8911 Y-0.3025
G01 X2.9254 Y-0.3158
G01 X3.3948 Y-0.4837
G01 X3.4297 Y-0.4953
G01 X3.4534 Y-0.5022
G01 X3.4712 Y-0.5069
G01 X3.9548 Y-0.6280
G01 X3.9907 Y-0.6361
G01 X4.0149 Y-0.6407
G01 X4.0331 Y-0.6436
G01 X4.5262 Y-0.7168
G01 X4.5444 Y-0.7192
G01 X4.5689 Y-0.7219
G01 X4.6057 Y-0.7246
G01 X5.1220 Y-0.7497
G01 X5.1435 Y-0.7500
G01 X121.9835 Y-0.7500
G01 X122.0234 Y-0.7490
G01 X122.5213 Y-0.7246
G01 X122.5581 Y-0.7219
G01 X122.5826 Y-0.7192
G01 X122.6008 Y-0.7168
G01 X123.0939 Y-0.6436
G01 X123.1121 Y-0.6407
G01 X123.1363 Y-0.6361
G01 X123.1722 Y-0.6280
G01 X123.6558 Y-0.5069
G01 X123.6913 Y-0.4971
G01 X123.7148 Y-0.4897
G01 X123.7322 Y-0.4837
G01 X124.2016 Y-0.3158
G01 X124.2359 Y-0.3025
G01 X124.2586 Y-0.2929
G01 X124.2754 Y-0.2852
G01 X124.7260 Y-0.0721
G01 X124.7426 Y-0.0640
G01 X124.7644 Y-0.0526
G01 X124.7964 Y-0.0344
G01 X125.2240 Y0.2218
G01 X125.2551 Y0.2415
G01 X125.2755 Y0.2554
G01 X125.2904 Y0.2662
G01 X125.6908 Y0.5632
G01 X125.7055 Y0.5743
G01 X125.7247 Y0.5898
G01 X125.7526 Y0.6138
G01 X126.1219 Y0.9486
G01 X126.1486 Y0.9740
G01 X126.1659 Y0.9916
G01 X126.1784 Y1.0051
G01 X126.5132 Y1.3744
G01 X126.5372 Y1.4023
G01 X126.5527 Y1.4215
G01 X126.5638 Y1.4362
G01 X126.8608 Y1.8366
G01 X126.8820 Y1.8667
G01 X126.8955 Y1.8873
G01 X126.9052 Y1.9030
G01 X127.1614 Y2.3306
G01 X127.1796 Y2.3626
G01 X127.1910 Y2.3844
G01 X127.1991 Y2.4010
G01 X127.4122 Y2.8516
G01 X127.4271 Y2.8853
G01 X127.4364 Y2.9081
G01 X127.4428 Y2.9254
G01 X127.6107 Y3.3948
G01 X127.6223 Y3.4297
G01 X127.6292 Y3.4534
G01 X127.6339 Y3.4712
G01 X127.7550 Y3.9548
G01 X127.7631 Y3.9907
G01 X127.7677 Y4.0149
G01 X127.7706 Y4.0331
G01 X127.8438 Y4.5262
G01 X127.8462 Y4.5444
G01 X127.8489 Y4.5689
G01 X127.8516 Y4.6057
G01 X127.8760 Y5.1036
G01 X127.8770 Y5.1435
G01 X127.8770 Y15.3035
G01 X127.8760 Y15.3434
G01 X127.8505 Y15.8597
G01 X127.8483 Y15.8843
G01 X127.8438 Y15.9208
G01 X127.7706 Y16.4139
G01 X127.7677 Y16.4321
G01 X127.7631 Y16.4563
G01 X127.7550 Y16.4922
G01 X127.6339 Y16.9758
G01 X127.6241 Y17.0113
G01 X127.6167 Y17.0348
G01 X127.6107 Y17.0522
G01 X127.4428 Y17.5216
G01 X127.4295 Y17.5559
G01 X127.4199 Y17.5786
G01 X127.4122 Y17.5954
G01 X127.1991 Y18.0460
G01 X127.1825 Y18.0789
G01 X127.1707 Y18.1005
G01 X127.1614 Y18.1164
G01 X126.9052 Y18.5440
G01 X126.8855 Y18.5751
G01 X126.8716 Y18.5955
G01 X126.8608 Y18.6104
G01 X126.5638 Y19.0108
G01 X126.5412 Y19.0399
G01 X126.5254 Y19.0588
G01 X126.5132 Y19.0726
G01 X126.1784 Y19.4419
G01 X126.1530 Y19.4686
G01 X126.1354 Y19.4859
G01 X126.1219 Y19.4984
G01 X125.7526 Y19.8332
G01 X125.7247 Y19.8572
G01 X125.7055 Y19.8727
G01 X125.6908 Y19.8838
G01 X125.2904 Y20.1808
G01 X125.2603 Y20.2020
G01 X125.2397 Y20.2155
G01 X125.2240 Y20.2252
G01 X124.7964 Y20.4814
G01 X124.7644 Y20.4996
G01 X124.7426 Y20.5110
G01 X124.7260 Y20.5191
G01 X124.2754 Y20.7322
G01 X124.2417 Y20.7471
G01 X124.2189 Y20.7564
G01 X124.2016 Y20.7628
G01 X123.7322 Y20.9307
G01 X123.6973 Y20.9423
G01 X123.6736 Y20.9492
G01 X123.6558 Y20.9539
G01 X123.1722 Y21.0750
G01 X123.1543 Y21.0793
G01 X123.1302 Y21.0843
G01 X123.0939 Y21.0906
G01 X122.6008 Y21.1638
G01 X122.5826 Y21.1662
G01 X122.5581 Y21.1689
G01 X122.5213 Y21.1716
G01 X122.0234 Y21.1960
G01 X121.9835 Y21.1970
G01 X111.8435 Y21.1970
G01 X111.4054 Y21.2185
G01 X110.9913 Y21.2800
G01 X110.5853 Y21.3817
G01 X110.1912 Y21.5227
G01 X109.8128 Y21.7017
G01 X109.4537 Y21.9169
G01 X109.1175 Y22.1662
G01 X108.8073 Y22.4473
G01 X108.5262 Y22.7575
G01 X108.2769 Y23.0937
G01 X108.0617 Y23.4528
G01 X107.8827 Y23.8312
G01 X107.7417 Y24.2253
G01 X107.6400 Y24.6313
G01 X107.5785 Y25.0454
G01 X107.5570 Y25.4835
G01 X107.5570 Y30.5435
G01 X107.5560 Y30.5834
G01 X107.5316 Y31.0813
G01 X107.5289 Y31.1181
G01 X107.5262 Y31.1426
G01 X107.5238 Y31.1608
G01 X107.4506 Y31.6539
G01 X107.4443 Y31.6902
G01 X107.4393 Y31.7143
G01 X107.4350 Y31.7322
G01 X107.3139 Y32.2158
G01 X107.3041 Y32.2513
G01 X107.2967 Y32.2748
G01 X107.2907 Y32.2922
G01 X107.1228 Y32.7616
G01 X107.1095 Y32.7959
G01 X107.0999 Y32.8186
G01 X107.0922 Y32.8354
G01 X106.8791 Y33.2860
G01 X106.8710 Y33.3026
G01 X106.8596 Y33.3244
G01 X106.8414 Y33.3564
G01 X106.5852 Y33.7840
G01 X106.5655 Y33.8151
G01 X106.5516 Y33.8355
G01 X106.5408 Y33.8504
G01 X106.2438 Y34.2508
G01 X106.2212 Y34.2799
G01 X106.2054 Y34.2988
G01 X106.1932 Y34.3126
G01 X105.8584 Y34.6819
G01 X105.8330 Y34.7086
G01 X105.8154 Y34.7259
G01 X105.8019 Y34.7384
G01 X105.4326 Y35.0732
G01 X105.4047 Y35.0972
G01 X105.3855 Y35.1127
G01 X105.3708 Y35.1238
G01 X104.9704 Y35.4208
G01 X104.9403 Y35.4420
G01 X104.9197 Y35.4555
G01 X104.9040 Y35.4652
G01 X104.4764 Y35.7214
G01 X104.4444 Y35.7396
G01 X104.4226 Y35.7510
G01 X104.4060 Y35.7591
G01 X103.9554 Y35.9722
G01 X103.9217 Y35.9871
G01 X103.8989 Y35.9964
G01 X103.8816 Y36.0028
G01 X103.4122 Y36.1707
G01 X103.3948 Y36.1767
G01 X103.3713 Y36.1841
G01 X103.3358 Y36.1939
G01 X102.8522 Y36.3150
G01 X102.8163 Y36.3231
G01 X102.7921 Y36.3277
G01 X102.7739 Y36.3306
G01 X102.2808 Y36.4038
G01 X102.2626 Y36.4062
G01 X102.2381 Y36.4089
G01 X102.2013 Y36.4116
G01 X101.7034 Y36.4360
G01 X101.6835 Y36.4367
G00 Z2.0000
G00 X97.3980 Y30.5439
G01 F60.00
G01 Z-2.4000
G01 F120.00
G01 X97.4059 Y30.7091
G01 X97.4301 Y30.8723
G01 X97.4703 Y31.0328
G01 X97.5261 Y31.1886
G01 X97.5968 Y31.3381
G01 X97.6818 Y31.4800
G01 X97.7804 Y31.6128
G01 X97.8915 Y31.7354
G01 X98.0140 Y31.8465
G01 X98.1469 Y31.9450
G01 X98.2888 Y32.0301
G01 X98.4383 Y32.1008
G01 X98.5941 Y32.1565
G01 X98.7545 Y32.1967
G01 X98.9181 Y32.2210
G01 X99.0834 Y32.2291
G01 X99.2486 Y32.2210
G01 X99.4122 Y32.1967
G01 X99.5727 Y32.1565
G01 X99.7284 Y32.1008
G01 X99.8780 Y32.0301
G01 X100.0198 Y31.9450
G01 X100.1527 Y31.8465
G01 X100.2753 Y31.7354
G01 X100.3864 Y31.6128
G01 X100.4849 Y31.4800
G01 X100.5699 Y31.3381
G01 X100.6407 Y31.1886
G01 X100.6964 Y31.0328
G01 X100.7366 Y30.8723
G01 X100.7609 Y30.7087
G01 X100.7690 Y30.5431
G01 X100.7611 Y30.3779
G01 X100.7368 Y30.2147
G01 X100.6967 Y30.0542
G01 X100.6409 Y29.8984
G01 X100.5702 Y29.7489
G01 X100.4852 Y29.6070
G01 X100.3866 Y29.4742
G01 X100.2755 Y29.3516
G01 X100.1530 Y29.2405
G01 X100.0201 Y29.1420
G01 X99.8782 Y29.0569
G01 X99.7287 Y28.9862
G01 X99.5729 Y28.9305
G01 X99.4125 Y28.8903
G01 X99.2488 Y28.8660
G01 X99.0836 Y28.8579
G01 X98.9184 Y28.8660
G01 X98.7548 Y28.8903
G01 X98.5943 Y28.9305
G01 X98.4386 Y28.9862
G01 X98.2890 Y29.0569
G01 X98.1471 Y29.1420
G01 X98.0143 Y29.2405
G01 X97.8917 Y29.3516
G01 X97.7806 Y29.4742
G01 X97.6821 Y29.6070
G01 X97.5970 Y29.7489
G01 X97.5263 Y29.8984
G01 X97.4706 Y30.0542
G01 X97.4304 Y30.2147
G01 X97.4061 Y30.3783
G01 X97.3980 Y30.5439
G00 Z2.0000
G00 X95.7709 Y50.8267
G01 F60.00
G01 Z-2.4000
G01 F120.00
G01 X95.7723 Y50.8021
G01 X95.7759 Y50.7655
G01 X95.7822 Y50.7229
G01 X95.7894 Y50.6868
G01 X95.7999 Y50.6450
G01 X95.8106 Y50.6098
G01 X95.8251 Y50.5693
G01 X95.8391 Y50.5353
G01 X95.8576 Y50.4963
G01 X95.8749 Y50.4639
G01 X95.8970 Y50.4270
G01 X95.9175 Y50.3963
G01 X95.9431 Y50.3618
G01 X95.9665 Y50.3333
G01 X95.9954 Y50.3014
G01 X96.0214 Y50.2754
G01 X96.0395 Y50.2587
G01 X96.0674 Y50.2346
G01 X96.0964 Y50.2120
G01 X96.1163 Y50.1975
G01 X96.1315 Y50.1871
G01 X96.1626 Y50.1674
G01 X96.1839 Y50.1549
G01 X96.2000 Y50.1460
G01 X96.2163 Y50.1376
G01 X96.2385 Y50.1268
G01 X96.2722 Y50.1119
G01 X96.2893 Y50.1051
G01 X96.3124 Y50.0965
G01 X96.3473 Y50.0850
G01 X96.3828 Y50.0752
G01 X96.4068 Y50.0694
G01 X96.4248 Y50.0656
G01 X96.4611 Y50.0593
G01 X96.4855 Y50.0559
G01 X96.5038 Y50.0539
G01 X96.5221 Y50.0523
G01 X96.5467 Y50.0509
G01 X96.5835 Y50.0500
G01 X167.7035 Y50.0500
G01 X167.7403 Y50.0509
G01 X167.7649 Y50.0523
G01 X167.8015 Y50.0559
G01 X167.8198 Y50.0584
G01 X167.8441 Y50.0622
G01 X167.8622 Y50.0656
G01 X167.8981 Y50.0737
G01 X167.9220 Y50.0799
G01 X167.9572 Y50.0906
G01 X167.9805 Y50.0986
G01 X168.0148 Y50.1119
G01 X168.0485 Y50.1268
G01 X168.0707 Y50.1376
G01 X168.1031 Y50.1549
G01 X168.1244 Y50.1674
G01 X168.1555 Y50.1871
G01 X168.1856 Y50.2083
G01 X168.2052 Y50.2231
G01 X168.2337 Y50.2465
G01 X168.2521 Y50.2629
G01 X168.2788 Y50.2882
G01 X168.3041 Y50.3149
G01 X168.3205 Y50.3333
G01 X168.3439 Y50.3618
G01 X168.3587 Y50.3814
G01 X168.3799 Y50.4115
G01 X168.3996 Y50.4426
G01 X168.4121 Y50.4639
G01 X168.4294 Y50.4963
G01 X168.4402 Y50.5185
G01 X168.4551 Y50.5522
G01 X168.4684 Y50.5865
G01 X168.4764 Y50.6098
G01 X168.4871 Y50.6450
G01 X168.4933 Y50.6689
G01 X168.5014 Y50.7048
G01 X168.5077 Y50.7411
G01 X168.5111 Y50.7655
G01 X168.5131 Y50.7838
G01 X168.5158 Y50.8205
G01 X168.5168 Y50.8451
G01 X168.5170 Y71.1835
G01 X168.5161 Y71.2203
G01 X168.5147 Y71.2449
G01 X168.5111 Y71.2815
G01 X168.5086 Y71.2998
G01 X168.5048 Y71.3241
G01 X168.5014 Y71.3422
G01 X168.4933 Y71.3781
G01 X168.4871 Y71.4020
G01 X168.4764 Y71.4372
G01 X168.4684 Y71.4605
G01 X168.4551 Y71.4948
G01 X168.4402 Y71.5285
G01 X168.4294 Y71.5507
G01 X168.4121 Y71.5831
G01 X168.3996 Y71.6044
G01 X168.3799 Y71.6355
G01 X168.3587 Y71.6656
G01 X168.3439 Y71.6852
G01 X168.3324 Y71.6996
G01 X168.3083 Y71.7275
G01 X168.2916 Y71.7456
G01 X168.2656 Y71.7716
G01 X168.2475 Y71.7883
G01 X168.2196 Y71.8124
G01 X168.1906 Y71.8350
G01 X168.1707 Y71.8495
G01 X168.1400 Y71.8700
G01 X168.1190 Y71.8828
G01 X168.0870 Y71.9010
G01 X168.0707 Y71.9094
G01 X168.0485 Y71.9202
G01 X168.0148 Y71.9351
G01 X167.9805 Y71.9484
G01 X167.9572 Y71.9564
G01 X167.9220 Y71.9671
G01 X167.8981 Y71.9733
G01 X167.8622 Y71.9814
G01 X167.8259 Y71.9877
G01 X167.8015 Y71.9911
G01 X167.7649 Y71.9947
G01 X167.7403 Y71.9961
G01 X167.7035 Y71.9970
G01 X96.5835 Y71.9970
G01 X96.5467 Y71.9961
G01 X96.5221 Y71.9947
G01 X96.4855 Y71.9911
G01 X96.4672 Y71.9886
G01 X96.4429 Y71.9848
G01 X96.4248 Y71.9814
G01 X96.3889 Y71.9733
G01 X96.3650 Y71.9671
G01 X96.3298 Y71.9564
G01 X96.3065 Y71.9484
G01 X96.2722 Y71.9351
G01 X96.2385 Y71.9202
G01 X96.2163 Y71.9094
G01 X96.1839 Y71.8921
G01 X96.1626 Y71.8796
G01 X96.1315 Y71.8599
G01 X96.1014 Y71.8387
G01 X96.0818 Y71.8239
G01 X96.0533 Y71.8005
G01 X96.0349 Y71.7841
G01 X96.0082 Y71.7588
G01 X95.9829 Y71.7321
G01 X95.9665 Y71.7137
G01 X95.9431 Y71.6852
G01 X95.9283 Y71.6656
G01 X95.9071 Y71.6355
G01 X95.8874 Y71.6044
G01 X95.8749 Y71.5831
G01 X95.8576 Y71.5507
G01 X95.8468 Y71.5285
G01 X95.8319 Y71.4948
G01 X95.8186 Y71.4605
G01 X95.8106 Y71.4372
G01 X95.7999 Y71.4020
G01 X95.7937 Y71.3781
G01 X95.7856 Y71.3422
G01 X95.7793 Y71.3059
G01 X95.7759 Y71.2815
G01 X95.7739 Y71.2632
G01 X95.7712 Y71.2265
G01 X95.7702 Y71.2019
G01 X95.7700 Y50.8635
G01 X95.7709 Y50.8267
G00 Z2.0000
G00 X50.0500 Y48.3235
G01 F60.00
G01 Z-2.4000
G01 F120.00
G01 X50.0502 Y25.4451
G01 X50.0523 Y25.4021
G01 X50.0559 Y25.3655
G01 X50.0584 Y25.3472
G01 X50.0622 Y25.3229
G01 X50.0656 Y25.3048
G01 X50.0737 Y25.2689
G01 X50.0799 Y25.2450
G01 X50.0906 Y25.2098
G01 X50.0965 Y25.1924
G01 X50.1051 Y25.1693
G01 X50.1119 Y25.1522
G01 X50.1191 Y25.1353
G01 X50.1295 Y25.1129
G01 X50.1460 Y25.0800
G01 X50.1549 Y25.0639
G01 X50.1674 Y25.0426
G01 X50.1871 Y25.0115
G01 X50.1975 Y24.9963
G01 X50.2120 Y24.9764
G01 X50.2346 Y24.9474
G01 X50.2465 Y24.9333
G01 X50.2754 Y24.9014
G01 X50.3014 Y24.8754
G01 X50.3149 Y24.8629
G01 X50.3333 Y24.8465
G01 X50.3474 Y24.8346
G01 X50.3618 Y24.8231
G01 X50.3814 Y24.8083
G01 X50.4115 Y24.7871
G01 X50.4270 Y24.7770
G01 X50.4480 Y24.7642
G01 X50.4800 Y24.7460
G01 X50.4963 Y24.7376
G01 X50.5185 Y24.7268
G01 X50.5353 Y24.7191
G01 X50.5693 Y24.7051
G01 X50.5924 Y24.6965
G01 X50.6273 Y24.6850
G01 X50.6628 Y24.6752
G01 X50.6868 Y24.6694
G01 X50.7048 Y24.6656
G01 X50.7411 Y24.6593
G01 X50.7655 Y24.6559
G01 X50.8021 Y24.6523
G01 X50.8267 Y24.6509
G01 X50.8635 Y24.6500
G01 X86.4235 Y24.6500
G01 X86.4419 Y24.6502
G01 X86.4665 Y24.6512
G01 X86.4849 Y24.6523
G01 X86.5215 Y24.6559
G01 X86.5641 Y24.6622
G01 X86.5822 Y24.6656
G01 X86.6181 Y24.6737
G01 X86.6420 Y24.6799
G01 X86.6597 Y24.6850
G01 X86.6946 Y24.6965
G01 X86.7177 Y24.7051
G01 X86.7348 Y24.7119
G01 X86.7685 Y24.7268
G01 X86.7907 Y24.7376
G01 X86.8070 Y24.7460
G01 X86.8231 Y24.7549
G01 X86.8444 Y24.7674
G01 X86.8600 Y24.7770
G01 X86.8907 Y24.7975
G01 X86.9106 Y24.8120
G01 X86.9396 Y24.8346
G01 X86.9537 Y24.8465
G01 X86.9721 Y24.8629
G01 X86.9988 Y24.8882
G01 X87.0116 Y24.9014
G01 X87.0283 Y24.9195
G01 X87.0524 Y24.9474
G01 X87.0639 Y24.9618
G01 X87.0787 Y24.9814
G01 X87.0895 Y24.9963
G01 X87.1100 Y25.0270
G01 X87.1228 Y25.0480
G01 X87.1410 Y25.0800
G01 X87.1494 Y25.0963
G01 X87.1602 Y25.1185
G01 X87.1751 Y25.1522
G01 X87.1819 Y25.1693
G01 X87.1905 Y25.1924
G01 X87.2020 Y25.2273
G01 X87.2118 Y25.2628
G01 X87.2176 Y25.2868
G01 X87.2248 Y25.3229
G01 X87.2277 Y25.3411
G01 X87.2311 Y25.3655
G01 X87.2347 Y25.4021
G01 X87.2361 Y25.4267
G01 X87.2370 Y25.4635
G01 X87.2370 Y48.3235
G01 X87.2368 Y48.3419
G01 X87.2358 Y48.3665
G01 X87.2347 Y48.3849
G01 X87.2311 Y48.4215
G01 X87.2248 Y48.4641
G01 X87.2176 Y48.5002
G01 X87.2133 Y48.5181
G01 X87.2071 Y48.5420
G01 X87.2020 Y48.5597
G01 X87.1905 Y48.5946
G01 X87.1819 Y48.6177
G01 X87.1751 Y48.6348
G01 X87.1602 Y48.6685
G01 X87.1494 Y48.6907
G01 X87.1410 Y48.7070
G01 X87.1321 Y48.7231
G01 X87.1196 Y48.7444
G01 X87.0999 Y48.7755
G01 X87.0895 Y48.7907
G01 X87.0750 Y48.8106
G01 X87.0524 Y48.8396
G01 X87.0405 Y48.8537
G01 X87.0241 Y48.8721
G01 X86.9988 Y48.8988
G01 X86.9856 Y48.9116
G01 X86.9675 Y48.9283
G01 X86.9396 Y48.9524
G01 X86.9252 Y48.9639
G01 X86.9056 Y48.9787
G01 X86.8907 Y48.9895
G01 X86.8600 Y49.0100
G01 X86.8390 Y49.0228
G01 X86.8070 Y49.0410
G01 X86.7907 Y49.0494
G01 X86.7685 Y49.0602
G01 X86.7517 Y49.0679
G01 X86.7177 Y49.0819
G01 X86.6946 Y49.0905
G01 X86.6597 Y49.1020
G01 X86.6242 Y49.1118
G01 X86.6002 Y49.1176
G01 X86.5641 Y49.1248
G01 X86.5459 Y49.1277
G01 X86.5215 Y49.1311
G01 X86.4849 Y49.1347
G01 X86.4603 Y49.1361
G01 X86.4235 Y49.1370
G01 X50.8451 Y49.1368
G01 X50.8205 Y49.1358
G01 X50.7838 Y49.1331
G01 X50.7472 Y49.1286
G01 X50.7229 Y49.1248
G01 X50.7048 Y49.1214
G01 X50.6868 Y49.1176
G01 X50.6628 Y49.1118
G01 X50.6273 Y49.1020
G01 X50.5924 Y49.0905
G01 X50.5693 Y49.0819
G01 X50.5522 Y49.0751
G01 X50.5353 Y49.0679
G01 X50.5129 Y49.0575
G01 X50.4800 Y49.0410
G01 X50.4480 Y49.0228
G01 X50.4270 Y49.0100
G01 X50.4115 Y48.9999
G01 X50.3963 Y48.9895
G01 X50.3764 Y48.9750
G01 X50.3474 Y48.9524
G01 X50.3195 Y48.9283
G01 X50.3014 Y48.9116
G01 X50.2882 Y48.8988
G01 X50.2754 Y48.8856
G01 X50.2587 Y48.8675
G01 X50.2346 Y48.8396
G01 X50.2120 Y48.8106
G01 X50.1975 Y48.7907
G01 X50.1871 Y48.7755
G01 X50.1674 Y48.7444
G01 X50.1549 Y48.7231
G01 X50.1460 Y48.7070
G01 X50.1376 Y48.6907
G01 X50.1268 Y48.6685
G01 X50.1119 Y48.6348
G01 X50.1051 Y48.6177
G01 X50.0965 Y48.5946
G01 X50.0850 Y48.5597
G01 X50.0752 Y48.5242
G01 X50.0694 Y48.5002
G01 X50.0656 Y48.4822
G01 X50.0593 Y48.4459
G01 X50.0559 Y48.4215
G01 X50.0539 Y48.4032
G01 X50.0523 Y48.3849
G01 X50.0509 Y48.3603
G01 X50.0500 Y48.3235
G00 Z2.0000
G00 X36.5180 Y30.5439
G01 F60.00
G01 Z-2.4000
G01 F120.00
G01 X36.5259 Y30.7091
G01 X36.5502 Y30.8723
G01 X36.5903 Y31.0328
G01 X36.6461 Y31.1886
G01 X36.7168 Y31.3381
G01 X36.8018 Y31.4800
G01 X36.9004 Y31.6128
G01 X37.0115 Y31.7354
G01 X37.1340 Y31.8465
G01 X37.2669 Y31.9450
G01 X37.4088 Y32.0301
G01 X37.5583 Y32.1008
G01 X37.7141 Y32.1565
G01 X37.8745 Y32.1967
G01 X38.0382 Y32.2210
G01 X38.2034 Y32.2291
G01 X38.3686 Y32.2210
G01 X38.5322 Y32.1967
G01 X38.6927 Y32.1565
G01 X38.8484 Y32.1008
G01 X38.9980 Y32.0301
G01 X39.1399 Y31.9450
G01 X39.2727 Y31.8465
G01 X39.3953 Y31.7354
G01 X39.5064 Y31.6128
G01 X39.6049 Y31.4800
G01 X39.6900 Y31.3381
G01 X39.7607 Y31.1886
G01 X39.8164 Y31.0328
G01 X39.8566 Y30.8723
G01 X39.8809 Y30.7087
G01 X39.8890 Y30.5431
G01 X39.8811 Y30.3779
G01 X39.8569 Y30.2147
G01 X39.8167 Y30.0542
G01 X39.7609 Y29.8984
G01 X39.6902 Y29.7489
G01 X39.6052 Y29.6070
G01 X39.5066 Y29.4742
G01 X39.3955 Y29.3516
G01 X39.2730 Y29.2405
G01 X39.1401 Y29.1420
G01 X38.9982 Y29.0569
G01 X38.8487 Y28.9862
G01 X38.6929 Y28.9305
G01 X38.5325 Y28.8903
G01 X38.3689 Y28.8660
G01 X38.2036 Y28.8579
G01 X38.0384 Y28.8660
G01 X37.8748 Y28.8903
G01 X37.7143 Y28.9305
G01 X37.5586 Y28.9862
G01 X37.4090 Y29.0569
G01 X37.2672 Y29.1420
G01 X37.1343 Y29.2405
G01 X37.0117 Y29.3516
G01 X36.9006 Y29.4742
G01 X36.8021 Y29.6070
G01 X36.7171 Y29.7489
G01 X36.6463 Y29.8984
G01 X36.5906 Y30.0542
G01 X36.5504 Y30.2147
G01 X36.5261 Y30.3783
G01 X36.5180 Y30.5439
G00 Z2.0000
G00 X22.9603 Y24.6509
G01 F60.00
G01 Z-2.4000
G01 F120.00
G01 X22.9849 Y24.6523
G01 X23.0215 Y24.6559
G01 X23.0641 Y24.6622
G01 X23.1002 Y24.6694
G01 X23.1420 Y24.6799
G01 X23.1772 Y24.6906
G01 X23.2177 Y24.7051
G01 X23.2517 Y24.7191
G01 X23.2741 Y24.7295
G01 X23.3070 Y24.7460
G01 X23.3390 Y24.7642
G01 X23.3600 Y24.7770
G01 X23.3755 Y24.7871
G01 X23.4056 Y24.8083
G01 X23.4252 Y24.8231
G01 X23.4396 Y24.8346
G01 X23.4537 Y24.8465
G01 X23.4721 Y24.8629
G01 X23.4988 Y24.8882
G01 X23.5241 Y24.9149
G01 X23.5405 Y24.9333
G01 X23.5524 Y24.9474
G01 X23.5639 Y24.9618
G01 X23.5787 Y24.9814
G01 X23.5999 Y25.0115
G01 X23.6196 Y25.0426
G01 X23.6321 Y25.0639
G01 X23.6410 Y25.0800
G01 X23.6575 Y25.1129
G01 X23.6679 Y25.1353
G01 X23.6751 Y25.1522
G01 X23.6819 Y25.1693
G01 X23.6905 Y25.1924
G01 X23.7020 Y25.2273
G01 X23.7118 Y25.2628
G01 X23.7176 Y25.2868
G01 X23.7214 Y25.3048
G01 X23.7277 Y25.3411
G01 X23.7311 Y25.3655
G01 X23.7331 Y25.3838
G01 X23.7358 Y25.4205
G01 X23.7368 Y25.4451
G01 X23.7370 Y63.5635
G01 X23.7361 Y63.6003
G01 X23.7347 Y63.6249
G01 X23.7331 Y63.6432
G01 X23.7286 Y63.6798
G01 X23.7248 Y63.7041
G01 X23.7214 Y63.7222
G01 X23.7133 Y63.7581
G01 X23.7071 Y63.7820
G01 X23.6964 Y63.8172
G01 X23.6905 Y63.8346
G01 X23.6819 Y63.8577
G01 X23.6751 Y63.8748
G01 X23.6602 Y63.9085
G01 X23.6494 Y63.9307
G01 X23.6410 Y63.9470
G01 X23.6228 Y63.9790
G01 X23.6100 Y64.0000
G01 X23.5999 Y64.0155
G01 X23.5787 Y64.0456
G01 X23.5639 Y64.0652
G01 X23.5524 Y64.0796
G01 X23.5283 Y64.1075
G01 X23.5116 Y64.1256
G01 X23.4988 Y64.1388
G01 X23.4721 Y64.1641
G01 X23.4537 Y64.1805
G01 X23.4252 Y64.2039
G01 X23.4106 Y64.2150
G01 X23.3907 Y64.2295
G01 X23.3755 Y64.2399
G01 X23.3444 Y64.2596
G01 X23.3231 Y64.2721
G01 X23.2907 Y64.2894
G01 X23.2741 Y64.2975
G01 X23.2517 Y64.3079
G01 X23.2348 Y64.3151
G01 X23.2005 Y64.3284
G01 X23.1772 Y64.3364
G01 X23.1420 Y64.3471
G01 X23.1242 Y64.3518
G01 X23.1002 Y64.3576
G01 X23.0822 Y64.3614
G01 X23.0459 Y64.3677
G01 X23.0215 Y64.3711
G01 X23.0032 Y64.3731
G01 X22.9665 Y64.3758
G01 X22.9419 Y64.3768
G01 X22.9235 Y64.3770
G01 X0.0635 Y64.3770
G01 X0.0267 Y64.3761
G01 X0.0021 Y64.3747
G01 X-0.0345 Y64.3711
G01 X-0.0528 Y64.3686
G01 X-0.0771 Y64.3648
G01 X-0.0952 Y64.3614
G01 X-0.1311 Y64.3533
G01 X-0.1550 Y64.3471
G01 X-0.1727 Y64.3420
G01 X-0.2076 Y64.3305
G01 X-0.2307 Y64.3219
G01 X-0.2478 Y64.3151
G01 X-0.2815 Y64.3002
G01 X-0.3037 Y64.2894
G01 X-0.3361 Y64.2721
G01 X-0.3520 Y64.2628
G01 X-0.3730 Y64.2500
G01 X-0.3885 Y64.2399
G01 X-0.4186 Y64.2187
G01 X-0.4382 Y64.2039
G01 X-0.4667 Y64.1805
G01 X-0.4805 Y64.1683
G01 X-0.4986 Y64.1516
G01 X-0.5118 Y64.1388
G01 X-0.5371 Y64.1121
G01 X-0.5535 Y64.0937
G01 X-0.5769 Y64.0652
G01 X-0.5880 Y64.0506
G01 X-0.6025 Y64.0307
G01 X-0.6129 Y64.0155
G01 X-0.6326 Y63.9844
G01 X-0.6451 Y63.9631
G01 X-0.6624 Y63.9307
G01 X-0.6705 Y63.9141
G01 X-0.6809 Y63.8917
G01 X-0.6881 Y63.8748
G01 X-0.7014 Y63.8405
G01 X-0.7094 Y63.8172
G01 X-0.7150 Y63.7997
G01 X-0.7248 Y63.7642
G01 X-0.7306 Y63.7402
G01 X-0.7344 Y63.7222
G01 X-0.7407 Y63.6859
G01 X-0.7441 Y63.6615
G01 X-0.7461 Y63.6432
G01 X-0.7488 Y63.6065
G01 X-0.7498 Y63.5819
G01 X-0.7500 Y63.5635
G01 X-0.7500 Y25.4635
G01 X-0.7491 Y25.4267
G01 X-0.7477 Y25.4021
G01 X-0.7461 Y25.3838
G01 X-0.7416 Y25.3472
G01 X-0.7378 Y25.3229
G01 X-0.7344 Y25.3048
G01 X-0.7263 Y25.2689
G01 X-0.7201 Y25.2450
G01 X-0.7150 Y25.2273
G01 X-0.7035 Y25.1924
G01 X-0.6949 Y25.1693
G01 X-0.6881 Y25.1522
G01 X-0.6732 Y25.1185
G01 X-0.6624 Y25.0963
G01 X-0.6540 Y25.0800
G01 X-0.6358 Y25.0480
G01 X-0.6230 Y25.0270
G01 X-0.6129 Y25.0115
G01 X-0.5917 Y24.9814
G01 X-0.5769 Y24.9618
G01 X-0.5654 Y24.9474
G01 X-0.5413 Y24.9195
G01 X-0.5246 Y24.9014
G01 X-0.5118 Y24.8882
G01 X-0.4986 Y24.8754
G01 X-0.4805 Y24.8587
G01 X-0.4667 Y24.8465
G01 X-0.4382 Y24.8231
G01 X-0.4186 Y24.8083
G01 X-0.3885 Y24.7871
G01 X-0.3730 Y24.7770
G01 X-0.3520 Y24.7642
G01 X-0.3200 Y24.7460
G01 X-0.3037 Y24.7376
G01 X-0.2815 Y24.7268
G01 X-0.2478 Y24.7119
G01 X-0.2307 Y24.7051
G01 X-0.2076 Y24.6965
G01 X-0.1902 Y24.6906
G01 X-0.1550 Y24.6799
G01 X-0.1132 Y24.6694
G01 X-0.0952 Y24.6656
G01 X-0.0589 Y24.6593
G01 X-0.0345 Y24.6559
G01 X-0.0162 Y24.6539
G01 X0.0205 Y24.6512
G01 X0.0451 Y24.6502
G01 X22.9235 Y24.6500
G01 X22.9603 Y24.6509
G00 Z2.0000
G00 X24.6509 Y50.8267
G01 F60.00
G01 Z-2.4000
G01 F120.00
G01 X24.6523 Y50.8021
G01 X24.6559 Y50.7655
G01 X24.6622 Y50.7229
G01 X24.6694 Y50.6868
G01 X24.6799 Y50.6450
G01 X24.6906 Y50.6098
G01 X24.7051 Y50.5693
G01 X24.7191 Y50.5353
G01 X24.7376 Y50.4963
G01 X24.7549 Y50.4639
G01 X24.7770 Y50.4270
G01 X24.7975 Y50.3963
G01 X24.8231 Y50.3618
G01 X24.8465 Y50.3333
G01 X24.8754 Y50.3014
G01 X24.9014 Y50.2754
G01 X24.9195 Y50.2587
G01 X24.9474 Y50.2346
G01 X24.9764 Y50.2120
G01 X24.9963 Y50.1975
G01 X25.0115 Y50.1871
G01 X25.0426 Y50.1674
G01 X25.0639 Y50.1549
G01 X25.0800 Y50.1460
G01 X25.0963 Y50.1376
G01 X25.1185 Y50.1268
G01 X25.1522 Y50.1119
G01 X25.1693 Y50.1051
G01 X25.1924 Y50.0965
G01 X25.2273 Y50.0850
G01 X25.2628 Y50.0752
G01 X25.2868 Y50.0694
G01 X25.3048 Y50.0656
G01 X25.3411 Y50.0593
G01 X25.3655 Y50.0559
G01 X25.3838 Y50.0539
G01 X25.4021 Y50.0523
G01 X25.4267 Y50.0509
G01 X25.4635 Y50.0500
G01 X94.0435 Y50.0500
G01 X94.0803 Y50.0509
G01 X94.1049 Y50.0523
G01 X94.1415 Y50.0559
G01 X94.1598 Y50.0584
G01 X94.1841 Y50.0622
G01 X94.2202 Y50.0694
G01 X94.2442 Y50.0752
G01 X94.2797 Y50.0850
G01 X94.3146 Y50.0965
G01 X94.3377 Y50.1051
G01 X94.3717 Y50.1191
G01 X94.3941 Y50.1295
G01 X94.4270 Y50.1460
G01 X94.4590 Y50.1642
G01 X94.4800 Y50.1770
G01 X94.5107 Y50.1975
G01 X94.5306 Y50.2120
G01 X94.5596 Y50.2346
G01 X94.5875 Y50.2587
G01 X94.6056 Y50.2754
G01 X94.6316 Y50.3014
G01 X94.6483 Y50.3195
G01 X94.6724 Y50.3474
G01 X94.6950 Y50.3764
G01 X94.7095 Y50.3963
G01 X94.7300 Y50.4270
G01 X94.7428 Y50.4480
G01 X94.7610 Y50.4800
G01 X94.7775 Y50.5129
G01 X94.7879 Y50.5353
G01 X94.8019 Y50.5693
G01 X94.8105 Y50.5924
G01 X94.8220 Y50.6273
G01 X94.8318 Y50.6628
G01 X94.8376 Y50.6868
G01 X94.8448 Y50.7229
G01 X94.8486 Y50.7472
G01 X94.8531 Y50.7838
G01 X94.8558 Y50.8205
G01 X94.8568 Y50.8451
G01 X94.8570 Y71.1835
G01 X94.8561 Y71.2203
G01 X94.8547 Y71.2449
G01 X94.8531 Y71.2632
G01 X94.8486 Y71.2998
G01 X94.8448 Y71.3241
G01 X94.8376 Y71.3602
G01 X94.8318 Y71.3842
G01 X94.8220 Y71.4197
G01 X94.8105 Y71.4546
G01 X94.8019 Y71.4777
G01 X94.7879 Y71.5117
G01 X94.7775 Y71.5341
G01 X94.7610 Y71.5670
G01 X94.7428 Y71.5990
G01 X94.7300 Y71.6200
G01 X94.7095 Y71.6507
G01 X94.6950 Y71.6706
G01 X94.6724 Y71.6996
G01 X94.6483 Y71.7275
G01 X94.6316 Y71.7456
G01 X94.6056 Y71.7716
G01 X94.5875 Y71.7883
G01 X94.5596 Y71.8124
G01 X94.5306 Y71.8350
G01 X94.5107 Y71.8495
G01 X94.4800 Y71.8700
G01 X94.4590 Y71.8828
G01 X94.4270 Y71.9010
G01 X94.4107 Y71.9094
G01 X94.3885 Y71.9202
G01 X94.3548 Y71.9351
G01 X94.3205 Y71.9484
G01 X94.2972 Y71.9564
G01 X94.2620 Y71.9671
G01 X94.2381 Y71.9733
G01 X94.2022 Y71.9814
G01 X94.1659 Y71.9877
G01 X94.1415 Y71.9911
G01 X94.1049 Y71.9947
G01 X94.0803 Y71.9961
G01 X94.0435 Y71.9970
G01 X25.4635 Y71.9970
G01 X25.4267 Y71.9961
G01 X25.4021 Y71.9947
G01 X25.3655 Y71.9911
G01 X25.3472 Y71.9886
G01 X25.3229 Y71.9848
G01 X25.2868 Y71.9776
G01 X25.2628 Y71.9718
G01 X25.2273 Y71.9620
G01 X25.1924 Y71.9505
G01 X25.1693 Y71.9419
G01 X25.1353 Y71.9279
G01 X25.1129 Y71.9175
G01 X25.0800 Y71.9010
G01 X25.0480 Y71.8828
G01 X25.0270 Y71.8700
G01 X24.9963 Y71.8495
G01 X24.9764 Y71.8350
G01 X24.9474 Y71.8124
G01 X24.9195 Y71.7883
G01 X24.9014 Y71.7716
G01 X24.8754 Y71.7456
G01 X24.8587 Y71.7275
G01 X24.8346 Y71.6996
G01 X24.8120 Y71.6706
G01 X24.7975 Y71.6507
G01 X24.7770 Y71.6200
G01 X24.7642 Y71.5990
G01 X24.7460 Y71.5670
G01 X24.7295 Y71.5341
G01 X24.7191 Y71.5117
G01 X24.7051 Y71.4777
G01 X24.6965 Y71.4546
G01 X24.6850 Y71.4197
G01 X24.6752 Y71.3842
G01 X24.6694 Y71.3602
G01 X24.6622 Y71.3241
G01 X24.6584 Y71.2998
G01 X24.6539 Y71.2632
G01 X24.6512 Y71.2265
G01 X24.6502 Y71.2019
G01 X24.6500 Y50.8635
G01 X24.6509 Y50.8267
G00 Z2.0000
G00 X1.7909 Y73.6867
G01 F60.00
G01 Z-2.4000
G01 F120.00
G01 X1.7923 Y73.6621
G01 X1.7959 Y73.6255
G01 X1.8022 Y73.5829
G01 X1.8094 Y73.5468
G01 X1.8199 Y73.5050
G01 X1.8306 Y73.4698
G01 X1.8451 Y73.4293
G01 X1.8591 Y73.3953
G01 X1.8776 Y73.3563
G01 X1.8949 Y73.3239
G01 X1.9170 Y73.2870
G01 X1.9375 Y73.2563
G01 X1.9631 Y73.2218
G01 X1.9865 Y73.1933
G01 X2.0154 Y73.1614
G01 X2.0414 Y73.1354
G01 X2.0595 Y73.1187
G01 X2.0874 Y73.0946
G01 X2.1164 Y73.0720
G01 X2.1363 Y73.0575
G01 X2.1515 Y73.0471
G01 X2.1826 Y73.0274
G01 X2.2039 Y73.0149
G01 X2.2200 Y73.0060
G01 X2.2363 Y72.9976
G01 X2.2585 Y72.9868
G01 X2.2922 Y72.9719
G01 X2.3265 Y72.9586
G01 X2.3498 Y72.9506
G01 X2.3673 Y72.9450
G01 X2.3850 Y72.9399
G01 X2.4089 Y72.9337
G01 X2.4448 Y72.9256
G01 X2.4811 Y72.9193
G01 X2.5055 Y72.9159
G01 X2.5238 Y72.9139
G01 X2.5421 Y72.9123
G01 X2.5667 Y72.9109
G01 X2.6035 Y72.9100
G01 X71.1835 Y72.9100
G01 X71.2203 Y72.9109
G01 X71.2449 Y72.9123
G01 X71.2815 Y72.9159
G01 X71.2998 Y72.9184
G01 X71.3241 Y72.9222
G01 X71.3602 Y72.9294
G01 X71.3842 Y72.9352
G01 X71.4197 Y72.9450
G01 X71.4546 Y72.9565
G01 X71.4777 Y72.9651
G01 X71.5117 Y72.9791
G01 X71.5341 Y72.9895
G01 X71.5670 Y73.0060
G01 X71.5990 Y73.0242
G01 X71.6200 Y73.0370
G01 X71.6507 Y73.0575
G01 X71.6706 Y73.0720
G01 X71.6996 Y73.0946
G01 X71.7275 Y73.1187
G01 X71.7456 Y73.1354
G01 X71.7716 Y73.1614
G01 X71.7883 Y73.1795
G01 X71.8124 Y73.2074
G01 X71.8350 Y73.2364
G01 X71.8495 Y73.2563
G01 X71.8700 Y73.2870
G01 X71.8828 Y73.3080
G01 X71.9010 Y73.3400
G01 X71.9175 Y73.3729
G01 X71.9279 Y73.3953
G01 X71.9419 Y73.4293
G01 X71.9505 Y73.4524
G01 X71.9620 Y73.4873
G01 X71.9718 Y73.5228
G01 X71.9776 Y73.5468
G01 X71.9848 Y73.5829
G01 X71.9886 Y73.6072
G01 X71.9931 Y73.6438
G01 X71.9958 Y73.6805
G01 X71.9968 Y73.7051
G01 X71.9970 Y94.0435
G01 X71.9961 Y94.0803
G01 X71.9947 Y94.1049
G01 X71.9931 Y94.1232
G01 X71.9886 Y94.1598
G01 X71.9848 Y94.1841
G01 X71.9776 Y94.2202
G01 X71.9718 Y94.2442
G01 X71.9620 Y94.2797
G01 X71.9505 Y94.3146
G01 X71.9419 Y94.3377
G01 X71.9279 Y94.3717
G01 X71.9175 Y94.3941
G01 X71.9010 Y94.4270
G01 X71.8828 Y94.4590
G01 X71.8700 Y94.4800
G01 X71.8495 Y94.5107
G01 X71.8350 Y94.5306
G01 X71.8124 Y94.5596
G01 X71.7883 Y94.5875
G01 X71.7716 Y94.6056
G01 X71.7456 Y94.6316
G01 X71.7275 Y94.6483
G01 X71.6996 Y94.6724
G01 X71.6706 Y94.6950
G01 X71.6507 Y94.7095
G01 X71.6200 Y94.7300
G01 X71.5990 Y94.7428
G01 X71.5670 Y94.7610
G01 X71.5507 Y94.7694
G01 X71.5285 Y94.7802
G01 X71.4948 Y94.7951
G01 X71.4605 Y94.8084
G01 X71.4372 Y94.8164
G01 X71.4020 Y94.8271
G01 X71.3781 Y94.8333
G01 X71.3422 Y94.8414
G01 X71.3059 Y94.8477
G01 X71.2815 Y94.8511
G01 X71.2449 Y94.8547
G01 X71.2203 Y94.8561
G01 X71.1835 Y94.8570
G01 X2.6035 Y94.8570
G01 X2.5667 Y94.8561
G01 X2.5421 Y94.8547
G01 X2.5055 Y94.8511
G01 X2.4872 Y94.8486
G01 X2.4629 Y94.8448
G01 X2.4268 Y94.8376
G01 X2.4028 Y94.8318
G01 X2.3673 Y94.8220
G01 X2.3324 Y94.8105
G01 X2.3093 Y94.8019
G01 X2.2753 Y94.7879
G01 X2.2529 Y94.7775
G01 X2.2200 Y94.7610
G01 X2.1880 Y94.7428
G01 X2.1670 Y94.7300
G01 X2.1363 Y94.7095
G01 X2.1164 Y94.6950
G01 X2.0874 Y94.6724
G01 X2.0595 Y94.6483
G01 X2.0414 Y94.6316
G01 X2.0154 Y94.6056
G01 X1.9987 Y94.5875
G01 X1.9746 Y94.5596
G01 X1.9520 Y94.5306
G01 X1.9375 Y94.5107
G01 X1.9170 Y94.4800
G01 X1.9042 Y94.4590
G01 X1.8860 Y94.4270
G01 X1.8695 Y94.3941
G01 X1.8591 Y94.3717
G01 X1.8451 Y94.3377
G01 X1.8365 Y94.3146
G01 X1.8250 Y94.2797
G01 X1.8152 Y94.2442
G01 X1.8094 Y94.2202
G01 X1.8022 Y94.1841
G01 X1.7984 Y94.1598
G01 X1.7939 Y94.1232
G01 X1.7912 Y94.0865
G01 X1.7902 Y94.0619
G01 X1.7900 Y73.7235
G01 X1.7909 Y73.6867
G00 Z2.0000
G00 X119.4435 Y94.8570
G01 F60.00
G01 Z-2.4000
G01 F120.00
G01 X73.7235 Y94.8570
G01 X73.6867 Y94.8561
G01 X73.6621 Y94.8547
G01 X73.6438 Y94.8531
G01 X73.6255 Y94.8511
G01 X73.6011 Y94.8477
G01 X73.5648 Y94.8414
G01 X73.5468 Y94.8376
G01 X73.5050 Y94.8271
G01 X73.4698 Y94.8164
G01 X73.4293 Y94.8019
G01 X73.3953 Y94.7879
G01 X73.3785 Y94.7802
G01 X73.3563 Y94.7694
G01 X73.3400 Y94.7610
G01 X73.3080 Y94.7428
G01 X73.2870 Y94.7300
G01 X73.2563 Y94.7095
G01 X73.2364 Y94.6950
G01 X73.2074 Y94.6724
G01 X73.1933 Y94.6605
G01 X73.1749 Y94.6441
G01 X73.1482 Y94.6188
G01 X73.1354 Y94.6056
G01 X73.1187 Y94.5875
G01 X73.0946 Y94.5596
G01 X73.0831 Y94.5452
G01 X73.0683 Y94.5256
G01 X73.0471 Y94.4955
G01 X73.0274 Y94.4644
G01 X73.0149 Y94.4431
G01 X72.9976 Y94.4107
G01 X72.9868 Y94.3885
G01 X72.9719 Y94.3548
G01 X72.9651 Y94.3377
G01 X72.9565 Y94.3146
G01 X72.9450 Y94.2797
G01 X72.9352 Y94.2442
G01 X72.9294 Y94.2202
G01 X72.9256 Y94.2022
G01 X72.9193 Y94.1659
G01 X72.9159 Y94.1415
G01 X72.9139 Y94.1232
G01 X72.9112 Y94.0865
G01 X72.9102 Y94.0619
G01 X72.9100 Y73.7235
G01 X72.9109 Y73.6867
G01 X72.9123 Y73.6621
G01 X72.9139 Y73.6438
G01 X72.9159 Y73.6255
G01 X72.9193 Y73.6011
G01 X72.9256 Y73.5648
G01 X72.9294 Y73.5468
G01 X72.9399 Y73.5050
G01 X72.9506 Y73.4698
G01 X72.9651 Y73.4293
G01 X72.9719 Y73.4122
G01 X72.9868 Y73.3785
G01 X72.9976 Y73.3563
G01 X73.0060 Y73.3400
G01 X73.0242 Y73.3080
G01 X73.0370 Y73.2870
G01 X73.0575 Y73.2563
G01 X73.0720 Y73.2364
G01 X73.0946 Y73.2074
G01 X73.1065 Y73.1933
G01 X73.1229 Y73.1749
G01 X73.1482 Y73.1482
G01 X73.1749 Y73.1229
G01 X73.1933 Y73.1065
G01 X73.2218 Y73.0831
G01 X73.2364 Y73.0720
G01 X73.2563 Y73.0575
G01 X73.2870 Y73.0370
G01 X73.3080 Y73.0242
G01 X73.3400 Y73.0060
G01 X73.3563 Y72.9976
G01 X73.3785 Y72.9868
G01 X73.3953 Y72.9791
G01 X73.4293 Y72.9651
G01 X73.4524 Y72.9565
G01 X73.4873 Y72.9450
G01 X73.5228 Y72.9352
G01 X73.5468 Y72.9294
G01 X73.5829 Y72.9222
G01 X73.6011 Y72.9193
G01 X73.6255 Y72.9159
G01 X73.6621 Y72.9123
G01 X73.6867 Y72.9109
G01 X73.7235 Y72.9100
G01 X119.4435 Y72.9100
G01 X119.4803 Y72.9109
G01 X119.5049 Y72.9123
G01 X119.5232 Y72.9139
G01 X119.5415 Y72.9159
G01 X119.5659 Y72.9193
G01 X119.6022 Y72.9256
G01 X119.6202 Y72.9294
G01 X119.6620 Y72.9399
G01 X119.6972 Y72.9506
G01 X119.7377 Y72.9651
G01 X119.7548 Y72.9719
G01 X119.7885 Y72.9868
G01 X119.8107 Y72.9976
G01 X119.8270 Y73.0060
G01 X119.8590 Y73.0242
G01 X119.8800 Y73.0370
G01 X119.9107 Y73.0575
G01 X119.9306 Y73.0720
G01 X119.9596 Y73.0946
G01 X119.9737 Y73.1065
G01 X119.9921 Y73.1229
G01 X120.0188 Y73.1482
G01 X120.0316 Y73.1614
G01 X120.0483 Y73.1795
G01 X120.0724 Y73.2074
G01 X120.0839 Y73.2218
G01 X120.0987 Y73.2414
G01 X120.1199 Y73.2715
G01 X120.1396 Y73.3026
G01 X120.1521 Y73.3239
G01 X120.1694 Y73.3563
G01 X120.1775 Y73.3729
G01 X120.1879 Y73.3953
G01 X120.2019 Y73.4293
G01 X120.2105 Y73.4524
G01 X120.2220 Y73.4873
G01 X120.2318 Y73.5228
G01 X120.2376 Y73.5468
G01 X120.2448 Y73.5829
G01 X120.2477 Y73.6011
G01 X120.2511 Y73.6255
G01 X120.2531 Y73.6438
G01 X120.2558 Y73.6805
G01 X120.2568 Y73.7051
G01 X120.2568 Y94.0619
G01 X120.2558 Y94.0865
G01 X120.2531 Y94.1232
G01 X120.2486 Y94.1598
G01 X120.2448 Y94.1841
G01 X120.2414 Y94.2022
G01 X120.2376 Y94.2202
G01 X120.2318 Y94.2442
G01 X120.2220 Y94.2797
G01 X120.2164 Y94.2972
G01 X120.2084 Y94.3205
G01 X120.1951 Y94.3548
G01 X120.1802 Y94.3885
G01 X120.1694 Y94.4107
G01 X120.1610 Y94.4270
G01 X120.1521 Y94.4431
G01 X120.1396 Y94.4644
G01 X120.1199 Y94.4955
G01 X120.1095 Y94.5107
G01 X120.0950 Y94.5306
G01 X120.0724 Y94.5596
G01 X120.0483 Y94.5875
G01 X120.0316 Y94.6056
G01 X120.0188 Y94.6188
G01 X120.0056 Y94.6316
G01 X119.9875 Y94.6483
G01 X119.9596 Y94.6724
G01 X119.9452 Y94.6839
G01 X119.9256 Y94.6987
G01 X119.8955 Y94.7199
G01 X119.8644 Y94.7396
G01 X119.8431 Y94.7521
G01 X119.8270 Y94.7610
G01 X119.8107 Y94.7694
G01 X119.7885 Y94.7802
G01 X119.7548 Y94.7951
G01 X119.7205 Y94.8084
G01 X119.6972 Y94.8164
G01 X119.6797 Y94.8220
G01 X119.6620 Y94.8271
G01 X119.6381 Y94.8333
G01 X119.6022 Y94.8414
G01 X119.5659 Y94.8477
G01 X119.5415 Y94.8511
G01 X119.5232 Y94.8531
G01 X119.5049 Y94.8547
G01 X119.4803 Y94.8561
G01 X119.4435 Y94.8570
G00 Z2.0000
G00 X167.7035 Y94.8570
G01 F60.00
G01 Z-2.4000
G01 F120.00
G01 X121.9835 Y94.8570
G01 X121.9467 Y94.8561
G01 X121.9221 Y94.8547
G01 X121.9038 Y94.8531
G01 X121.8855 Y94.8511
G01 X121.8611 Y94.8477
G01 X121.8248 Y94.8414
G01 X121.8068 Y94.8376
G01 X121.7650 Y94.8271
G01 X121.7298 Y94.8164
G01 X121.6893 Y94.8019
G01 X121.6722 Y94.7951
G01 X121.6385 Y94.7802
G01 X121.6163 Y94.7694
G01 X121.6000 Y94.7610
G01 X121.5680 Y94.7428
G01 X121.5470 Y94.7300
G01 X121.5315 Y94.7199
G01 X121.5014 Y94.6987
G01 X121.4818 Y94.6839
G01 X121.4533 Y94.6605
G01 X121.4349 Y94.6441
G01 X121.4082 Y94.6188
G01 X121.3954 Y94.6056
G01 X121.3787 Y94.5875
G01 X121.3665 Y94.5737
G01 X121.3431 Y94.5452
G01 X121.3283 Y94.5256
G01 X121.3071 Y94.4955
G01 X121.2874 Y94.4644
G01 X121.2749 Y94.4431
G01 X121.2660 Y94.4270
G01 X121.2495 Y94.3941
G01 X121.2391 Y94.3717
G01 X121.2251 Y94.3377
G01 X121.2165 Y94.3146
G01 X121.2050 Y94.2797
G01 X121.1952 Y94.2442
G01 X121.1894 Y94.2202
G01 X121.1822 Y94.1841
G01 X121.1793 Y94.1659
G01 X121.1759 Y94.1415
G01 X121.1739 Y94.1232
G01 X121.1712 Y94.0865
G01 X121.1702 Y94.0619
G01 X121.1700 Y73.7235
G01 X121.1709 Y73.6867
G01 X121.1723 Y73.6621
G01 X121.1739 Y73.6438
G01 X121.1759 Y73.6255
G01 X121.1793 Y73.6011
G01 X121.1822 Y73.5829
G01 X121.1894 Y73.5468
G01 X121.1999 Y73.5050
G01 X121.2106 Y73.4698
G01 X121.2251 Y73.4293
G01 X121.2391 Y73.3953
G01 X121.2468 Y73.3785
G01 X121.2576 Y73.3563
G01 X121.2660 Y73.3400
G01 X121.2842 Y73.3080
G01 X121.2970 Y73.2870
G01 X121.3071 Y73.2715
G01 X121.3283 Y73.2414
G01 X121.3431 Y73.2218
G01 X121.3665 Y73.1933
G01 X121.3829 Y73.1749
G01 X121.4082 Y73.1482
G01 X121.4349 Y73.1229
G01 X121.4533 Y73.1065
G01 X121.4818 Y73.0831
G01 X121.4964 Y73.0720
G01 X121.5163 Y73.0575
G01 X121.5470 Y73.0370
G01 X121.5680 Y73.0242
G01 X121.6000 Y73.0060
G01 X121.6163 Y72.9976
G01 X121.6385 Y72.9868
G01 X121.6722 Y72.9719
G01 X121.6893 Y72.9651
G01 X121.7124 Y72.9565
G01 X121.7473 Y72.9450
G01 X121.7828 Y72.9352
G01 X121.8068 Y72.9294
G01 X121.8248 Y72.9256
G01 X121.8611 Y72.9193
G01 X121.8855 Y72.9159
G01 X121.9221 Y72.9123
G01 X121.9467 Y72.9109
G01 X121.9835 Y72.9100
G01 X167.7035 Y72.9100
G01 X167.7403 Y72.9109
G01 X167.7649 Y72.9123
G01 X167.7832 Y72.9139
G01 X167.8015 Y72.9159
G01 X167.8259 Y72.9193
G01 X167.8622 Y72.9256
G01 X167.8802 Y72.9294
G01 X167.9220 Y72.9399
G01 X167.9572 Y72.9506
G01 X167.9977 Y72.9651
G01 X168.0148 Y72.9719
G01 X168.0485 Y72.9868
G01 X168.0707 Y72.9976
G01 X168.0870 Y73.0060
G01 X168.1190 Y73.0242
G01 X168.1400 Y73.0370
G01 X168.1707 Y73.0575
G01 X168.1856 Y73.0683
G01 X168.2052 Y73.0831
G01 X168.2337 Y73.1065
G01 X168.2521 Y73.1229
G01 X168.2788 Y73.1482
G01 X168.2916 Y73.1614
G01 X168.3083 Y73.1795
G01 X168.3324 Y73.2074
G01 X168.3439 Y73.2218
G01 X168.3587 Y73.2414
G01 X168.3799 Y73.2715
G01 X168.3996 Y73.3026
G01 X168.4121 Y73.3239
G01 X168.4210 Y73.3400
G01 X168.4375 Y73.3729
G01 X168.4479 Y73.3953
G01 X168.4619 Y73.4293
G01 X168.4705 Y73.4524
G01 X168.4820 Y73.4873
G01 X168.4918 Y73.5228
G01 X168.4976 Y73.5468
G01 X168.5048 Y73.5829
G01 X168.5077 Y73.6011
G01 X168.5111 Y73.6255
G01 X168.5131 Y73.6438
G01 X168.5158 Y73.6805
G01 X168.5168 Y73.7051
G01 X168.5168 Y94.0619
G01 X168.5158 Y94.0865
G01 X168.5131 Y94.1232
G01 X168.5086 Y94.1598
G01 X168.5048 Y94.1841
G01 X168.5014 Y94.2022
G01 X168.4976 Y94.2202
G01 X168.4918 Y94.2442
G01 X168.4820 Y94.2797
G01 X168.4764 Y94.2972
G01 X168.4684 Y94.3205
G01 X168.4551 Y94.3548
G01 X168.4402 Y94.3885
G01 X168.4294 Y94.4107
G01 X168.4210 Y94.4270
G01 X168.4121 Y94.4431
G01 X168.3996 Y94.4644
G01 X168.3799 Y94.4955
G01 X168.3587 Y94.5256
G01 X168.3439 Y94.5452
G01 X168.3324 Y94.5596
G01 X168.3083 Y94.5875
G01 X168.2916 Y94.6056
G01 X168.2788 Y94.6188
G01 X168.2656 Y94.6316
G01 X168.2475 Y94.6483
G01 X168.2196 Y94.6724
G01 X168.2052 Y94.6839
G01 X168.1856 Y94.6987
G01 X168.1555 Y94.7199
G01 X168.1244 Y94.7396
G01 X168.1031 Y94.7521
G01 X168.0870 Y94.7610
G01 X168.0707 Y94.7694
G01 X168.0485 Y94.7802
G01 X168.0148 Y94.7951
G01 X167.9805 Y94.8084
G01 X167.9572 Y94.8164
G01 X167.9397 Y94.8220
G01 X167.9220 Y94.8271
G01 X167.8981 Y94.8333
G01 X167.8622 Y94.8414
G01 X167.8259 Y94.8477
G01 X167.8015 Y94.8511
G01 X167.7832 Y94.8531
G01 X167.7649 Y94.8547
G01 X167.7403 Y94.8561
G01 X167.7035 Y94.8570
G00 Z2.0000
G00 X169.4300 Y94.0435
G01 F60.00
G01 Z-2.4000
G01 F120.00
G01 X169.4300 Y48.3235
G01 X169.4309 Y48.2867
G01 X169.4323 Y48.2621
G01 X169.4339 Y48.2438
G01 X169.4359 Y48.2255
G01 X169.4393 Y48.2011
G01 X169.4456 Y48.1648
G01 X169.4494 Y48.1468
G01 X169.4599 Y48.1050
G01 X169.4706 Y48.0698
G01 X169.4851 Y48.0293
G01 X169.4919 Y48.0122
G01 X169.5068 Y47.9785
G01 X169.5176 Y47.9563
G01 X169.5260 Y47.9400
G01 X169.5442 Y47.9080
G01 X169.5570 Y47.8870
G01 X169.5775 Y47.8563
G01 X169.5920 Y47.8364
G01 X169.6031 Y47.8218
G01 X169.6265 Y47.7933
G01 X169.6429 Y47.7749
G01 X169.6682 Y47.7482
G01 X169.6814 Y47.7354
G01 X169.6995 Y47.7187
G01 X169.7133 Y47.7065
G01 X169.7418 Y47.6831
G01 X169.7614 Y47.6683
G01 X169.7915 Y47.6471
G01 X169.8226 Y47.6274
G01 X169.8439 Y47.6149
G01 X169.8763 Y47.5976
G01 X169.8985 Y47.5868
G01 X169.9153 Y47.5791
G01 X169.9493 Y47.5651
G01 X169.9724 Y47.5565
G01 X170.0073 Y47.5450
G01 X170.0428 Y47.5352
G01 X170.0668 Y47.5294
G01 X170.0848 Y47.5256
G01 X170.1211 Y47.5193
G01 X170.1455 Y47.5159
G01 X170.1638 Y47.5139
G01 X170.2005 Y47.5112
G01 X170.2251 Y47.5102
G01 X190.5635 Y47.5100
G01 X190.6003 Y47.5109
G01 X190.6249 Y47.5123
G01 X190.6432 Y47.5139
G01 X190.6615 Y47.5159
G01 X190.6859 Y47.5193
G01 X190.7041 Y47.5222
G01 X190.7402 Y47.5294
G01 X190.7820 Y47.5399
G01 X190.8172 Y47.5506
G01 X190.8577 Y47.5651
G01 X190.8748 Y47.5719
G01 X190.9085 Y47.5868
G01 X190.9307 Y47.5976
G01 X190.9470 Y47.6060
G01 X190.9790 Y47.6242
G01 X191.0000 Y47.6370
G01 X191.0155 Y47.6471
G01 X191.0456 Y47.6683
G01 X191.0652 Y47.6831
G01 X191.0937 Y47.7065
G01 X191.1121 Y47.7229
G01 X191.1388 Y47.7482
G01 X191.1641 Y47.7749
G01 X191.1805 Y47.7933
G01 X191.2039 Y47.8218
G01 X191.2150 Y47.8364
G01 X191.2295 Y47.8563
G01 X191.2500 Y47.8870
G01 X191.2628 Y47.9080
G01 X191.2810 Y47.9400
G01 X191.2894 Y47.9563
G01 X191.3002 Y47.9785
G01 X191.3079 Y47.9953
G01 X191.3219 Y48.0293
G01 X191.3305 Y48.0524
G01 X191.3420 Y48.0873
G01 X191.3518 Y48.1228
G01 X191.3576 Y48.1468
G01 X191.3614 Y48.1648
G01 X191.3677 Y48.2011
G01 X191.3711 Y48.2255
G01 X191.3747 Y48.2621
G01 X191.3761 Y48.2867
G01 X191.3770 Y48.3235
G01 X191.3770 Y94.0435
G01 X191.3761 Y94.0803
G01 X191.3747 Y94.1049
G01 X191.3731 Y94.1232
G01 X191.3711 Y94.1415
G01 X191.3677 Y94.1659
G01 X191.3614 Y94.2022
G01 X191.3576 Y94.2202
G01 X191.3471 Y94.2620
G01 X191.3364 Y94.2972
G01 X191.3219 Y94.3377
G01 X191.3079 Y94.3717
G01 X191.3002 Y94.3885
G01 X191.2894 Y94.4107
G01 X191.2810 Y94.4270
G01 X191.2628 Y94.4590
G01 X191.2500 Y94.4800
G01 X191.2295 Y94.5107
G01 X191.2187 Y94.5256
G01 X191.2039 Y94.5452
G01 X191.1805 Y94.5737
G01 X191.1641 Y94.5921
G01 X191.1388 Y94.6188
G01 X191.1256 Y94.6316
G01 X191.1075 Y94.6483
G01 X191.0796 Y94.6724
G01 X191.0652 Y94.6839
G01 X191.0456 Y94.6987
G01 X191.0155 Y94.7199
G01 X190.9844 Y94.7396
G01 X190.9631 Y94.7521
G01 X190.9307 Y94.7694
G01 X190.9085 Y94.7802
G01 X190.8917 Y94.7879
G01 X190.8577 Y94.8019
G01 X190.8346 Y94.8105
G01 X190.7997 Y94.8220
G01 X190.7642 Y94.8318
G01 X190.7402 Y94.8376
G01 X190.7222 Y94.8414
G01 X190.6859 Y94.8477
G01 X190.6615 Y94.8511
G01 X190.6432 Y94.8531
G01 X190.6065 Y94.8558
G01 X190.5819 Y94.8568
G01 X170.2251 Y94.8568
G01 X170.2005 Y94.8558
G01 X170.1638 Y94.8531
G01 X170.1455 Y94.8511
G01 X170.1211 Y94.8477
G01 X170.0848 Y94.8414
G01 X170.0489 Y94.8333
G01 X170.0250 Y94.8271
G01 X170.0073 Y94.8220
G01 X169.9898 Y94.8164
G01 X169.9665 Y94.8084
G01 X169.9322 Y94.7951
G01 X169.8985 Y94.7802
G01 X169.8763 Y94.7694
G01 X169.8600 Y94.7610
G01 X169.8439 Y94.7521
G01 X169.8226 Y94.7396
G01 X169.7915 Y94.7199
G01 X169.7763 Y94.7095
G01 X169.7564 Y94.6950
G01 X169.7274 Y94.6724
G01 X169.6995 Y94.6483
G01 X169.6814 Y94.6316
G01 X169.6682 Y94.6188
G01 X169.6554 Y94.6056
G01 X169.6387 Y94.5875
G01 X169.6146 Y94.5596
G01 X169.5920 Y94.5306
G01 X169.5775 Y94.5107
G01 X169.5671 Y94.4955
G01 X169.5570 Y94.4800
G01 X169.5442 Y94.4590
G01 X169.5260 Y94.4270
G01 X169.5095 Y94.3941
G01 X169.4991 Y94.3717
G01 X169.4919 Y94.3548
G01 X169.4786 Y94.3205
G01 X169.4706 Y94.2972
G01 X169.4650 Y94.2797
G01 X169.4599 Y94.2620
G01 X169.4537 Y94.2381
G01 X169.4456 Y94.2022
G01 X169.4393 Y94.1659
G01 X169.4359 Y94.1415
G01 X169.4339 Y94.1232
G01 X169.4323 Y94.1049
G01 X169.4309 Y94.0803
G01 X169.4300 Y94.0435
G00 Z2.0000
G00 X149.9235 Y49.1370
G01 F60.00
G01 Z-2.4000
G01 F120.00
G01 X111.8235 Y49.1370
G01 X111.7867 Y49.1361
G01 X111.7621 Y49.1347
G01 X111.7255 Y49.1311
G01 X111.7072 Y49.1286
G01 X111.6829 Y49.1248
G01 X111.6468 Y49.1176
G01 X111.6228 Y49.1118
G01 X111.5873 Y49.1020
G01 X111.5524 Y49.0905
G01 X111.5293 Y49.0819
G01 X111.4953 Y49.0679
G01 X111.4785 Y49.0602
G01 X111.4563 Y49.0494
G01 X111.4400 Y49.0410
G01 X111.4080 Y49.0228
G01 X111.3870 Y49.0100
G01 X111.3715 Y48.9999
G01 X111.3414 Y48.9787
G01 X111.3218 Y48.9639
G01 X111.3074 Y48.9524
G01 X111.2795 Y48.9283
G01 X111.2614 Y48.9116
G01 X111.2354 Y48.8856
G01 X111.2229 Y48.8721
G01 X111.2065 Y48.8537
G01 X111.1946 Y48.8396
G01 X111.1720 Y48.8106
G01 X111.1575 Y48.7907
G01 X111.1370 Y48.7600
G01 X111.1274 Y48.7444
G01 X111.1149 Y48.7231
G01 X111.1060 Y48.7070
G01 X111.0976 Y48.6907
G01 X111.0868 Y48.6685
G01 X111.0791 Y48.6517
G01 X111.0651 Y48.6177
G01 X111.0506 Y48.5772
G01 X111.0450 Y48.5597
G01 X111.0352 Y48.5242
G01 X111.0294 Y48.5002
G01 X111.0256 Y48.4822
G01 X111.0193 Y48.4459
G01 X111.0159 Y48.4215
G01 X111.0139 Y48.4032
G01 X111.0112 Y48.3665
G01 X111.0102 Y48.3419
G01 X111.0100 Y48.3235
G01 X111.0100 Y25.4635
G01 X111.0109 Y25.4267
G01 X111.0123 Y25.4021
G01 X111.0159 Y25.3655
G01 X111.0184 Y25.3472
G01 X111.0222 Y25.3229
G01 X111.0294 Y25.2868
G01 X111.0352 Y25.2628
G01 X111.0450 Y25.2273
G01 X111.0565 Y25.1924
G01 X111.0651 Y25.1693
G01 X111.0719 Y25.1522
G01 X111.0868 Y25.1185
G01 X111.0976 Y25.0963
G01 X111.1060 Y25.0800
G01 X111.1242 Y25.0480
G01 X111.1370 Y25.0270
G01 X111.1471 Y25.0115
G01 X111.1683 Y24.9814
G01 X111.1831 Y24.9618
G01 X111.1946 Y24.9474
G01 X111.2187 Y24.9195
G01 X111.2354 Y24.9014
G01 X111.2614 Y24.8754
G01 X111.2749 Y24.8629
G01 X111.2933 Y24.8465
G01 X111.3074 Y24.8346
G01 X111.3364 Y24.8120
G01 X111.3563 Y24.7975
G01 X111.3870 Y24.7770
G01 X111.4026 Y24.7674
G01 X111.4239 Y24.7549
G01 X111.4400 Y24.7460
G01 X111.4563 Y24.7376
G01 X111.4785 Y24.7268
G01 X111.5122 Y24.7119
G01 X111.5293 Y24.7051
G01 X111.5698 Y24.6906
G01 X111.5873 Y24.6850
G01 X111.6228 Y24.6752
G01 X111.6468 Y24.6694
G01 X111.6648 Y24.6656
G01 X111.7011 Y24.6593
G01 X111.7255 Y24.6559
G01 X111.7438 Y24.6539
G01 X111.7805 Y24.6512
G01 X111.8051 Y24.6502
G01 X111.8235 Y24.6500
G01 X149.9235 Y24.6500
G01 X149.9603 Y24.6509
G01 X149.9849 Y24.6523
G01 X150.0215 Y24.6559
G01 X150.0398 Y24.6584
G01 X150.0641 Y24.6622
G01 X150.1002 Y24.6694
G01 X150.1242 Y24.6752
G01 X150.1597 Y24.6850
G01 X150.1946 Y24.6965
G01 X150.2177 Y24.7051
G01 X150.2348 Y24.7119
G01 X150.2685 Y24.7268
G01 X150.2907 Y24.7376
G01 X150.3070 Y24.7460
G01 X150.3390 Y24.7642
G01 X150.3600 Y24.7770
G01 X150.3907 Y24.7975
G01 X150.4056 Y24.8083
G01 X150.4252 Y24.8231
G01 X150.4396 Y24.8346
G01 X150.4537 Y24.8465
G01 X150.4721 Y24.8629
G01 X150.4856 Y24.8754
G01 X150.5116 Y24.9014
G01 X150.5405 Y24.9333
G01 X150.5639 Y24.9618
G01 X150.5750 Y24.9764
G01 X150.5895 Y24.9963
G01 X150.5999 Y25.0115
G01 X150.6196 Y25.0426
G01 X150.6321 Y25.0639
G01 X150.6410 Y25.0800
G01 X150.6575 Y25.1129
G01 X150.6679 Y25.1353
G01 X150.6751 Y25.1522
G01 X150.6819 Y25.1693
G01 X150.6905 Y25.1924
G01 X150.6964 Y25.2098
G01 X150.7071 Y25.2450
G01 X150.7176 Y25.2868
G01 X150.7248 Y25.3229
G01 X150.7277 Y25.3411
G01 X150.7311 Y25.3655
G01 X150.7331 Y25.3838
G01 X150.7358 Y25.4205
G01 X150.7368 Y25.4451
G01 X150.7368 Y48.3419
G01 X150.7358 Y48.3665
G01 X150.7331 Y48.4032
G01 X150.7286 Y48.4398
G01 X150.7248 Y48.4641
G01 X150.7214 Y48.4822
G01 X150.7176 Y48.5002
G01 X150.7118 Y48.5242
G01 X150.7020 Y48.5597
G01 X150.6905 Y48.5946
G01 X150.6819 Y48.6177
G01 X150.6751 Y48.6348
G01 X150.6679 Y48.6517
G01 X150.6575 Y48.6741
G01 X150.6410 Y48.7070
G01 X150.6228 Y48.7390
G01 X150.6100 Y48.7600
G01 X150.5999 Y48.7755
G01 X150.5895 Y48.7907
G01 X150.5750 Y48.8106
G01 X150.5524 Y48.8396
G01 X150.5283 Y48.8675
G01 X150.5116 Y48.8856
G01 X150.4988 Y48.8988
G01 X150.4856 Y48.9116
G01 X150.4675 Y48.9283
G01 X150.4396 Y48.9524
G01 X150.4252 Y48.9639
G01 X150.4056 Y48.9787
G01 X150.3755 Y48.9999
G01 X150.3444 Y49.0196
G01 X150.3231 Y49.0321
G01 X150.3070 Y49.0410
G01 X150.2907 Y49.0494
G01 X150.2685 Y49.0602
G01 X150.2348 Y49.0751
G01 X150.2005 Y49.0884
G01 X150.1772 Y49.0964
G01 X150.1597 Y49.1020
G01 X150.1242 Y49.1118
G01 X150.1002 Y49.1176
G01 X150.0822 Y49.1214
G01 X150.0459 Y49.1277
G01 X150.0215 Y49.1311
G01 X150.0032 Y49.1331
G01 X149.9849 Y49.1347
G01 X149.9603 Y49.1361
G01 X149.9235 Y49.1370
G00 Z2.0000
G00 X190.5635 Y46.5373
G01 F60.00
G01 Z-2.4000
G01 F120.00
G01 X152.4635 Y46.5373
G01 X152.4451 Y46.5371
G01 X152.4205 Y46.5361
G01 X152.4021 Y46.5350
G01 X152.3655 Y46.5314
G01 X152.3411 Y46.5280
G01 X152.3048 Y46.5217
G01 X152.2868 Y46.5179
G01 X152.2628 Y46.5121
G01 X152.2273 Y46.5023
G01 X152.2098 Y46.4967
G01 X152.1865 Y46.4887
G01 X152.1522 Y46.4754
G01 X152.1353 Y46.4682
G01 X152.1129 Y46.4578
G01 X152.0963 Y46.4498
G01 X152.0639 Y46.4324
G01 X152.0270 Y46.4103
G01 X151.9963 Y46.3898
G01 X151.9814 Y46.3790
G01 X151.9618 Y46.3642
G01 X151.9474 Y46.3527
G01 X151.9195 Y46.3286
G01 X151.9014 Y46.3119
G01 X151.8882 Y46.2991
G01 X151.8629 Y46.2724
G01 X151.8465 Y46.2540
G01 X151.8346 Y46.2399
G01 X151.8120 Y46.2109
G01 X151.7975 Y46.1910
G01 X151.7871 Y46.1758
G01 X151.7674 Y46.1447
G01 X151.7549 Y46.1234
G01 X151.7460 Y46.1073
G01 X151.7295 Y46.0744
G01 X151.7191 Y46.0521
G01 X151.7119 Y46.0351
G01 X151.6986 Y46.0008
G01 X151.6906 Y45.9775
G01 X151.6850 Y45.9600
G01 X151.6752 Y45.9245
G01 X151.6694 Y45.9005
G01 X151.6622 Y45.8644
G01 X151.6593 Y45.8463
G01 X151.6559 Y45.8218
G01 X151.6539 Y45.8035
G01 X151.6512 Y45.7668
G01 X151.6502 Y45.7422
G01 X151.6500 Y25.4038
G01 X151.6502 Y25.3854
G01 X151.6512 Y25.3608
G01 X151.6539 Y25.3241
G01 X151.6559 Y25.3058
G01 X151.6593 Y25.2814
G01 X151.6656 Y25.2451
G01 X151.6694 Y25.2271
G01 X151.6752 Y25.2031
G01 X151.6799 Y25.1853
G01 X151.6906 Y25.1501
G01 X151.6986 Y25.1268
G01 X151.7119 Y25.0925
G01 X151.7191 Y25.0756
G01 X151.7295 Y25.0532
G01 X151.7460 Y25.0203
G01 X151.7549 Y25.0042
G01 X151.7674 Y24.9829
G01 X151.7871 Y24.9518
G01 X151.7975 Y24.9367
G01 X151.8120 Y24.9167
G01 X151.8231 Y24.9021
G01 X151.8465 Y24.8736
G01 X151.8629 Y24.8552
G01 X151.8882 Y24.8286
G01 X151.9014 Y24.8157
G01 X151.9195 Y24.7990
G01 X151.9474 Y24.7749
G01 X151.9618 Y24.7634
G01 X151.9814 Y24.7486
G01 X152.0115 Y24.7274
G01 X152.0270 Y24.7173
G01 X152.0480 Y24.7045
G01 X152.0800 Y24.6863
G01 X152.0963 Y24.6779
G01 X152.1185 Y24.6671
G01 X152.1522 Y24.6522
G01 X152.1693 Y24.6454
G01 X152.1924 Y24.6369
G01 X152.2273 Y24.6253
G01 X152.2450 Y24.6202
G01 X152.2689 Y24.6140
G01 X152.3048 Y24.6059
G01 X152.3229 Y24.6025
G01 X152.3472 Y24.5987
G01 X152.3655 Y24.5962
G01 X152.4021 Y24.5926
G01 X152.4267 Y24.5912
G01 X152.4635 Y24.5903
G01 X190.5635 Y24.5903
G01 X190.5819 Y24.5905
G01 X190.6065 Y24.5915
G01 X190.6432 Y24.5942
G01 X190.6615 Y24.5962
G01 X190.6859 Y24.5996
G01 X190.7222 Y24.6059
G01 X190.7402 Y24.6097
G01 X190.7642 Y24.6155
G01 X190.7820 Y24.6202
G01 X190.8172 Y24.6309
G01 X190.8405 Y24.6390
G01 X190.8748 Y24.6522
G01 X190.8917 Y24.6595
G01 X190.9141 Y24.6698
G01 X190.9470 Y24.6863
G01 X190.9631 Y24.6952
G01 X190.9844 Y24.7077
G01 X191.0155 Y24.7274
G01 X191.0307 Y24.7378
G01 X191.0506 Y24.7523
G01 X191.0652 Y24.7634
G01 X191.0937 Y24.7868
G01 X191.1256 Y24.8157
G01 X191.1388 Y24.8286
G01 X191.1641 Y24.8552
G01 X191.1805 Y24.8736
G01 X191.1924 Y24.8877
G01 X191.2150 Y24.9167
G01 X191.2295 Y24.9367
G01 X191.2500 Y24.9673
G01 X191.2596 Y24.9829
G01 X191.2721 Y25.0042
G01 X191.2810 Y25.0203
G01 X191.2975 Y25.0532
G01 X191.3079 Y25.0756
G01 X191.3219 Y25.1096
G01 X191.3284 Y25.1268
G01 X191.3364 Y25.1501
G01 X191.3420 Y25.1677
G01 X191.3518 Y25.2031
G01 X191.3576 Y25.2271
G01 X191.3614 Y25.2451
G01 X191.3677 Y25.2814
G01 X191.3711 Y25.3058
G01 X191.3731 Y25.3241
G01 X191.3758 Y25.3608
G01 X191.3768 Y25.3854
G01 X191.3768 Y45.7422
G01 X191.3758 Y45.7668
G01 X191.3731 Y45.8035
G01 X191.3686 Y45.8401
G01 X191.3648 Y45.8644
G01 X191.3614 Y45.8825
G01 X191.3576 Y45.9005
G01 X191.3518 Y45.9245
G01 X191.3420 Y45.9600
G01 X191.3305 Y45.9949
G01 X191.3219 Y46.0180
G01 X191.3151 Y46.0351
G01 X191.3079 Y46.0521
G01 X191.2975 Y46.0744
G01 X191.2810 Y46.1073
G01 X191.2721 Y46.1234
G01 X191.2596 Y46.1447
G01 X191.2399 Y46.1758
G01 X191.2187 Y46.2059
G01 X191.2039 Y46.2255
G01 X191.1924 Y46.2399
G01 X191.1683 Y46.2678
G01 X191.1516 Y46.2859
G01 X191.1388 Y46.2991
G01 X191.1256 Y46.3119
G01 X191.1075 Y46.3286
G01 X191.0796 Y46.3527
G01 X191.0506 Y46.3753
G01 X191.0307 Y46.3898
G01 X191.0155 Y46.4002
G01 X190.9844 Y46.4199
G01 X190.9631 Y46.4324
G01 X190.9470 Y46.4413
G01 X190.9307 Y46.4498
G01 X190.9085 Y46.4605
G01 X190.8748 Y46.4754
G01 X190.8405 Y46.4887
G01 X190.8172 Y46.4967
G01 X190.7997 Y46.5023
G01 X190.7642 Y46.5121
G01 X190.7402 Y46.5179
G01 X190.7222 Y46.5217
G01 X190.6859 Y46.5280
G01 X190.6615 Y46.5314
G01 X190.6432 Y46.5334
G01 X190.6249 Y46.5350
G01 X190.6003 Y46.5364
G01 X190.5635 Y46.5373
G00 Z2.0000
G00 X213.4603 Y4.3309
G01 F60.00
G01 Z-2.4000
G01 F120.00
G01 X213.4849 Y4.3323
G01 X213.5215 Y4.3359
G01 X213.5641 Y4.3422
G01 X213.6002 Y4.3494
G01 X213.6420 Y4.3599
G01 X213.6772 Y4.3706
G01 X213.7177 Y4.3851
G01 X213.7517 Y4.3991
G01 X213.7907 Y4.4176
G01 X213.8231 Y4.4349
G01 X213.8600 Y4.4570
G01 X213.8907 Y4.4775
G01 X213.9252 Y4.5031
G01 X213.9537 Y4.5265
G01 X213.9856 Y4.5554
G01 X214.0116 Y4.5814
G01 X214.0283 Y4.5995
G01 X214.0524 Y4.6274
G01 X214.0639 Y4.6418
G01 X214.0787 Y4.6614
G01 X214.0999 Y4.6915
G01 X214.1196 Y4.7226
G01 X214.1321 Y4.7439
G01 X214.1410 Y4.7600
G01 X214.1494 Y4.7763
G01 X214.1602 Y4.7985
G01 X214.1751 Y4.8322
G01 X214.1884 Y4.8665
G01 X214.1964 Y4.8898
G01 X214.2020 Y4.9073
G01 X214.2071 Y4.9250
G01 X214.2133 Y4.9489
G01 X214.2214 Y4.9848
G01 X214.2277 Y5.0211
G01 X214.2311 Y5.0455
G01 X214.2331 Y5.0638
G01 X214.2347 Y5.0821
G01 X214.2361 Y5.1067
G01 X214.2370 Y5.1435
G01 X214.2370 Y73.7235
G01 X214.2361 Y73.7603
G01 X214.2347 Y73.7849
G01 X214.2331 Y73.8032
G01 X214.2286 Y73.8398
G01 X214.2248 Y73.8641
G01 X214.2176 Y73.9002
G01 X214.2118 Y73.9242
G01 X214.2020 Y73.9597
G01 X214.1905 Y73.9946
G01 X214.1819 Y74.0177
G01 X214.1679 Y74.0517
G01 X214.1575 Y74.0741
G01 X214.1410 Y74.1070
G01 X214.1228 Y74.1390
G01 X214.1100 Y74.1600
G01 X214.0895 Y74.1907
G01 X214.0750 Y74.2106
G01 X214.0524 Y74.2396
G01 X214.0283 Y74.2675
G01 X214.0116 Y74.2856
G01 X213.9856 Y74.3116
G01 X213.9675 Y74.3283
G01 X213.9396 Y74.3524
G01 X213.9106 Y74.3750
G01 X213.8907 Y74.3895
G01 X213.8600 Y74.4100
G01 X213.8390 Y74.4228
G01 X213.8070 Y74.4410
G01 X213.7741 Y74.4575
G01 X213.7517 Y74.4679
G01 X213.7177 Y74.4819
G01 X213.6946 Y74.4905
G01 X213.6597 Y74.5020
G01 X213.6242 Y74.5118
G01 X213.6002 Y74.5176
G01 X213.5641 Y74.5248
G01 X213.5398 Y74.5286
G01 X213.5032 Y74.5331
G01 X213.4665 Y74.5358
G01 X213.4419 Y74.5368
G01 X193.1035 Y74.5370
G01 X193.0667 Y74.5361
G01 X193.0421 Y74.5347
G01 X193.0055 Y74.5311
G01 X192.9872 Y74.5286
G01 X192.9629 Y74.5248
G01 X192.9268 Y74.5176
G01 X192.9028 Y74.5118
G01 X192.8673 Y74.5020
G01 X192.8324 Y74.4905
G01 X192.8093 Y74.4819
G01 X192.7753 Y74.4679
G01 X192.7529 Y74.4575
G01 X192.7200 Y74.4410
G01 X192.6880 Y74.4228
G01 X192.6670 Y74.4100
G01 X192.6363 Y74.3895
G01 X192.6164 Y74.3750
G01 X192.5874 Y74.3524
G01 X192.5595 Y74.3283
G01 X192.5414 Y74.3116
G01 X192.5154 Y74.2856
G01 X192.4987 Y74.2675
G01 X192.4746 Y74.2396
G01 X192.4520 Y74.2106
G01 X192.4375 Y74.1907
G01 X192.4170 Y74.1600
G01 X192.4042 Y74.1390
G01 X192.3860 Y74.1070
G01 X192.3695 Y74.0741
G01 X192.3591 Y74.0517
G01 X192.3519 Y74.0348
G01 X192.3386 Y74.0005
G01 X192.3306 Y73.9772
G01 X192.3199 Y73.9420
G01 X192.3137 Y73.9181
G01 X192.3056 Y73.8822
G01 X192.2993 Y73.8459
G01 X192.2959 Y73.8215
G01 X192.2923 Y73.7849
G01 X192.2909 Y73.7603
G01 X192.2900 Y73.7235
G01 X192.2900 Y5.1435
G01 X192.2909 Y5.1067
G01 X192.2923 Y5.0821
G01 X192.2959 Y5.0455
G01 X192.2984 Y5.0272
G01 X192.3022 Y5.0029
G01 X192.3094 Y4.9668
G01 X192.3152 Y4.9428
G01 X192.3250 Y4.9073
G01 X192.3365 Y4.8724
G01 X192.3451 Y4.8493
G01 X192.3591 Y4.8153
G01 X192.3695 Y4.7929
G01 X192.3860 Y4.7600
G01 X192.4042 Y4.7280
G01 X192.4170 Y4.7070
G01 X192.4375 Y4.6763
G01 X192.4520 Y4.6564
G01 X192.4746 Y4.6274
G01 X192.4987 Y4.5995
G01 X192.5154 Y4.5814
G01 X192.5414 Y4.5554
G01 X192.5595 Y4.5387
G01 X192.5874 Y4.5146
G01 X192.6164 Y4.4920
G01 X192.6363 Y4.4775
G01 X192.6670 Y4.4570
G01 X192.6880 Y4.4442
G01 X192.7200 Y4.4260
G01 X192.7529 Y4.4095
G01 X192.7753 Y4.3991
G01 X192.8093 Y4.3851
G01 X192.8324 Y4.3765
G01 X192.8673 Y4.3650
G01 X192.9028 Y4.3552
G01 X192.9268 Y4.3494
G01 X192.9629 Y4.3422
G01 X192.9872 Y4.3384
G01 X193.0238 Y4.3339
G01 X193.0605 Y4.3312
G01 X193.0851 Y4.3302
G01 X213.4235 Y4.3300
G01 X213.4603 Y4.3309
G00 Z2.0000
M05
G00 Z2.0000
G00 Z15.00


