(G-CODE GENERATED BY FLATCAM v8.994 - www.flatcam.org - Version Date: 2020/11/7)

(Name: Diag - Bottom Copper.gbr_iso_combined_cnc)
(Type: G-code from Geometry)
(Units: MM)

(Created on Monday, 09 December 2024 at 09:44)

(This preprocessor is the default preprocessor used by FlatCAM.)
(It is made to work with MACH3 compatible motion controllers.)

(TOOL DIAMETER: 0.331 mm)
(Feedrate_XY: 320.0 mm/min)
(Feedrate_Z: 60.0 mm/min)
(Feedrate rapids 1500.0 mm/min)

(Z_Cut: -0.2001 mm)
(Z_Move: 2.0 mm)
(Z Start: None mm)
(Z End: 15.0 mm)
(X,Y End: None mm)
(Steps per circle: 64)
(Preprocessor Geometry: default)

(X range:    3.8820 ...  159.2048  mm)
(Y range:    3.5072 ...  110.9448  mm)

(Spindle Speed: 0.0 RPM)
G21
G90
G94

G01 F320.00
G00 Z15.0000

M03
G01 F320.00
G00 X29.5035 Y24.7422
G01 F60.00
G01 Z-0.2001
G01 F320.00
G01 X29.5408 Y24.7431
G01 X29.5781 Y24.7459
G01 X29.6152 Y24.7504
G01 X29.6520 Y24.7568
G01 X29.6885 Y24.7650
G01 X29.7245 Y24.7750
G01 X29.7423 Y24.7806
G01 X29.7775 Y24.7932
G01 X29.7948 Y24.8002
G01 X29.8290 Y24.8153
G01 X29.8624 Y24.8321
G01 X29.8949 Y24.8505
G01 X29.9265 Y24.8705
G01 X29.9570 Y24.8920
G01 X29.9865 Y24.9150
G01 X30.0148 Y24.9394
G01 X30.0418 Y24.9652
G01 X30.0549 Y24.9786
G01 X30.0800 Y25.0062
G01 X30.1037 Y25.0351
G01 X30.1259 Y25.0651
G01 X30.1467 Y25.0962
G01 X30.1659 Y25.1283
G01 X30.1835 Y25.1612
G01 X30.1995 Y25.1950
G01 X30.2138 Y25.2295
G01 X30.2264 Y25.2647
G01 X30.2372 Y25.3005
G01 X30.2420 Y25.3185
G01 X30.2502 Y25.3550
G01 X30.2566 Y25.3918
G01 X30.2611 Y25.4289
G01 X30.2639 Y25.4662
G01 X30.2648 Y25.5035
G01 X30.2646 Y30.5222
G01 X30.2627 Y30.5595
G01 X30.2611 Y30.5781
G01 X30.2566 Y30.6152
G01 X30.2502 Y30.6520
G01 X30.2420 Y30.6885
G01 X30.2320 Y30.7245
G01 X30.2264 Y30.7423
G01 X30.2138 Y30.7775
G01 X30.2068 Y30.7948
G01 X30.1917 Y30.8290
G01 X30.1749 Y30.8624
G01 X30.1659 Y30.8787
G01 X30.1467 Y30.9108
G01 X30.1259 Y30.9419
G01 X30.1037 Y30.9719
G01 X30.0920 Y30.9865
G01 X30.0676 Y31.0148
G01 X30.0418 Y31.0418
G01 X30.0284 Y31.0549
G01 X30.0008 Y31.0800
G01 X29.9719 Y31.1037
G01 X29.9570 Y31.1150
G01 X29.9265 Y31.1365
G01 X29.8949 Y31.1565
G01 X29.8787 Y31.1659
G01 X29.8458 Y31.1835
G01 X29.8120 Y31.1995
G01 X29.7948 Y31.2068
G01 X29.7775 Y31.2138
G01 X29.7423 Y31.2264
G01 X29.7065 Y31.2372
G01 X29.6703 Y31.2463
G01 X29.6520 Y31.2502
G01 X29.6152 Y31.2566
G01 X29.5967 Y31.2591
G01 X29.5595 Y31.2627
G01 X29.5408 Y31.2639
G01 X29.5035 Y31.2648
G01 X26.4848 Y31.2646
G01 X26.4475 Y31.2627
G01 X26.4289 Y31.2611
G01 X26.3918 Y31.2566
G01 X26.3550 Y31.2502
G01 X26.3185 Y31.2420
G01 X26.3005 Y31.2372
G01 X26.2647 Y31.2264
G01 X26.2295 Y31.2138
G01 X26.2122 Y31.2068
G01 X26.1780 Y31.1917
G01 X26.1446 Y31.1749
G01 X26.1121 Y31.1565
G01 X26.0962 Y31.1467
G01 X26.0651 Y31.1259
G01 X26.0351 Y31.1037
G01 X26.0205 Y31.0920
G01 X26.0062 Y31.0800
G01 X25.9786 Y31.0549
G01 X25.9652 Y31.0418
G01 X25.9394 Y31.0148
G01 X25.9150 Y30.9865
G01 X25.8920 Y30.9570
G01 X25.8705 Y30.9264
G01 X25.8603 Y30.9108
G01 X25.8411 Y30.8787
G01 X25.8321 Y30.8624
G01 X25.8153 Y30.8290
G01 X25.8002 Y30.7948
G01 X25.7932 Y30.7775
G01 X25.7867 Y30.7600
G01 X25.7750 Y30.7245
G01 X25.7698 Y30.7065
G01 X25.7607 Y30.6703
G01 X25.7534 Y30.6336
G01 X25.7479 Y30.5967
G01 X25.7459 Y30.5781
G01 X25.7431 Y30.5408
G01 X25.7422 Y30.5035
G01 X25.7424 Y25.4848
G01 X25.7443 Y25.4475
G01 X25.7459 Y25.4289
G01 X25.7504 Y25.3918
G01 X25.7568 Y25.3550
G01 X25.7650 Y25.3185
G01 X25.7698 Y25.3005
G01 X25.7806 Y25.2647
G01 X25.7932 Y25.2295
G01 X25.8002 Y25.2122
G01 X25.8153 Y25.1780
G01 X25.8321 Y25.1446
G01 X25.8505 Y25.1121
G01 X25.8603 Y25.0962
G01 X25.8811 Y25.0651
G01 X25.9033 Y25.0351
G01 X25.9270 Y25.0062
G01 X25.9394 Y24.9922
G01 X25.9521 Y24.9786
G01 X25.9786 Y24.9521
G01 X26.0062 Y24.9270
G01 X26.0205 Y24.9150
G01 X26.0500 Y24.8920
G01 X26.0805 Y24.8705
G01 X26.1121 Y24.8505
G01 X26.1283 Y24.8411
G01 X26.1612 Y24.8235
G01 X26.1950 Y24.8075
G01 X26.2122 Y24.8002
G01 X26.2470 Y24.7867
G01 X26.2825 Y24.7750
G01 X26.3005 Y24.7698
G01 X26.3367 Y24.7607
G01 X26.3734 Y24.7534
G01 X26.3918 Y24.7504
G01 X26.4289 Y24.7459
G01 X26.4662 Y24.7431
G01 X26.5035 Y24.7422
G01 X29.5035 Y24.7422
G00 Z2.0000
G00 X29.5035 Y25.0401
G01 F60.00
G01 Z-0.2001
G01 F320.00
G01 X29.5262 Y25.0407
G01 X29.5489 Y25.0423
G01 X29.5715 Y25.0451
G01 X29.5939 Y25.0490
G01 X29.6161 Y25.0540
G01 X29.6380 Y25.0601
G01 X29.6596 Y25.0672
G01 X29.6808 Y25.0754
G01 X29.7016 Y25.0846
G01 X29.7219 Y25.0948
G01 X29.7417 Y25.1060
G01 X29.7514 Y25.1120
G01 X29.7703 Y25.1246
G01 X29.7886 Y25.1382
G01 X29.8062 Y25.1526
G01 X29.8230 Y25.1679
G01 X29.8312 Y25.1758
G01 X29.8469 Y25.1923
G01 X29.8617 Y25.2095
G01 X29.8757 Y25.2275
G01 X29.8888 Y25.2461
G01 X29.9010 Y25.2653
G01 X29.9122 Y25.2851
G01 X29.9224 Y25.3054
G01 X29.9316 Y25.3262
G01 X29.9398 Y25.3474
G01 X29.9469 Y25.3690
G01 X29.9530 Y25.3909
G01 X29.9580 Y25.4131
G01 X29.9601 Y25.4243
G01 X29.9634 Y25.4468
G01 X29.9656 Y25.4694
G01 X29.9663 Y25.4808
G01 X29.9669 Y25.5035
G01 X29.9669 Y30.5035
G01 X29.9663 Y30.5262
G01 X29.9647 Y30.5489
G01 X29.9634 Y30.5602
G01 X29.9601 Y30.5827
G01 X29.9580 Y30.5939
G01 X29.9530 Y30.6161
G01 X29.9469 Y30.6380
G01 X29.9398 Y30.6596
G01 X29.9358 Y30.6703
G01 X29.9271 Y30.6913
G01 X29.9224 Y30.7016
G01 X29.9122 Y30.7219
G01 X29.9067 Y30.7319
G01 X29.8950 Y30.7514
G01 X29.8824 Y30.7703
G01 X29.8688 Y30.7886
G01 X29.8544 Y30.8062
G01 X29.8469 Y30.8147
G01 X29.8312 Y30.8312
G01 X29.8230 Y30.8391
G01 X29.8062 Y30.8544
G01 X29.7975 Y30.8617
G01 X29.7795 Y30.8757
G01 X29.7703 Y30.8824
G01 X29.7514 Y30.8950
G01 X29.7319 Y30.9067
G01 X29.7219 Y30.9122
G01 X29.7016 Y30.9224
G01 X29.6808 Y30.9316
G01 X29.6596 Y30.9398
G01 X29.6489 Y30.9435
G01 X29.6271 Y30.9501
G01 X29.6050 Y30.9556
G01 X29.5939 Y30.9580
G01 X29.5715 Y30.9619
G01 X29.5602 Y30.9634
G01 X29.5489 Y30.9647
G01 X29.5262 Y30.9663
G01 X29.5035 Y30.9669
G01 X26.4921 Y30.9668
G01 X26.4694 Y30.9656
G01 X26.4581 Y30.9647
G01 X26.4355 Y30.9619
G01 X26.4243 Y30.9601
G01 X26.4020 Y30.9556
G01 X26.3799 Y30.9501
G01 X26.3581 Y30.9435
G01 X26.3367 Y30.9358
G01 X26.3262 Y30.9316
G01 X26.3054 Y30.9224
G01 X26.2851 Y30.9122
G01 X26.2653 Y30.9010
G01 X26.2556 Y30.8950
G01 X26.2367 Y30.8824
G01 X26.2184 Y30.8688
G01 X26.2095 Y30.8617
G01 X26.2008 Y30.8544
G01 X26.1840 Y30.8391
G01 X26.1679 Y30.8230
G01 X26.1601 Y30.8147
G01 X26.1453 Y30.7975
G01 X26.1313 Y30.7795
G01 X26.1246 Y30.7703
G01 X26.1120 Y30.7514
G01 X26.1003 Y30.7319
G01 X26.0896 Y30.7118
G01 X26.0846 Y30.7016
G01 X26.0754 Y30.6808
G01 X26.0712 Y30.6703
G01 X26.0635 Y30.6489
G01 X26.0601 Y30.6380
G01 X26.0540 Y30.6161
G01 X26.0514 Y30.6050
G01 X26.0490 Y30.5939
G01 X26.0451 Y30.5715
G01 X26.0423 Y30.5489
G01 X26.0414 Y30.5376
G01 X26.0402 Y30.5149
G01 X26.0401 Y25.5035
G01 X26.0402 Y25.4921
G01 X26.0414 Y25.4694
G01 X26.0436 Y25.4468
G01 X26.0451 Y25.4355
G01 X26.0490 Y25.4131
G01 X26.0540 Y25.3909
G01 X26.0601 Y25.3690
G01 X26.0672 Y25.3474
G01 X26.0712 Y25.3367
G01 X26.0754 Y25.3262
G01 X26.0846 Y25.3054
G01 X26.0948 Y25.2851
G01 X26.1060 Y25.2653
G01 X26.1182 Y25.2461
G01 X26.1246 Y25.2367
G01 X26.1382 Y25.2184
G01 X26.1526 Y25.2008
G01 X26.1601 Y25.1923
G01 X26.1679 Y25.1840
G01 X26.1840 Y25.1679
G01 X26.2008 Y25.1526
G01 X26.2095 Y25.1453
G01 X26.2184 Y25.1382
G01 X26.2367 Y25.1246
G01 X26.2556 Y25.1120
G01 X26.2653 Y25.1060
G01 X26.2851 Y25.0948
G01 X26.3054 Y25.0846
G01 X26.3262 Y25.0754
G01 X26.3474 Y25.0672
G01 X26.3581 Y25.0635
G01 X26.3799 Y25.0569
G01 X26.4020 Y25.0514
G01 X26.4131 Y25.0490
G01 X26.4243 Y25.0469
G01 X26.4468 Y25.0436
G01 X26.4694 Y25.0414
G01 X26.4808 Y25.0407
G01 X26.5035 Y25.0401
G01 X29.5035 Y25.0401
G00 Z2.0000
G00 X29.5035 Y25.3380
G01 F60.00
G01 Z-0.2001
G01 F320.00
G01 X29.5197 Y25.3388
G01 X29.5358 Y25.3412
G01 X29.5515 Y25.3451
G01 X29.5668 Y25.3506
G01 X29.5815 Y25.3575
G01 X29.5954 Y25.3659
G01 X29.6085 Y25.3756
G01 X29.6205 Y25.3865
G01 X29.6314 Y25.3985
G01 X29.6411 Y25.4116
G01 X29.6475 Y25.4219
G01 X29.6548 Y25.4364
G01 X29.6606 Y25.4516
G01 X29.6650 Y25.4672
G01 X29.6677 Y25.4832
G01 X29.6689 Y25.4994
G01 X29.6690 Y30.5035
G01 X29.6688 Y30.5116
G01 X29.6677 Y30.5238
G01 X29.6658 Y30.5358
G01 X29.6630 Y30.5476
G01 X29.6606 Y30.5554
G01 X29.6564 Y30.5668
G01 X29.6513 Y30.5779
G01 X29.6475 Y30.5851
G01 X29.6411 Y30.5954
G01 X29.6364 Y30.6021
G01 X29.6288 Y30.6116
G01 X29.6234 Y30.6176
G01 X29.6146 Y30.6261
G01 X29.6053 Y30.6340
G01 X29.5988 Y30.6388
G01 X29.5886 Y30.6454
G01 X29.5779 Y30.6513
G01 X29.5706 Y30.6548
G01 X29.5631 Y30.6579
G01 X29.5515 Y30.6619
G01 X29.5398 Y30.6650
G01 X29.5278 Y30.6672
G01 X29.5157 Y30.6685
G01 X29.5076 Y30.6689
G01 X26.5035 Y30.6690
G01 X26.4913 Y30.6685
G01 X26.4792 Y30.6672
G01 X26.4712 Y30.6658
G01 X26.4594 Y30.6630
G01 X26.4478 Y30.6593
G01 X26.4402 Y30.6564
G01 X26.4327 Y30.6531
G01 X26.4219 Y30.6475
G01 X26.4116 Y30.6411
G01 X26.4017 Y30.6340
G01 X26.3954 Y30.6288
G01 X26.3865 Y30.6205
G01 X26.3782 Y30.6116
G01 X26.3706 Y30.6021
G01 X26.3659 Y30.5954
G01 X26.3595 Y30.5851
G01 X26.3539 Y30.5743
G01 X26.3506 Y30.5668
G01 X26.3477 Y30.5592
G01 X26.3440 Y30.5476
G01 X26.3412 Y30.5358
G01 X26.3393 Y30.5238
G01 X26.3385 Y30.5157
G01 X26.3380 Y30.5035
G01 X26.3380 Y25.5035
G01 X26.3385 Y25.4913
G01 X26.3398 Y25.4792
G01 X26.3420 Y25.4672
G01 X26.3440 Y25.4594
G01 X26.3464 Y25.4516
G01 X26.3506 Y25.4402
G01 X26.3539 Y25.4327
G01 X26.3595 Y25.4219
G01 X26.3637 Y25.4150
G01 X26.3706 Y25.4049
G01 X26.3782 Y25.3954
G01 X26.3836 Y25.3894
G01 X26.3924 Y25.3809
G01 X26.4017 Y25.3730
G01 X26.4116 Y25.3659
G01 X26.4184 Y25.3616
G01 X26.4255 Y25.3575
G01 X26.4364 Y25.3522
G01 X26.4439 Y25.3491
G01 X26.4555 Y25.3451
G01 X26.4633 Y25.3430
G01 X26.4752 Y25.3404
G01 X26.4873 Y25.3388
G01 X26.4994 Y25.3381
G01 X29.5035 Y25.3380
G00 Z2.0000
G00 X29.5035 Y32.3622
G01 F60.00
G01 Z-0.2001
G01 F320.00
G01 X29.5408 Y32.3631
G01 X29.5781 Y32.3659
G01 X29.6152 Y32.3704
G01 X29.6336 Y32.3734
G01 X29.6703 Y32.3807
G01 X29.7065 Y32.3898
G01 X29.7423 Y32.4006
G01 X29.7775 Y32.4132
G01 X29.8120 Y32.4275
G01 X29.8290 Y32.4353
G01 X29.8624 Y32.4521
G01 X29.8949 Y32.4705
G01 X29.9265 Y32.4905
G01 X29.9570 Y32.5120
G01 X29.9865 Y32.5350
G01 X30.0148 Y32.5594
G01 X30.0418 Y32.5852
G01 X30.0549 Y32.5986
G01 X30.0800 Y32.6262
G01 X30.1037 Y32.6551
G01 X30.1259 Y32.6851
G01 X30.1467 Y32.7162
G01 X30.1659 Y32.7483
G01 X30.1835 Y32.7812
G01 X30.1995 Y32.8150
G01 X30.2138 Y32.8495
G01 X30.2264 Y32.8847
G01 X30.2372 Y32.9205
G01 X30.2420 Y32.9385
G01 X30.2502 Y32.9750
G01 X30.2566 Y33.0118
G01 X30.2611 Y33.0489
G01 X30.2639 Y33.0862
G01 X30.2648 Y33.1235
G01 X30.2646 Y38.1422
G01 X30.2627 Y38.1795
G01 X30.2611 Y38.1981
G01 X30.2566 Y38.2352
G01 X30.2502 Y38.2720
G01 X30.2420 Y38.3085
G01 X30.2320 Y38.3445
G01 X30.2264 Y38.3623
G01 X30.2138 Y38.3975
G01 X30.2068 Y38.4148
G01 X30.1917 Y38.4490
G01 X30.1749 Y38.4824
G01 X30.1659 Y38.4987
G01 X30.1467 Y38.5308
G01 X30.1259 Y38.5619
G01 X30.1037 Y38.5919
G01 X30.0800 Y38.6208
G01 X30.0676 Y38.6348
G01 X30.0418 Y38.6618
G01 X30.0284 Y38.6749
G01 X30.0008 Y38.7000
G01 X29.9865 Y38.7120
G01 X29.9570 Y38.7350
G01 X29.9265 Y38.7565
G01 X29.8949 Y38.7765
G01 X29.8787 Y38.7859
G01 X29.8624 Y38.7949
G01 X29.8290 Y38.8117
G01 X29.7948 Y38.8268
G01 X29.7600 Y38.8403
G01 X29.7423 Y38.8464
G01 X29.7245 Y38.8520
G01 X29.6885 Y38.8620
G01 X29.6520 Y38.8702
G01 X29.6152 Y38.8766
G01 X29.5781 Y38.8811
G01 X29.5595 Y38.8827
G01 X29.5222 Y38.8846
G01 X29.5035 Y38.8848
G01 X26.4848 Y38.8846
G01 X26.4475 Y38.8827
G01 X26.4103 Y38.8791
G01 X26.3918 Y38.8766
G01 X26.3550 Y38.8702
G01 X26.3185 Y38.8620
G01 X26.3005 Y38.8572
G01 X26.2647 Y38.8464
G01 X26.2295 Y38.8338
G01 X26.1950 Y38.8195
G01 X26.1612 Y38.8035
G01 X26.1446 Y38.7949
G01 X26.1283 Y38.7859
G01 X26.0962 Y38.7667
G01 X26.0651 Y38.7459
G01 X26.0500 Y38.7350
G01 X26.0205 Y38.7120
G01 X26.0062 Y38.7000
G01 X25.9786 Y38.6749
G01 X25.9652 Y38.6618
G01 X25.9394 Y38.6348
G01 X25.9150 Y38.6065
G01 X25.8920 Y38.5770
G01 X25.8811 Y38.5619
G01 X25.8603 Y38.5308
G01 X25.8505 Y38.5149
G01 X25.8321 Y38.4824
G01 X25.8153 Y38.4490
G01 X25.8002 Y38.4148
G01 X25.7932 Y38.3975
G01 X25.7806 Y38.3623
G01 X25.7698 Y38.3265
G01 X25.7650 Y38.3085
G01 X25.7607 Y38.2903
G01 X25.7534 Y38.2536
G01 X25.7479 Y38.2167
G01 X25.7459 Y38.1981
G01 X25.7431 Y38.1608
G01 X25.7422 Y38.1235
G01 X25.7424 Y33.1048
G01 X25.7443 Y33.0675
G01 X25.7459 Y33.0489
G01 X25.7504 Y33.0118
G01 X25.7534 Y32.9934
G01 X25.7607 Y32.9567
G01 X25.7698 Y32.9205
G01 X25.7806 Y32.8847
G01 X25.7932 Y32.8495
G01 X25.8075 Y32.8150
G01 X25.8153 Y32.7980
G01 X25.8321 Y32.7646
G01 X25.8411 Y32.7483
G01 X25.8603 Y32.7162
G01 X25.8811 Y32.6851
G01 X25.9033 Y32.6551
G01 X25.9150 Y32.6405
G01 X25.9394 Y32.6122
G01 X25.9652 Y32.5852
G01 X25.9922 Y32.5594
G01 X26.0062 Y32.5470
G01 X26.0351 Y32.5233
G01 X26.0500 Y32.5120
G01 X26.0805 Y32.4905
G01 X26.1121 Y32.4705
G01 X26.1446 Y32.4521
G01 X26.1612 Y32.4435
G01 X26.1950 Y32.4275
G01 X26.2122 Y32.4202
G01 X26.2470 Y32.4067
G01 X26.2825 Y32.3950
G01 X26.3005 Y32.3898
G01 X26.3367 Y32.3807
G01 X26.3550 Y32.3768
G01 X26.3918 Y32.3704
G01 X26.4289 Y32.3659
G01 X26.4662 Y32.3631
G01 X26.5035 Y32.3622
G01 X29.5035 Y32.3622
G00 Z2.0000
G00 X29.5035 Y32.6601
G01 F60.00
G01 Z-0.2001
G01 F320.00
G01 X29.5262 Y32.6607
G01 X29.5489 Y32.6623
G01 X29.5602 Y32.6636
G01 X29.5827 Y32.6669
G01 X29.6050 Y32.6714
G01 X29.6271 Y32.6769
G01 X29.6489 Y32.6835
G01 X29.6703 Y32.6912
G01 X29.6913 Y32.6999
G01 X29.7118 Y32.7096
G01 X29.7319 Y32.7203
G01 X29.7514 Y32.7320
G01 X29.7703 Y32.7446
G01 X29.7886 Y32.7582
G01 X29.8062 Y32.7726
G01 X29.8230 Y32.7879
G01 X29.8391 Y32.8040
G01 X29.8544 Y32.8208
G01 X29.8688 Y32.8384
G01 X29.8824 Y32.8567
G01 X29.8950 Y32.8756
G01 X29.9067 Y32.8951
G01 X29.9174 Y32.9152
G01 X29.9224 Y32.9254
G01 X29.9316 Y32.9462
G01 X29.9398 Y32.9674
G01 X29.9469 Y32.9890
G01 X29.9530 Y33.0109
G01 X29.9580 Y33.0331
G01 X29.9619 Y33.0555
G01 X29.9634 Y33.0668
G01 X29.9656 Y33.0894
G01 X29.9663 Y33.1008
G01 X29.9669 Y33.1235
G01 X29.9669 Y38.1235
G01 X29.9663 Y38.1462
G01 X29.9647 Y38.1689
G01 X29.9634 Y38.1802
G01 X29.9619 Y38.1915
G01 X29.9580 Y38.2139
G01 X29.9530 Y38.2361
G01 X29.9469 Y38.2580
G01 X29.9398 Y38.2796
G01 X29.9358 Y38.2903
G01 X29.9271 Y38.3113
G01 X29.9224 Y38.3216
G01 X29.9122 Y38.3419
G01 X29.9010 Y38.3617
G01 X29.8950 Y38.3714
G01 X29.8824 Y38.3903
G01 X29.8688 Y38.4086
G01 X29.8617 Y38.4175
G01 X29.8544 Y38.4262
G01 X29.8391 Y38.4430
G01 X29.8230 Y38.4591
G01 X29.8147 Y38.4668
G01 X29.7975 Y38.4817
G01 X29.7795 Y38.4957
G01 X29.7609 Y38.5088
G01 X29.7514 Y38.5150
G01 X29.7319 Y38.5267
G01 X29.7118 Y38.5374
G01 X29.7016 Y38.5424
G01 X29.6808 Y38.5516
G01 X29.6703 Y38.5558
G01 X29.6596 Y38.5598
G01 X29.6380 Y38.5669
G01 X29.6161 Y38.5730
G01 X29.5939 Y38.5780
G01 X29.5827 Y38.5801
G01 X29.5602 Y38.5834
G01 X29.5376 Y38.5856
G01 X29.5262 Y38.5863
G01 X29.5035 Y38.5869
G01 X26.4921 Y38.5868
G01 X26.4694 Y38.5856
G01 X26.4581 Y38.5847
G01 X26.4355 Y38.5819
G01 X26.4131 Y38.5780
G01 X26.4020 Y38.5756
G01 X26.3799 Y38.5701
G01 X26.3581 Y38.5635
G01 X26.3367 Y38.5558
G01 X26.3157 Y38.5471
G01 X26.3054 Y38.5424
G01 X26.2851 Y38.5322
G01 X26.2751 Y38.5267
G01 X26.2556 Y38.5150
G01 X26.2367 Y38.5024
G01 X26.2275 Y38.4957
G01 X26.2095 Y38.4817
G01 X26.1923 Y38.4668
G01 X26.1758 Y38.4512
G01 X26.1601 Y38.4347
G01 X26.1526 Y38.4262
G01 X26.1382 Y38.4086
G01 X26.1313 Y38.3995
G01 X26.1246 Y38.3903
G01 X26.1120 Y38.3714
G01 X26.1003 Y38.3519
G01 X26.0896 Y38.3318
G01 X26.0846 Y38.3216
G01 X26.0754 Y38.3008
G01 X26.0712 Y38.2903
G01 X26.0635 Y38.2689
G01 X26.0601 Y38.2580
G01 X26.0540 Y38.2361
G01 X26.0514 Y38.2250
G01 X26.0490 Y38.2139
G01 X26.0451 Y38.1915
G01 X26.0423 Y38.1689
G01 X26.0414 Y38.1576
G01 X26.0402 Y38.1349
G01 X26.0401 Y33.1235
G01 X26.0402 Y33.1121
G01 X26.0414 Y33.0894
G01 X26.0436 Y33.0668
G01 X26.0451 Y33.0555
G01 X26.0490 Y33.0331
G01 X26.0540 Y33.0109
G01 X26.0601 Y32.9890
G01 X26.0672 Y32.9674
G01 X26.0712 Y32.9567
G01 X26.0799 Y32.9357
G01 X26.0896 Y32.9152
G01 X26.0948 Y32.9051
G01 X26.1003 Y32.8951
G01 X26.1120 Y32.8756
G01 X26.1246 Y32.8567
G01 X26.1313 Y32.8475
G01 X26.1453 Y32.8295
G01 X26.1526 Y32.8208
G01 X26.1679 Y32.8040
G01 X26.1840 Y32.7879
G01 X26.1923 Y32.7802
G01 X26.2095 Y32.7653
G01 X26.2275 Y32.7513
G01 X26.2367 Y32.7446
G01 X26.2556 Y32.7320
G01 X26.2751 Y32.7203
G01 X26.2952 Y32.7096
G01 X26.3054 Y32.7046
G01 X26.3262 Y32.6954
G01 X26.3474 Y32.6872
G01 X26.3581 Y32.6835
G01 X26.3690 Y32.6801
G01 X26.3909 Y32.6740
G01 X26.4131 Y32.6690
G01 X26.4243 Y32.6669
G01 X26.4468 Y32.6636
G01 X26.4694 Y32.6614
G01 X26.4808 Y32.6607
G01 X26.5035 Y32.6601
G01 X29.5035 Y32.6601
G00 Z2.0000
G00 X29.5035 Y32.9580
G01 F60.00
G01 Z-0.2001
G01 F320.00
G01 X29.5197 Y32.9588
G01 X29.5358 Y32.9612
G01 X29.5515 Y32.9651
G01 X29.5668 Y32.9706
G01 X29.5815 Y32.9775
G01 X29.5954 Y32.9859
G01 X29.6085 Y32.9956
G01 X29.6205 Y33.0065
G01 X29.6314 Y33.0185
G01 X29.6411 Y33.0316
G01 X29.6475 Y33.0419
G01 X29.6548 Y33.0564
G01 X29.6606 Y33.0716
G01 X29.6650 Y33.0872
G01 X29.6677 Y33.1032
G01 X29.6689 Y33.1194
G01 X29.6690 Y38.1235
G01 X29.6688 Y38.1316
G01 X29.6677 Y38.1438
G01 X29.6658 Y38.1558
G01 X29.6630 Y38.1676
G01 X29.6606 Y38.1754
G01 X29.6564 Y38.1868
G01 X29.6513 Y38.1979
G01 X29.6475 Y38.2051
G01 X29.6411 Y38.2154
G01 X29.6364 Y38.2221
G01 X29.6314 Y38.2285
G01 X29.6234 Y38.2376
G01 X29.6176 Y38.2434
G01 X29.6085 Y38.2514
G01 X29.5988 Y38.2588
G01 X29.5886 Y38.2654
G01 X29.5779 Y38.2713
G01 X29.5668 Y38.2764
G01 X29.5554 Y38.2806
G01 X29.5476 Y38.2830
G01 X29.5398 Y38.2850
G01 X29.5278 Y38.2872
G01 X29.5197 Y38.2882
G01 X29.5076 Y38.2889
G01 X26.5035 Y38.2890
G01 X26.4913 Y38.2885
G01 X26.4792 Y38.2872
G01 X26.4672 Y38.2850
G01 X26.4594 Y38.2830
G01 X26.4478 Y38.2793
G01 X26.4402 Y38.2764
G01 X26.4291 Y38.2713
G01 X26.4219 Y38.2675
G01 X26.4116 Y38.2611
G01 X26.4017 Y38.2540
G01 X26.3954 Y38.2488
G01 X26.3865 Y38.2405
G01 X26.3809 Y38.2346
G01 X26.3730 Y38.2253
G01 X26.3659 Y38.2154
G01 X26.3595 Y38.2051
G01 X26.3539 Y38.1943
G01 X26.3506 Y38.1868
G01 X26.3464 Y38.1754
G01 X26.3440 Y38.1676
G01 X26.3412 Y38.1558
G01 X26.3393 Y38.1438
G01 X26.3385 Y38.1357
G01 X26.3380 Y38.1235
G01 X26.3380 Y33.1235
G01 X26.3385 Y33.1113
G01 X26.3398 Y33.0992
G01 X26.3412 Y33.0912
G01 X26.3440 Y33.0794
G01 X26.3477 Y33.0678
G01 X26.3506 Y33.0602
G01 X26.3539 Y33.0527
G01 X26.3595 Y33.0419
G01 X26.3637 Y33.0350
G01 X26.3706 Y33.0249
G01 X26.3782 Y33.0154
G01 X26.3836 Y33.0094
G01 X26.3924 Y33.0009
G01 X26.4017 Y32.9930
G01 X26.4116 Y32.9859
G01 X26.4184 Y32.9816
G01 X26.4291 Y32.9757
G01 X26.4364 Y32.9722
G01 X26.4478 Y32.9677
G01 X26.4594 Y32.9640
G01 X26.4712 Y32.9612
G01 X26.4792 Y32.9598
G01 X26.4913 Y32.9585
G01 X26.4994 Y32.9581
G01 X29.5035 Y32.9580
G00 Z2.0000
G00 X43.0449 Y36.4980
G01 F60.00
G01 Z-0.2001
G01 F320.00
G01 X43.0747 Y36.4501
G01 X43.2073 Y36.2566
G01 X43.2444 Y36.2075
G01 X43.3942 Y36.0270
G01 X43.4304 Y35.9871
G01 X43.6016 Y35.8157
G01 X43.6412 Y35.7793
G01 X43.8335 Y35.6196
G01 X43.8766 Y35.5873
G01 X44.0701 Y35.4547
G01 X44.1224 Y35.4223
G01 X44.3274 Y35.3082
G01 X44.3824 Y35.2808
G01 X44.5970 Y35.1860
G01 X44.6472 Y35.1664
G01 X44.8768 Y35.0892
G01 X44.9286 Y35.0743
G01 X45.1718 Y35.0171
G01 X45.2248 Y35.0074
G01 X45.4572 Y34.9750
G01 X45.5184 Y34.9693
G01 X45.7528 Y34.9585
G01 X45.8162 Y34.9586
G01 X46.0651 Y34.9708
G01 X46.1221 Y34.9762
G01 X46.3807 Y35.0144
G01 X46.4408 Y35.0265
G01 X46.6826 Y35.0871
G01 X46.7451 Y35.1060
G01 X46.9798 Y35.1900
G01 X47.0327 Y35.2117
G01 X47.2727 Y35.3252
G01 X47.3231 Y35.3524
G01 X47.5369 Y35.4805
G01 X47.5912 Y35.5168
G01 X47.7914 Y35.6653
G01 X47.8358 Y35.7015
G01 X48.0266 Y35.8742
G01 X48.0672 Y35.9145
G01 X48.2455 Y36.1112
G01 X48.2817 Y36.1556
G01 X48.4302 Y36.3558
G01 X48.4665 Y36.4101
G01 X48.5946 Y36.6239
G01 X48.6218 Y36.6743
G01 X48.7353 Y36.9143
G01 X48.7570 Y36.9672
G01 X48.8410 Y37.2019
G01 X48.8599 Y37.2644
G01 X48.9205 Y37.5062
G01 X48.9332 Y37.5703
G01 X48.9698 Y37.8169
G01 X48.9756 Y37.8738
G01 X48.9884 Y38.1308
G01 X48.9892 Y38.1635
G01 X48.9892 Y50.2183
G01 X49.0405 Y50.2751
G01 X49.0947 Y50.3482
G01 X49.1415 Y50.4263
G01 X49.1804 Y50.5086
G01 X49.2111 Y50.5943
G01 X49.2332 Y50.6826
G01 X49.2465 Y50.7726
G01 X49.2510 Y50.8635
G01 X49.2465 Y50.9544
G01 X49.2332 Y51.0444
G01 X49.2111 Y51.1327
G01 X49.1804 Y51.2184
G01 X49.1415 Y51.3007
G01 X49.0947 Y51.3788
G01 X49.0405 Y51.4519
G01 X48.9892 Y51.5087
G01 X48.9892 Y96.5681
G01 X49.0305 Y97.4595
G01 X49.1516 Y98.3279
G01 X49.3524 Y99.1815
G01 X49.6310 Y100.0130
G01 X49.9852 Y100.8151
G01 X50.4119 Y101.5812
G01 X50.9075 Y102.3046
G01 X51.4677 Y102.9793
G01 X52.0877 Y103.5993
G01 X52.7624 Y104.1595
G01 X53.4858 Y104.6551
G01 X54.2519 Y105.0818
G01 X55.0540 Y105.4360
G01 X55.8855 Y105.7146
G01 X56.7391 Y105.9154
G01 X57.6075 Y106.0365
G01 X58.4989 Y106.0778
G01 X156.7120 Y106.0778
G01 X156.7198 Y106.0675
G01 X156.7251 Y106.0614
G01 X156.7900 Y105.9900
G01 X156.8675 Y105.9198
G01 X156.9515 Y105.8575
G01 X157.0341 Y105.8078
G01 X157.0485 Y105.8001
G01 X157.1283 Y105.7624
G01 X157.1433 Y105.7561
G01 X157.2342 Y105.7238
G01 X157.3277 Y105.7002
G01 X157.3436 Y105.6970
G01 X157.4391 Y105.6831
G01 X157.5354 Y105.6782
G01 X157.5476 Y105.6780
G01 X157.6479 Y105.6831
G01 X157.7434 Y105.6970
G01 X157.7593 Y105.7002
G01 X157.8528 Y105.7238
G01 X157.9437 Y105.7561
G01 X157.9587 Y105.7624
G01 X158.0458 Y105.8038
G01 X158.1286 Y105.8532
G01 X158.1421 Y105.8622
G01 X158.2195 Y105.9198
G01 X158.2911 Y105.9844
G01 X158.3026 Y105.9959
G01 X158.3672 Y106.0675
G01 X158.4248 Y106.1449
G01 X158.4338 Y106.1584
G01 X158.4832 Y106.2412
G01 X158.5246 Y106.3283
G01 X158.5309 Y106.3433
G01 X158.5632 Y106.4342
G01 X158.5868 Y106.5277
G01 X158.5900 Y106.5436
G01 X158.6039 Y106.6391
G01 X158.6088 Y106.7354
G01 X158.6088 Y106.7516
G01 X158.6039 Y106.8479
G01 X158.5900 Y106.9434
G01 X158.5868 Y106.9593
G01 X158.5632 Y107.0528
G01 X158.5309 Y107.1437
G01 X158.5246 Y107.1587
G01 X158.4832 Y107.2458
G01 X158.4338 Y107.3286
G01 X158.4248 Y107.3421
G01 X158.3672 Y107.4195
G01 X158.3026 Y107.4911
G01 X158.2911 Y107.5026
G01 X158.2195 Y107.5672
G01 X158.1421 Y107.6248
G01 X158.1286 Y107.6338
G01 X158.0458 Y107.6832
G01 X157.9587 Y107.7246
G01 X157.9437 Y107.7309
G01 X157.8528 Y107.7632
G01 X157.7593 Y107.7868
G01 X157.7434 Y107.7900
G01 X157.6479 Y107.8039
G01 X157.5435 Y107.8090
G01 X157.4391 Y107.8039
G01 X157.3436 Y107.7900
G01 X157.3277 Y107.7868
G01 X157.2420 Y107.7653
G01 X157.2265 Y107.7606
G01 X157.1357 Y107.7279
G01 X157.0485 Y107.6869
G01 X157.0341 Y107.6792
G01 X156.9515 Y107.6295
G01 X156.8675 Y107.5672
G01 X156.7900 Y107.4970
G01 X156.7251 Y107.4256
G01 X156.7198 Y107.4195
G01 X156.7120 Y107.4092
G01 X58.4797 Y107.4092
G01 X58.4528 Y107.4085
G01 X57.5153 Y107.3652
G01 X57.4541 Y107.3595
G01 X56.5246 Y107.2299
G01 X56.4717 Y107.2201
G01 X55.5433 Y107.0018
G01 X55.4915 Y106.9869
G01 X54.6017 Y106.6887
G01 X54.5444 Y106.6664
G01 X53.6859 Y106.2874
G01 X53.6376 Y106.2635
G01 X52.8044 Y105.7994
G01 X52.7587 Y105.7709
G01 X51.9845 Y105.2406
G01 X51.9414 Y105.2083
G01 X51.2134 Y104.6040
G01 X51.1680 Y104.5626
G01 X50.5044 Y103.8990
G01 X50.4680 Y103.8593
G01 X49.8635 Y103.1316
G01 X49.8264 Y103.0825
G01 X49.2961 Y102.3083
G01 X49.2676 Y102.2626
G01 X48.8070 Y101.4362
G01 X48.7796 Y101.3811
G01 X48.4006 Y100.5226
G01 X48.3809 Y100.4725
G01 X48.0801 Y99.5755
G01 X48.0633 Y99.5163
G01 X47.8469 Y98.5953
G01 X47.8371 Y98.5424
G01 X47.7075 Y97.6129
G01 X47.7020 Y97.5555
G01 X47.6585 Y96.6142
G01 X47.6578 Y96.5835
G01 X47.6578 Y51.5087
G01 X47.6065 Y51.4519
G01 X47.5523 Y51.3788
G01 X47.5055 Y51.3007
G01 X47.4666 Y51.2184
G01 X47.4359 Y51.1327
G01 X47.4138 Y51.0444
G01 X47.4005 Y50.9544
G01 X47.3960 Y50.8635
G01 X47.4005 Y50.7726
G01 X47.4138 Y50.6826
G01 X47.4359 Y50.5943
G01 X47.4666 Y50.5086
G01 X47.5055 Y50.4263
G01 X47.5523 Y50.3482
G01 X47.6065 Y50.2751
G01 X47.6578 Y50.2183
G01 X47.6578 Y38.1798
G01 X47.6479 Y37.9799
G01 X47.6210 Y37.7980
G01 X47.5763 Y37.6197
G01 X47.5143 Y37.4466
G01 X47.4357 Y37.2804
G01 X47.3412 Y37.1227
G01 X47.2317 Y36.9750
G01 X47.1082 Y36.8388
G01 X46.9720 Y36.7153
G01 X46.8243 Y36.6058
G01 X46.6666 Y36.5113
G01 X46.5004 Y36.4327
G01 X46.3273 Y36.3707
G01 X46.1490 Y36.3260
G01 X45.9671 Y36.2991
G01 X45.7825 Y36.2900
G01 X45.6106 Y36.2979
G01 X45.4392 Y36.3219
G01 X45.2708 Y36.3615
G01 X45.1067 Y36.4165
G01 X44.9484 Y36.4864
G01 X44.9275 Y36.4980
G01 X45.7435 Y36.4980
G01 X45.7557 Y36.4985
G01 X45.7678 Y36.4998
G01 X45.7798 Y36.5020
G01 X45.7915 Y36.5051
G01 X45.8068 Y36.5106
G01 X45.8179 Y36.5157
G01 X45.8320 Y36.5237
G01 X45.8421 Y36.5306
G01 X45.8516 Y36.5382
G01 X45.8605 Y36.5465
G01 X45.8688 Y36.5554
G01 X45.8764 Y36.5649
G01 X45.8833 Y36.5750
G01 X45.8895 Y36.5855
G01 X45.8964 Y36.6002
G01 X45.9006 Y36.6116
G01 X45.9040 Y36.6233
G01 X45.9066 Y36.6352
G01 X45.9082 Y36.6473
G01 X45.9090 Y36.6635
G01 X45.9089 Y39.6676
G01 X45.9082 Y39.6797
G01 X45.9072 Y39.6878
G01 X45.9040 Y39.7037
G01 X45.9006 Y39.7154
G01 X45.8979 Y39.7231
G01 X45.8931 Y39.7343
G01 X45.8895 Y39.7415
G01 X45.8811 Y39.7554
G01 X45.8740 Y39.7653
G01 X45.8688 Y39.7716
G01 X45.8634 Y39.7776
G01 X45.8546 Y39.7861
G01 X45.8421 Y39.7964
G01 X45.8320 Y39.8033
G01 X45.8215 Y39.8095
G01 X45.8106 Y39.8148
G01 X45.7954 Y39.8206
G01 X45.7798 Y39.8250
G01 X45.7678 Y39.8272
G01 X45.7557 Y39.8285
G01 X45.7435 Y39.8290
G01 X40.7435 Y39.8290
G01 X40.7313 Y39.8285
G01 X40.7192 Y39.8272
G01 X40.7033 Y39.8240
G01 X40.6916 Y39.8206
G01 X40.6764 Y39.8148
G01 X40.6655 Y39.8095
G01 X40.6550 Y39.8033
G01 X40.6449 Y39.7964
G01 X40.6385 Y39.7914
G01 X40.6294 Y39.7834
G01 X40.6182 Y39.7716
G01 X40.6106 Y39.7621
G01 X40.6059 Y39.7554
G01 X40.6016 Y39.7486
G01 X40.5957 Y39.7379
G01 X40.5891 Y39.7231
G01 X40.5864 Y39.7154
G01 X40.5830 Y39.7037
G01 X40.5804 Y39.6918
G01 X40.5793 Y39.6838
G01 X40.5782 Y39.6716
G01 X40.5780 Y39.6635
G01 X40.5780 Y36.6635
G01 X40.5785 Y36.6513
G01 X40.5804 Y36.6352
G01 X40.5830 Y36.6233
G01 X40.5864 Y36.6116
G01 X40.5922 Y36.5964
G01 X40.5975 Y36.5855
G01 X40.6037 Y36.5750
G01 X40.6106 Y36.5649
G01 X40.6182 Y36.5554
G01 X40.6236 Y36.5494
G01 X40.6324 Y36.5409
G01 X40.6385 Y36.5356
G01 X40.6482 Y36.5282
G01 X40.6550 Y36.5237
G01 X40.6691 Y36.5157
G01 X40.6839 Y36.5091
G01 X40.6916 Y36.5064
G01 X40.7033 Y36.5030
G01 X40.7192 Y36.4998
G01 X40.7273 Y36.4988
G01 X40.7394 Y36.4981
G01 X43.0449 Y36.4980
G00 Z2.0000
G00 X45.7435 Y21.2580
G01 F60.00
G01 Z-0.2001
G01 F320.00
G01 X45.7597 Y21.2588
G01 X45.7758 Y21.2612
G01 X45.7915 Y21.2651
G01 X45.8068 Y21.2706
G01 X45.8215 Y21.2775
G01 X45.8354 Y21.2859
G01 X45.8485 Y21.2956
G01 X45.8605 Y21.3065
G01 X45.8714 Y21.3185
G01 X45.8811 Y21.3316
G01 X45.8895 Y21.3455
G01 X45.8948 Y21.3564
G01 X45.9006 Y21.3716
G01 X45.9050 Y21.3872
G01 X45.9077 Y21.4032
G01 X45.9089 Y21.4194
G01 X45.9089 Y24.4276
G01 X45.9082 Y24.4397
G01 X45.9072 Y24.4478
G01 X45.9058 Y24.4558
G01 X45.9030 Y24.4676
G01 X45.9006 Y24.4754
G01 X45.8964 Y24.4868
G01 X45.8931 Y24.4943
G01 X45.8875 Y24.5051
G01 X45.8811 Y24.5154
G01 X45.8764 Y24.5221
G01 X45.8714 Y24.5285
G01 X45.8634 Y24.5376
G01 X45.8546 Y24.5461
G01 X45.8485 Y24.5514
G01 X45.8388 Y24.5588
G01 X45.8320 Y24.5633
G01 X45.8215 Y24.5695
G01 X45.8143 Y24.5731
G01 X45.8031 Y24.5779
G01 X45.7915 Y24.5819
G01 X45.7798 Y24.5850
G01 X45.7678 Y24.5872
G01 X45.7557 Y24.5885
G01 X45.7435 Y24.5890
G01 X40.7435 Y24.5890
G01 X40.7313 Y24.5885
G01 X40.7232 Y24.5877
G01 X40.7152 Y24.5866
G01 X40.7033 Y24.5840
G01 X40.6955 Y24.5819
G01 X40.6839 Y24.5779
G01 X40.6727 Y24.5731
G01 X40.6655 Y24.5695
G01 X40.6550 Y24.5633
G01 X40.6482 Y24.5588
G01 X40.6417 Y24.5540
G01 X40.6324 Y24.5461
G01 X40.6236 Y24.5376
G01 X40.6182 Y24.5316
G01 X40.6106 Y24.5221
G01 X40.6037 Y24.5120
G01 X40.5975 Y24.5015
G01 X40.5922 Y24.4906
G01 X40.5877 Y24.4792
G01 X40.5840 Y24.4676
G01 X40.5812 Y24.4558
G01 X40.5793 Y24.4438
G01 X40.5782 Y24.4316
G01 X40.5780 Y24.4235
G01 X40.5781 Y21.4194
G01 X40.5788 Y21.4073
G01 X40.5798 Y21.3992
G01 X40.5812 Y21.3912
G01 X40.5840 Y21.3794
G01 X40.5864 Y21.3716
G01 X40.5906 Y21.3602
G01 X40.5939 Y21.3527
G01 X40.5995 Y21.3419
G01 X40.6059 Y21.3316
G01 X40.6106 Y21.3249
G01 X40.6156 Y21.3185
G01 X40.6236 Y21.3094
G01 X40.6324 Y21.3009
G01 X40.6385 Y21.2956
G01 X40.6482 Y21.2882
G01 X40.6550 Y21.2837
G01 X40.6655 Y21.2775
G01 X40.6764 Y21.2722
G01 X40.6878 Y21.2677
G01 X40.6994 Y21.2640
G01 X40.7112 Y21.2612
G01 X40.7232 Y21.2593
G01 X40.7313 Y21.2585
G01 X40.7435 Y21.2580
G01 X45.7435 Y21.2580
G00 Z2.0000
G00 X45.7435 Y20.9601
G01 F60.00
G01 Z-0.2001
G01 F320.00
G01 X45.7549 Y20.9602
G01 X45.7776 Y20.9614
G01 X45.8002 Y20.9636
G01 X45.8227 Y20.9669
G01 X45.8450 Y20.9714
G01 X45.8671 Y20.9769
G01 X45.8889 Y20.9835
G01 X45.9103 Y20.9912
G01 X45.9313 Y20.9999
G01 X45.9518 Y21.0096
G01 X45.9719 Y21.0203
G01 X45.9817 Y21.0260
G01 X46.0009 Y21.0382
G01 X46.0195 Y21.0513
G01 X46.0375 Y21.0653
G01 X46.0547 Y21.0801
G01 X46.0712 Y21.0958
G01 X46.0868 Y21.1123
G01 X46.1017 Y21.1295
G01 X46.1157 Y21.1475
G01 X46.1288 Y21.1661
G01 X46.1410 Y21.1853
G01 X46.1522 Y21.2051
G01 X46.1624 Y21.2254
G01 X46.1716 Y21.2462
G01 X46.1798 Y21.2674
G01 X46.1869 Y21.2890
G01 X46.1930 Y21.3109
G01 X46.1980 Y21.3331
G01 X46.2019 Y21.3555
G01 X46.2047 Y21.3781
G01 X46.2056 Y21.3894
G01 X46.2068 Y21.4121
G01 X46.2069 Y21.4235
G01 X46.2069 Y24.4235
G01 X46.2063 Y24.4462
G01 X46.2047 Y24.4689
G01 X46.2034 Y24.4802
G01 X46.2001 Y24.5027
G01 X46.1956 Y24.5250
G01 X46.1901 Y24.5471
G01 X46.1835 Y24.5689
G01 X46.1758 Y24.5903
G01 X46.1671 Y24.6113
G01 X46.1574 Y24.6318
G01 X46.1522 Y24.6419
G01 X46.1467 Y24.6519
G01 X46.1350 Y24.6714
G01 X46.1224 Y24.6903
G01 X46.1088 Y24.7086
G01 X46.0944 Y24.7262
G01 X46.0868 Y24.7347
G01 X46.0712 Y24.7512
G01 X46.0547 Y24.7669
G01 X46.0375 Y24.7817
G01 X46.0286 Y24.7888
G01 X46.0103 Y24.8024
G01 X45.9914 Y24.8150
G01 X45.9817 Y24.8210
G01 X45.9719 Y24.8267
G01 X45.9518 Y24.8374
G01 X45.9416 Y24.8424
G01 X45.9208 Y24.8516
G01 X45.9103 Y24.8558
G01 X45.8889 Y24.8635
G01 X45.8780 Y24.8669
G01 X45.8561 Y24.8730
G01 X45.8450 Y24.8756
G01 X45.8227 Y24.8801
G01 X45.8115 Y24.8819
G01 X45.7889 Y24.8847
G01 X45.7776 Y24.8856
G01 X45.7549 Y24.8868
G01 X40.7321 Y24.8868
G01 X40.7094 Y24.8856
G01 X40.6868 Y24.8834
G01 X40.6755 Y24.8819
G01 X40.6531 Y24.8780
G01 X40.6420 Y24.8756
G01 X40.6199 Y24.8701
G01 X40.5981 Y24.8635
G01 X40.5767 Y24.8558
G01 X40.5557 Y24.8471
G01 X40.5454 Y24.8424
G01 X40.5251 Y24.8322
G01 X40.5053 Y24.8210
G01 X40.4861 Y24.8088
G01 X40.4675 Y24.7957
G01 X40.4495 Y24.7817
G01 X40.4408 Y24.7744
G01 X40.4240 Y24.7591
G01 X40.4079 Y24.7430
G01 X40.4002 Y24.7347
G01 X40.3926 Y24.7262
G01 X40.3782 Y24.7086
G01 X40.3646 Y24.6903
G01 X40.3520 Y24.6714
G01 X40.3460 Y24.6617
G01 X40.3403 Y24.6519
G01 X40.3296 Y24.6318
G01 X40.3246 Y24.6216
G01 X40.3154 Y24.6008
G01 X40.3112 Y24.5903
G01 X40.3035 Y24.5689
G01 X40.2969 Y24.5471
G01 X40.2940 Y24.5361
G01 X40.2890 Y24.5139
G01 X40.2869 Y24.5027
G01 X40.2836 Y24.4802
G01 X40.2823 Y24.4689
G01 X40.2814 Y24.4576
G01 X40.2802 Y24.4349
G01 X40.2802 Y21.4121
G01 X40.2814 Y21.3894
G01 X40.2836 Y21.3668
G01 X40.2851 Y21.3555
G01 X40.2890 Y21.3331
G01 X40.2914 Y21.3220
G01 X40.2969 Y21.2999
G01 X40.3035 Y21.2781
G01 X40.3072 Y21.2674
G01 X40.3154 Y21.2462
G01 X40.3246 Y21.2254
G01 X40.3348 Y21.2051
G01 X40.3460 Y21.1853
G01 X40.3520 Y21.1756
G01 X40.3646 Y21.1567
G01 X40.3713 Y21.1475
G01 X40.3853 Y21.1295
G01 X40.4002 Y21.1123
G01 X40.4158 Y21.0958
G01 X40.4240 Y21.0879
G01 X40.4408 Y21.0726
G01 X40.4584 Y21.0582
G01 X40.4767 Y21.0446
G01 X40.4861 Y21.0382
G01 X40.5053 Y21.0260
G01 X40.5151 Y21.0203
G01 X40.5352 Y21.0096
G01 X40.5557 Y20.9999
G01 X40.5662 Y20.9954
G01 X40.5767 Y20.9912
G01 X40.5981 Y20.9835
G01 X40.6090 Y20.9801
G01 X40.6309 Y20.9740
G01 X40.6531 Y20.9690
G01 X40.6643 Y20.9669
G01 X40.6755 Y20.9651
G01 X40.6981 Y20.9623
G01 X40.7094 Y20.9614
G01 X40.7321 Y20.9602
G01 X45.7435 Y20.9601
G00 Z2.0000
G00 X45.7435 Y20.6622
G01 F60.00
G01 Z-0.2001
G01 F320.00
G01 X45.7808 Y20.6631
G01 X45.8181 Y20.6659
G01 X45.8552 Y20.6704
G01 X45.8920 Y20.6768
G01 X45.9285 Y20.6850
G01 X45.9645 Y20.6950
G01 X45.9823 Y20.7006
G01 X46.0175 Y20.7132
G01 X46.0520 Y20.7275
G01 X46.0858 Y20.7435
G01 X46.1024 Y20.7521
G01 X46.1349 Y20.7705
G01 X46.1664 Y20.7905
G01 X46.1970 Y20.8120
G01 X46.2265 Y20.8350
G01 X46.2548 Y20.8594
G01 X46.2818 Y20.8852
G01 X46.3076 Y20.9122
G01 X46.3320 Y20.9405
G01 X46.3550 Y20.9700
G01 X46.3765 Y21.0005
G01 X46.3867 Y21.0162
G01 X46.4059 Y21.0483
G01 X46.4235 Y21.0812
G01 X46.4395 Y21.1150
G01 X46.4538 Y21.1495
G01 X46.4664 Y21.1847
G01 X46.4772 Y21.2205
G01 X46.4863 Y21.2567
G01 X46.4936 Y21.2934
G01 X46.4991 Y21.3303
G01 X46.5011 Y21.3489
G01 X46.5039 Y21.3862
G01 X46.5048 Y21.4235
G01 X46.5048 Y24.4235
G01 X46.5039 Y24.4608
G01 X46.5027 Y24.4795
G01 X46.4991 Y24.5167
G01 X46.4936 Y24.5536
G01 X46.4863 Y24.5903
G01 X46.4772 Y24.6265
G01 X46.4720 Y24.6445
G01 X46.4603 Y24.6800
G01 X46.4538 Y24.6975
G01 X46.4395 Y24.7320
G01 X46.4235 Y24.7658
G01 X46.4059 Y24.7987
G01 X46.3867 Y24.8308
G01 X46.3659 Y24.8619
G01 X46.3437 Y24.8919
G01 X46.3200 Y24.9208
G01 X46.2949 Y24.9484
G01 X46.2818 Y24.9618
G01 X46.2548 Y24.9876
G01 X46.2265 Y25.0120
G01 X46.1970 Y25.0350
G01 X46.1664 Y25.0565
G01 X46.1349 Y25.0765
G01 X46.1187 Y25.0859
G01 X46.0858 Y25.1035
G01 X46.0690 Y25.1117
G01 X46.0348 Y25.1268
G01 X46.0175 Y25.1338
G01 X45.9823 Y25.1464
G01 X45.9465 Y25.1572
G01 X45.9285 Y25.1620
G01 X45.9103 Y25.1663
G01 X45.8736 Y25.1736
G01 X45.8367 Y25.1791
G01 X45.8181 Y25.1811
G01 X45.7808 Y25.1839
G01 X45.7622 Y25.1846
G01 X40.7248 Y25.1846
G01 X40.6875 Y25.1827
G01 X40.6689 Y25.1811
G01 X40.6318 Y25.1766
G01 X40.5950 Y25.1702
G01 X40.5585 Y25.1620
G01 X40.5225 Y25.1520
G01 X40.4870 Y25.1403
G01 X40.4695 Y25.1338
G01 X40.4350 Y25.1195
G01 X40.4012 Y25.1035
G01 X40.3846 Y25.0949
G01 X40.3521 Y25.0765
G01 X40.3206 Y25.0565
G01 X40.3051 Y25.0459
G01 X40.2751 Y25.0237
G01 X40.2462 Y25.0000
G01 X40.2322 Y24.9876
G01 X40.2052 Y24.9618
G01 X40.1794 Y24.9348
G01 X40.1550 Y24.9065
G01 X40.1320 Y24.8770
G01 X40.1105 Y24.8465
G01 X40.1003 Y24.8308
G01 X40.0905 Y24.8149
G01 X40.0721 Y24.7824
G01 X40.0635 Y24.7658
G01 X40.0475 Y24.7320
G01 X40.0402 Y24.7148
G01 X40.0267 Y24.6800
G01 X40.0206 Y24.6623
G01 X40.0098 Y24.6265
G01 X40.0007 Y24.5903
G01 X39.9968 Y24.5720
G01 X39.9934 Y24.5536
G01 X39.9879 Y24.5167
G01 X39.9859 Y24.4981
G01 X39.9831 Y24.4608
G01 X39.9822 Y24.4235
G01 X39.9822 Y21.4235
G01 X39.9831 Y21.3862
G01 X39.9859 Y21.3489
G01 X39.9904 Y21.3118
G01 X39.9968 Y21.2750
G01 X40.0050 Y21.2385
G01 X40.0098 Y21.2205
G01 X40.0206 Y21.1847
G01 X40.0332 Y21.1495
G01 X40.0402 Y21.1322
G01 X40.0553 Y21.0980
G01 X40.0721 Y21.0646
G01 X40.0905 Y21.0321
G01 X40.1105 Y21.0005
G01 X40.1211 Y20.9851
G01 X40.1433 Y20.9551
G01 X40.1670 Y20.9262
G01 X40.1921 Y20.8986
G01 X40.2186 Y20.8721
G01 X40.2462 Y20.8470
G01 X40.2605 Y20.8350
G01 X40.2900 Y20.8120
G01 X40.3206 Y20.7905
G01 X40.3362 Y20.7803
G01 X40.3521 Y20.7705
G01 X40.3846 Y20.7521
G01 X40.4180 Y20.7353
G01 X40.4350 Y20.7275
G01 X40.4522 Y20.7202
G01 X40.4870 Y20.7067
G01 X40.5225 Y20.6950
G01 X40.5405 Y20.6898
G01 X40.5585 Y20.6850
G01 X40.5950 Y20.6768
G01 X40.6318 Y20.6704
G01 X40.6689 Y20.6659
G01 X40.6875 Y20.6643
G01 X40.7248 Y20.6624
G01 X45.7435 Y20.6622
G00 Z2.0000
G00 X60.9835 Y20.6622
G01 F60.00
G01 Z-0.2001
G01 F320.00
G01 X61.0208 Y20.6631
G01 X61.0581 Y20.6659
G01 X61.0952 Y20.6704
G01 X61.1320 Y20.6768
G01 X61.1685 Y20.6850
G01 X61.2045 Y20.6950
G01 X61.2223 Y20.7006
G01 X61.2575 Y20.7132
G01 X61.2920 Y20.7275
G01 X61.3258 Y20.7435
G01 X61.3424 Y20.7521
G01 X61.3749 Y20.7705
G01 X61.4064 Y20.7905
G01 X61.4370 Y20.8120
G01 X61.4665 Y20.8350
G01 X61.4948 Y20.8594
G01 X61.5218 Y20.8852
G01 X61.5476 Y20.9122
G01 X61.5720 Y20.9405
G01 X61.5950 Y20.9700
G01 X61.6165 Y21.0005
G01 X61.6267 Y21.0162
G01 X61.6459 Y21.0483
G01 X61.6635 Y21.0812
G01 X61.6795 Y21.1150
G01 X61.6938 Y21.1495
G01 X61.7064 Y21.1847
G01 X61.7172 Y21.2205
G01 X61.7263 Y21.2567
G01 X61.7336 Y21.2934
G01 X61.7391 Y21.3303
G01 X61.7411 Y21.3489
G01 X61.7439 Y21.3862
G01 X61.7448 Y21.4235
G01 X61.7448 Y24.4235
G01 X61.7439 Y24.4608
G01 X61.7427 Y24.4795
G01 X61.7391 Y24.5167
G01 X61.7336 Y24.5536
G01 X61.7263 Y24.5903
G01 X61.7172 Y24.6265
G01 X61.7120 Y24.6445
G01 X61.7003 Y24.6800
G01 X61.6938 Y24.6975
G01 X61.6795 Y24.7320
G01 X61.6635 Y24.7658
G01 X61.6459 Y24.7987
G01 X61.6267 Y24.8308
G01 X61.6059 Y24.8619
G01 X61.5837 Y24.8919
G01 X61.5600 Y24.9208
G01 X61.5349 Y24.9484
G01 X61.5218 Y24.9618
G01 X61.4948 Y24.9876
G01 X61.4665 Y25.0120
G01 X61.4370 Y25.0350
G01 X61.4064 Y25.0565
G01 X61.3749 Y25.0765
G01 X61.3587 Y25.0859
G01 X61.3258 Y25.1035
G01 X61.3090 Y25.1117
G01 X61.2748 Y25.1268
G01 X61.2575 Y25.1338
G01 X61.2223 Y25.1464
G01 X61.1865 Y25.1572
G01 X61.1685 Y25.1620
G01 X61.1503 Y25.1663
G01 X61.1136 Y25.1736
G01 X61.0767 Y25.1791
G01 X61.0581 Y25.1811
G01 X61.0208 Y25.1839
G01 X61.0022 Y25.1846
G01 X55.9648 Y25.1846
G01 X55.9275 Y25.1827
G01 X55.9089 Y25.1811
G01 X55.8718 Y25.1766
G01 X55.8350 Y25.1702
G01 X55.7985 Y25.1620
G01 X55.7625 Y25.1520
G01 X55.7270 Y25.1403
G01 X55.7095 Y25.1338
G01 X55.6750 Y25.1195
G01 X55.6412 Y25.1035
G01 X55.6246 Y25.0949
G01 X55.5921 Y25.0765
G01 X55.5606 Y25.0565
G01 X55.5451 Y25.0459
G01 X55.5151 Y25.0237
G01 X55.4862 Y25.0000
G01 X55.4722 Y24.9876
G01 X55.4452 Y24.9618
G01 X55.4194 Y24.9348
G01 X55.3950 Y24.9065
G01 X55.3720 Y24.8770
G01 X55.3505 Y24.8465
G01 X55.3403 Y24.8308
G01 X55.3305 Y24.8149
G01 X55.3121 Y24.7824
G01 X55.3035 Y24.7658
G01 X55.2875 Y24.7320
G01 X55.2802 Y24.7148
G01 X55.2667 Y24.6800
G01 X55.2606 Y24.6623
G01 X55.2498 Y24.6265
G01 X55.2407 Y24.5903
G01 X55.2368 Y24.5720
G01 X55.2334 Y24.5536
G01 X55.2279 Y24.5167
G01 X55.2259 Y24.4981
G01 X55.2231 Y24.4608
G01 X55.2222 Y24.4235
G01 X55.2222 Y21.4235
G01 X55.2231 Y21.3862
G01 X55.2259 Y21.3489
G01 X55.2304 Y21.3118
G01 X55.2368 Y21.2750
G01 X55.2450 Y21.2385
G01 X55.2498 Y21.2205
G01 X55.2606 Y21.1847
G01 X55.2732 Y21.1495
G01 X55.2802 Y21.1322
G01 X55.2953 Y21.0980
G01 X55.3121 Y21.0646
G01 X55.3305 Y21.0321
G01 X55.3505 Y21.0005
G01 X55.3611 Y20.9851
G01 X55.3833 Y20.9551
G01 X55.4070 Y20.9262
G01 X55.4321 Y20.8986
G01 X55.4586 Y20.8721
G01 X55.4862 Y20.8470
G01 X55.5005 Y20.8350
G01 X55.5300 Y20.8120
G01 X55.5606 Y20.7905
G01 X55.5762 Y20.7803
G01 X55.5921 Y20.7705
G01 X55.6246 Y20.7521
G01 X55.6580 Y20.7353
G01 X55.6750 Y20.7275
G01 X55.6922 Y20.7202
G01 X55.7270 Y20.7067
G01 X55.7625 Y20.6950
G01 X55.7805 Y20.6898
G01 X55.7985 Y20.6850
G01 X55.8350 Y20.6768
G01 X55.8718 Y20.6704
G01 X55.9089 Y20.6659
G01 X55.9275 Y20.6643
G01 X55.9648 Y20.6624
G01 X60.9835 Y20.6622
G00 Z2.0000
G00 X60.9835 Y20.9601
G01 F60.00
G01 Z-0.2001
G01 F320.00
G01 X60.9949 Y20.9602
G01 X61.0176 Y20.9614
G01 X61.0402 Y20.9636
G01 X61.0627 Y20.9669
G01 X61.0850 Y20.9714
G01 X61.1071 Y20.9769
G01 X61.1289 Y20.9835
G01 X61.1503 Y20.9912
G01 X61.1713 Y20.9999
G01 X61.1918 Y21.0096
G01 X61.2119 Y21.0203
G01 X61.2217 Y21.0260
G01 X61.2409 Y21.0382
G01 X61.2595 Y21.0513
G01 X61.2775 Y21.0653
G01 X61.2947 Y21.0801
G01 X61.3112 Y21.0958
G01 X61.3268 Y21.1123
G01 X61.3417 Y21.1295
G01 X61.3557 Y21.1475
G01 X61.3688 Y21.1661
G01 X61.3810 Y21.1853
G01 X61.3922 Y21.2051
G01 X61.4024 Y21.2254
G01 X61.4116 Y21.2462
G01 X61.4198 Y21.2674
G01 X61.4269 Y21.2890
G01 X61.4330 Y21.3109
G01 X61.4380 Y21.3331
G01 X61.4419 Y21.3555
G01 X61.4447 Y21.3781
G01 X61.4456 Y21.3894
G01 X61.4468 Y21.4121
G01 X61.4469 Y21.4235
G01 X61.4469 Y24.4235
G01 X61.4463 Y24.4462
G01 X61.4447 Y24.4689
G01 X61.4434 Y24.4802
G01 X61.4401 Y24.5027
G01 X61.4356 Y24.5250
G01 X61.4301 Y24.5471
G01 X61.4235 Y24.5689
G01 X61.4158 Y24.5903
G01 X61.4071 Y24.6113
G01 X61.3974 Y24.6318
G01 X61.3922 Y24.6419
G01 X61.3867 Y24.6519
G01 X61.3750 Y24.6714
G01 X61.3624 Y24.6903
G01 X61.3488 Y24.7086
G01 X61.3344 Y24.7262
G01 X61.3268 Y24.7347
G01 X61.3112 Y24.7512
G01 X61.2947 Y24.7669
G01 X61.2775 Y24.7817
G01 X61.2686 Y24.7888
G01 X61.2503 Y24.8024
G01 X61.2314 Y24.8150
G01 X61.2217 Y24.8210
G01 X61.2119 Y24.8267
G01 X61.1918 Y24.8374
G01 X61.1816 Y24.8424
G01 X61.1608 Y24.8516
G01 X61.1503 Y24.8558
G01 X61.1289 Y24.8635
G01 X61.1180 Y24.8669
G01 X61.0961 Y24.8730
G01 X61.0850 Y24.8756
G01 X61.0627 Y24.8801
G01 X61.0515 Y24.8819
G01 X61.0289 Y24.8847
G01 X61.0176 Y24.8856
G01 X60.9949 Y24.8868
G01 X55.9721 Y24.8868
G01 X55.9494 Y24.8856
G01 X55.9268 Y24.8834
G01 X55.9155 Y24.8819
G01 X55.8931 Y24.8780
G01 X55.8820 Y24.8756
G01 X55.8599 Y24.8701
G01 X55.8381 Y24.8635
G01 X55.8167 Y24.8558
G01 X55.7957 Y24.8471
G01 X55.7854 Y24.8424
G01 X55.7651 Y24.8322
G01 X55.7453 Y24.8210
G01 X55.7261 Y24.8088
G01 X55.7075 Y24.7957
G01 X55.6895 Y24.7817
G01 X55.6808 Y24.7744
G01 X55.6640 Y24.7591
G01 X55.6479 Y24.7430
G01 X55.6402 Y24.7347
G01 X55.6326 Y24.7262
G01 X55.6182 Y24.7086
G01 X55.6046 Y24.6903
G01 X55.5920 Y24.6714
G01 X55.5860 Y24.6617
G01 X55.5803 Y24.6519
G01 X55.5696 Y24.6318
G01 X55.5646 Y24.6216
G01 X55.5554 Y24.6008
G01 X55.5512 Y24.5903
G01 X55.5435 Y24.5689
G01 X55.5369 Y24.5471
G01 X55.5340 Y24.5361
G01 X55.5290 Y24.5139
G01 X55.5269 Y24.5027
G01 X55.5236 Y24.4802
G01 X55.5223 Y24.4689
G01 X55.5214 Y24.4576
G01 X55.5202 Y24.4349
G01 X55.5202 Y21.4121
G01 X55.5214 Y21.3894
G01 X55.5236 Y21.3668
G01 X55.5251 Y21.3555
G01 X55.5290 Y21.3331
G01 X55.5314 Y21.3220
G01 X55.5369 Y21.2999
G01 X55.5435 Y21.2781
G01 X55.5472 Y21.2674
G01 X55.5554 Y21.2462
G01 X55.5646 Y21.2254
G01 X55.5748 Y21.2051
G01 X55.5860 Y21.1853
G01 X55.5920 Y21.1756
G01 X55.6046 Y21.1567
G01 X55.6113 Y21.1475
G01 X55.6253 Y21.1295
G01 X55.6402 Y21.1123
G01 X55.6558 Y21.0958
G01 X55.6640 Y21.0879
G01 X55.6808 Y21.0726
G01 X55.6984 Y21.0582
G01 X55.7167 Y21.0446
G01 X55.7261 Y21.0382
G01 X55.7453 Y21.0260
G01 X55.7551 Y21.0203
G01 X55.7752 Y21.0096
G01 X55.7957 Y20.9999
G01 X55.8062 Y20.9954
G01 X55.8167 Y20.9912
G01 X55.8381 Y20.9835
G01 X55.8490 Y20.9801
G01 X55.8709 Y20.9740
G01 X55.8931 Y20.9690
G01 X55.9043 Y20.9669
G01 X55.9155 Y20.9651
G01 X55.9381 Y20.9623
G01 X55.9494 Y20.9614
G01 X55.9721 Y20.9602
G01 X60.9835 Y20.9601
G00 Z2.0000
G00 X60.9835 Y21.2580
G01 F60.00
G01 Z-0.2001
G01 F320.00
G01 X60.9997 Y21.2588
G01 X61.0158 Y21.2612
G01 X61.0315 Y21.2651
G01 X61.0468 Y21.2706
G01 X61.0615 Y21.2775
G01 X61.0754 Y21.2859
G01 X61.0885 Y21.2956
G01 X61.1005 Y21.3065
G01 X61.1114 Y21.3185
G01 X61.1211 Y21.3316
G01 X61.1295 Y21.3455
G01 X61.1348 Y21.3564
G01 X61.1406 Y21.3716
G01 X61.1450 Y21.3872
G01 X61.1477 Y21.4032
G01 X61.1489 Y21.4194
G01 X61.1489 Y24.4276
G01 X61.1482 Y24.4397
G01 X61.1472 Y24.4478
G01 X61.1458 Y24.4558
G01 X61.1430 Y24.4676
G01 X61.1406 Y24.4754
G01 X61.1364 Y24.4868
G01 X61.1331 Y24.4943
G01 X61.1275 Y24.5051
G01 X61.1211 Y24.5154
G01 X61.1164 Y24.5221
G01 X61.1114 Y24.5285
G01 X61.1034 Y24.5376
G01 X61.0946 Y24.5461
G01 X61.0885 Y24.5514
G01 X61.0788 Y24.5588
G01 X61.0720 Y24.5633
G01 X61.0615 Y24.5695
G01 X61.0543 Y24.5731
G01 X61.0431 Y24.5779
G01 X61.0315 Y24.5819
G01 X61.0198 Y24.5850
G01 X61.0078 Y24.5872
G01 X60.9957 Y24.5885
G01 X60.9835 Y24.5890
G01 X55.9835 Y24.5890
G01 X55.9713 Y24.5885
G01 X55.9632 Y24.5877
G01 X55.9552 Y24.5866
G01 X55.9433 Y24.5840
G01 X55.9355 Y24.5819
G01 X55.9239 Y24.5779
G01 X55.9127 Y24.5731
G01 X55.9055 Y24.5695
G01 X55.8950 Y24.5633
G01 X55.8882 Y24.5588
G01 X55.8817 Y24.5540
G01 X55.8724 Y24.5461
G01 X55.8636 Y24.5376
G01 X55.8582 Y24.5316
G01 X55.8506 Y24.5221
G01 X55.8437 Y24.5120
G01 X55.8375 Y24.5015
G01 X55.8322 Y24.4906
G01 X55.8277 Y24.4792
G01 X55.8240 Y24.4676
G01 X55.8212 Y24.4558
G01 X55.8193 Y24.4438
G01 X55.8182 Y24.4316
G01 X55.8180 Y24.4235
G01 X55.8181 Y21.4194
G01 X55.8188 Y21.4073
G01 X55.8198 Y21.3992
G01 X55.8212 Y21.3912
G01 X55.8240 Y21.3794
G01 X55.8264 Y21.3716
G01 X55.8306 Y21.3602
G01 X55.8339 Y21.3527
G01 X55.8395 Y21.3419
G01 X55.8459 Y21.3316
G01 X55.8506 Y21.3249
G01 X55.8556 Y21.3185
G01 X55.8636 Y21.3094
G01 X55.8724 Y21.3009
G01 X55.8785 Y21.2956
G01 X55.8882 Y21.2882
G01 X55.8950 Y21.2837
G01 X55.9055 Y21.2775
G01 X55.9164 Y21.2722
G01 X55.9278 Y21.2677
G01 X55.9394 Y21.2640
G01 X55.9512 Y21.2612
G01 X55.9632 Y21.2593
G01 X55.9713 Y21.2585
G01 X55.9835 Y21.2580
G01 X60.9835 Y21.2580
G00 Z2.0000
G00 X76.2235 Y21.2580
G01 F60.00
G01 Z-0.2001
G01 F320.00
G01 X76.2397 Y21.2588
G01 X76.2558 Y21.2612
G01 X76.2715 Y21.2651
G01 X76.2868 Y21.2706
G01 X76.3015 Y21.2775
G01 X76.3154 Y21.2859
G01 X76.3285 Y21.2956
G01 X76.3376 Y21.3036
G01 X76.3488 Y21.3154
G01 X76.3588 Y21.3282
G01 X76.3675 Y21.3419
G01 X76.3748 Y21.3564
G01 X76.3806 Y21.3716
G01 X76.3850 Y21.3872
G01 X76.3877 Y21.4032
G01 X76.3889 Y21.4194
G01 X76.3889 Y24.4276
G01 X76.3882 Y24.4397
G01 X76.3872 Y24.4478
G01 X76.3850 Y24.4598
G01 X76.3830 Y24.4676
G01 X76.3793 Y24.4792
G01 X76.3764 Y24.4868
G01 X76.3731 Y24.4943
G01 X76.3675 Y24.5051
G01 X76.3611 Y24.5154
G01 X76.3564 Y24.5221
G01 X76.3514 Y24.5285
G01 X76.3434 Y24.5376
G01 X76.3376 Y24.5434
G01 X76.3285 Y24.5514
G01 X76.3188 Y24.5588
G01 X76.3120 Y24.5633
G01 X76.3015 Y24.5695
G01 X76.2906 Y24.5748
G01 X76.2792 Y24.5793
G01 X76.2676 Y24.5830
G01 X76.2558 Y24.5858
G01 X76.2438 Y24.5877
G01 X76.2316 Y24.5888
G01 X76.2235 Y24.5890
G01 X71.2235 Y24.5890
G01 X71.2113 Y24.5885
G01 X71.2032 Y24.5877
G01 X71.1912 Y24.5858
G01 X71.1833 Y24.5840
G01 X71.1755 Y24.5819
G01 X71.1639 Y24.5779
G01 X71.1564 Y24.5748
G01 X71.1455 Y24.5695
G01 X71.1350 Y24.5633
G01 X71.1282 Y24.5588
G01 X71.1185 Y24.5514
G01 X71.1124 Y24.5461
G01 X71.1036 Y24.5376
G01 X71.0956 Y24.5285
G01 X71.0882 Y24.5188
G01 X71.0837 Y24.5120
G01 X71.0775 Y24.5015
G01 X71.0722 Y24.4906
G01 X71.0677 Y24.4792
G01 X71.0651 Y24.4715
G01 X71.0620 Y24.4598
G01 X71.0598 Y24.4478
G01 X71.0585 Y24.4357
G01 X71.0580 Y24.4235
G01 X71.0581 Y21.4194
G01 X71.0585 Y21.4113
G01 X71.0598 Y21.3992
G01 X71.0620 Y21.3872
G01 X71.0640 Y21.3794
G01 X71.0664 Y21.3716
G01 X71.0706 Y21.3602
G01 X71.0757 Y21.3491
G01 X71.0795 Y21.3419
G01 X71.0837 Y21.3350
G01 X71.0906 Y21.3249
G01 X71.0956 Y21.3185
G01 X71.1036 Y21.3094
G01 X71.1124 Y21.3009
G01 X71.1185 Y21.2956
G01 X71.1282 Y21.2882
G01 X71.1350 Y21.2837
G01 X71.1455 Y21.2775
G01 X71.1564 Y21.2722
G01 X71.1639 Y21.2691
G01 X71.1755 Y21.2651
G01 X71.1872 Y21.2620
G01 X71.1992 Y21.2598
G01 X71.2113 Y21.2585
G01 X71.2235 Y21.2580
G01 X76.2235 Y21.2580
G00 Z2.0000
G00 X76.2235 Y20.9601
G01 F60.00
G01 Z-0.2001
G01 F320.00
G01 X76.2349 Y20.9602
G01 X76.2576 Y20.9614
G01 X76.2802 Y20.9636
G01 X76.3027 Y20.9669
G01 X76.3250 Y20.9714
G01 X76.3471 Y20.9769
G01 X76.3689 Y20.9835
G01 X76.3903 Y20.9912
G01 X76.4008 Y20.9954
G01 X76.4216 Y21.0046
G01 X76.4419 Y21.0148
G01 X76.4617 Y21.0260
G01 X76.4809 Y21.0382
G01 X76.4995 Y21.0513
G01 X76.5175 Y21.0653
G01 X76.5347 Y21.0801
G01 X76.5512 Y21.0958
G01 X76.5668 Y21.1123
G01 X76.5817 Y21.1295
G01 X76.5957 Y21.1475
G01 X76.6088 Y21.1661
G01 X76.6210 Y21.1853
G01 X76.6267 Y21.1951
G01 X76.6374 Y21.2152
G01 X76.6471 Y21.2357
G01 X76.6558 Y21.2567
G01 X76.6635 Y21.2781
G01 X76.6701 Y21.2999
G01 X76.6756 Y21.3220
G01 X76.6801 Y21.3443
G01 X76.6834 Y21.3668
G01 X76.6856 Y21.3894
G01 X76.6863 Y21.4008
G01 X76.6869 Y21.4235
G01 X76.6869 Y24.4235
G01 X76.6863 Y24.4462
G01 X76.6847 Y24.4689
G01 X76.6819 Y24.4915
G01 X76.6780 Y24.5139
G01 X76.6756 Y24.5250
G01 X76.6701 Y24.5471
G01 X76.6669 Y24.5580
G01 X76.6598 Y24.5796
G01 X76.6516 Y24.6008
G01 X76.6471 Y24.6113
G01 X76.6374 Y24.6318
G01 X76.6267 Y24.6519
G01 X76.6150 Y24.6714
G01 X76.6088 Y24.6809
G01 X76.5957 Y24.6995
G01 X76.5817 Y24.7175
G01 X76.5668 Y24.7347
G01 X76.5512 Y24.7512
G01 X76.5347 Y24.7669
G01 X76.5175 Y24.7817
G01 X76.5086 Y24.7888
G01 X76.4903 Y24.8024
G01 X76.4714 Y24.8150
G01 X76.4617 Y24.8210
G01 X76.4519 Y24.8267
G01 X76.4318 Y24.8374
G01 X76.4216 Y24.8424
G01 X76.4008 Y24.8516
G01 X76.3796 Y24.8598
G01 X76.3689 Y24.8635
G01 X76.3471 Y24.8701
G01 X76.3361 Y24.8730
G01 X76.3139 Y24.8780
G01 X76.3027 Y24.8801
G01 X76.2915 Y24.8819
G01 X76.2689 Y24.8847
G01 X76.2576 Y24.8856
G01 X76.2349 Y24.8868
G01 X71.2121 Y24.8868
G01 X71.1894 Y24.8856
G01 X71.1668 Y24.8834
G01 X71.1555 Y24.8819
G01 X71.1331 Y24.8780
G01 X71.1109 Y24.8730
G01 X71.0999 Y24.8701
G01 X71.0781 Y24.8635
G01 X71.0567 Y24.8558
G01 X71.0357 Y24.8471
G01 X71.0254 Y24.8424
G01 X71.0051 Y24.8322
G01 X70.9951 Y24.8267
G01 X70.9756 Y24.8150
G01 X70.9567 Y24.8024
G01 X70.9384 Y24.7888
G01 X70.9208 Y24.7744
G01 X70.9123 Y24.7669
G01 X70.8958 Y24.7512
G01 X70.8802 Y24.7347
G01 X70.8726 Y24.7262
G01 X70.8582 Y24.7086
G01 X70.8446 Y24.6903
G01 X70.8320 Y24.6714
G01 X70.8260 Y24.6617
G01 X70.8203 Y24.6519
G01 X70.8096 Y24.6318
G01 X70.7999 Y24.6113
G01 X70.7954 Y24.6008
G01 X70.7872 Y24.5796
G01 X70.7835 Y24.5689
G01 X70.7769 Y24.5471
G01 X70.7740 Y24.5361
G01 X70.7714 Y24.5250
G01 X70.7669 Y24.5027
G01 X70.7636 Y24.4802
G01 X70.7623 Y24.4689
G01 X70.7607 Y24.4462
G01 X70.7602 Y24.4349
G01 X70.7602 Y21.4121
G01 X70.7614 Y21.3894
G01 X70.7636 Y21.3668
G01 X70.7669 Y21.3443
G01 X70.7714 Y21.3220
G01 X70.7740 Y21.3109
G01 X70.7769 Y21.2999
G01 X70.7835 Y21.2781
G01 X70.7912 Y21.2567
G01 X70.7999 Y21.2357
G01 X70.8096 Y21.2152
G01 X70.8148 Y21.2051
G01 X70.8260 Y21.1853
G01 X70.8320 Y21.1756
G01 X70.8446 Y21.1567
G01 X70.8582 Y21.1384
G01 X70.8726 Y21.1208
G01 X70.8879 Y21.1040
G01 X70.8958 Y21.0958
G01 X70.9123 Y21.0801
G01 X70.9295 Y21.0653
G01 X70.9475 Y21.0513
G01 X70.9567 Y21.0446
G01 X70.9756 Y21.0320
G01 X70.9853 Y21.0260
G01 X70.9951 Y21.0203
G01 X71.0152 Y21.0096
G01 X71.0357 Y20.9999
G01 X71.0462 Y20.9954
G01 X71.0567 Y20.9912
G01 X71.0781 Y20.9835
G01 X71.0999 Y20.9769
G01 X71.1109 Y20.9740
G01 X71.1331 Y20.9690
G01 X71.1443 Y20.9669
G01 X71.1555 Y20.9651
G01 X71.1781 Y20.9623
G01 X71.1894 Y20.9614
G01 X71.2121 Y20.9602
G01 X76.2235 Y20.9601
G00 Z2.0000
G00 X76.2235 Y20.6622
G01 F60.00
G01 Z-0.2001
G01 F320.00
G01 X76.2608 Y20.6631
G01 X76.2981 Y20.6659
G01 X76.3352 Y20.6704
G01 X76.3720 Y20.6768
G01 X76.3903 Y20.6807
G01 X76.4265 Y20.6898
G01 X76.4623 Y20.7006
G01 X76.4975 Y20.7132
G01 X76.5320 Y20.7275
G01 X76.5658 Y20.7435
G01 X76.5987 Y20.7611
G01 X76.6149 Y20.7705
G01 X76.6464 Y20.7905
G01 X76.6770 Y20.8120
G01 X76.7065 Y20.8350
G01 X76.7348 Y20.8594
G01 X76.7618 Y20.8852
G01 X76.7876 Y20.9122
G01 X76.8120 Y20.9405
G01 X76.8350 Y20.9700
G01 X76.8459 Y20.9851
G01 X76.8667 Y21.0162
G01 X76.8859 Y21.0483
G01 X76.9035 Y21.0812
G01 X76.9117 Y21.0980
G01 X76.9268 Y21.1322
G01 X76.9403 Y21.1670
G01 X76.9520 Y21.2025
G01 X76.9620 Y21.2385
G01 X76.9702 Y21.2750
G01 X76.9766 Y21.3118
G01 X76.9811 Y21.3489
G01 X76.9839 Y21.3862
G01 X76.9848 Y21.4235
G01 X76.9848 Y24.4235
G01 X76.9839 Y24.4608
G01 X76.9827 Y24.4795
G01 X76.9791 Y24.5167
G01 X76.9736 Y24.5536
G01 X76.9702 Y24.5720
G01 X76.9620 Y24.6085
G01 X76.9520 Y24.6445
G01 X76.9403 Y24.6800
G01 X76.9338 Y24.6975
G01 X76.9195 Y24.7320
G01 X76.9035 Y24.7658
G01 X76.8859 Y24.7987
G01 X76.8667 Y24.8308
G01 X76.8459 Y24.8619
G01 X76.8237 Y24.8919
G01 X76.8000 Y24.9208
G01 X76.7749 Y24.9484
G01 X76.7484 Y24.9749
G01 X76.7208 Y25.0000
G01 X76.7065 Y25.0120
G01 X76.6770 Y25.0350
G01 X76.6464 Y25.0565
G01 X76.6149 Y25.0765
G01 X76.5987 Y25.0859
G01 X76.5658 Y25.1035
G01 X76.5490 Y25.1117
G01 X76.5148 Y25.1268
G01 X76.4975 Y25.1338
G01 X76.4623 Y25.1464
G01 X76.4265 Y25.1572
G01 X76.4085 Y25.1620
G01 X76.3720 Y25.1702
G01 X76.3536 Y25.1736
G01 X76.3167 Y25.1791
G01 X76.2981 Y25.1811
G01 X76.2608 Y25.1839
G01 X76.2422 Y25.1846
G01 X71.2048 Y25.1846
G01 X71.1675 Y25.1827
G01 X71.1489 Y25.1811
G01 X71.1118 Y25.1766
G01 X71.0750 Y25.1702
G01 X71.0385 Y25.1620
G01 X71.0025 Y25.1520
G01 X70.9670 Y25.1403
G01 X70.9495 Y25.1338
G01 X70.9150 Y25.1195
G01 X70.8980 Y25.1117
G01 X70.8646 Y25.0949
G01 X70.8321 Y25.0765
G01 X70.8006 Y25.0565
G01 X70.7700 Y25.0350
G01 X70.7551 Y25.0237
G01 X70.7262 Y25.0000
G01 X70.6986 Y24.9749
G01 X70.6721 Y24.9484
G01 X70.6594 Y24.9348
G01 X70.6350 Y24.9065
G01 X70.6120 Y24.8770
G01 X70.6011 Y24.8619
G01 X70.5803 Y24.8308
G01 X70.5611 Y24.7987
G01 X70.5521 Y24.7824
G01 X70.5353 Y24.7490
G01 X70.5275 Y24.7320
G01 X70.5132 Y24.6975
G01 X70.5067 Y24.6800
G01 X70.4950 Y24.6445
G01 X70.4898 Y24.6265
G01 X70.4807 Y24.5903
G01 X70.4768 Y24.5720
G01 X70.4734 Y24.5536
G01 X70.4679 Y24.5167
G01 X70.4659 Y24.4981
G01 X70.4631 Y24.4608
G01 X70.4622 Y24.4235
G01 X70.4622 Y21.4235
G01 X70.4631 Y21.3862
G01 X70.4659 Y21.3489
G01 X70.4704 Y21.3118
G01 X70.4768 Y21.2750
G01 X70.4807 Y21.2567
G01 X70.4898 Y21.2205
G01 X70.5006 Y21.1847
G01 X70.5132 Y21.1495
G01 X70.5202 Y21.1322
G01 X70.5353 Y21.0980
G01 X70.5521 Y21.0646
G01 X70.5705 Y21.0321
G01 X70.5803 Y21.0162
G01 X70.6011 Y20.9851
G01 X70.6233 Y20.9551
G01 X70.6470 Y20.9262
G01 X70.6721 Y20.8986
G01 X70.6986 Y20.8721
G01 X70.7262 Y20.8470
G01 X70.7405 Y20.8350
G01 X70.7700 Y20.8120
G01 X70.8006 Y20.7905
G01 X70.8162 Y20.7803
G01 X70.8321 Y20.7705
G01 X70.8646 Y20.7521
G01 X70.8980 Y20.7353
G01 X70.9150 Y20.7275
G01 X70.9322 Y20.7202
G01 X70.9670 Y20.7067
G01 X71.0025 Y20.6950
G01 X71.0205 Y20.6898
G01 X71.0385 Y20.6850
G01 X71.0750 Y20.6768
G01 X71.1118 Y20.6704
G01 X71.1489 Y20.6659
G01 X71.1675 Y20.6643
G01 X71.2048 Y20.6624
G01 X76.2235 Y20.6622
G00 Z2.0000
G00 X91.4635 Y20.6622
G01 F60.00
G01 Z-0.2001
G01 F320.00
G01 X91.5008 Y20.6631
G01 X91.5381 Y20.6659
G01 X91.5752 Y20.6704
G01 X91.6120 Y20.6768
G01 X91.6303 Y20.6807
G01 X91.6665 Y20.6898
G01 X91.7023 Y20.7006
G01 X91.7375 Y20.7132
G01 X91.7720 Y20.7275
G01 X91.8058 Y20.7435
G01 X91.8387 Y20.7611
G01 X91.8549 Y20.7705
G01 X91.8864 Y20.7905
G01 X91.9170 Y20.8120
G01 X91.9465 Y20.8350
G01 X91.9748 Y20.8594
G01 X92.0018 Y20.8852
G01 X92.0276 Y20.9122
G01 X92.0520 Y20.9405
G01 X92.0750 Y20.9700
G01 X92.0859 Y20.9851
G01 X92.1067 Y21.0162
G01 X92.1259 Y21.0483
G01 X92.1435 Y21.0812
G01 X92.1595 Y21.1150
G01 X92.1738 Y21.1495
G01 X92.1864 Y21.1847
G01 X92.1920 Y21.2025
G01 X92.2020 Y21.2385
G01 X92.2102 Y21.2750
G01 X92.2166 Y21.3118
G01 X92.2211 Y21.3489
G01 X92.2239 Y21.3862
G01 X92.2248 Y21.4235
G01 X92.2248 Y24.4235
G01 X92.2239 Y24.4608
G01 X92.2227 Y24.4795
G01 X92.2191 Y24.5167
G01 X92.2136 Y24.5536
G01 X92.2102 Y24.5720
G01 X92.2020 Y24.6085
G01 X92.1920 Y24.6445
G01 X92.1803 Y24.6800
G01 X92.1668 Y24.7148
G01 X92.1517 Y24.7490
G01 X92.1349 Y24.7824
G01 X92.1165 Y24.8149
G01 X92.1067 Y24.8308
G01 X92.0859 Y24.8619
G01 X92.0637 Y24.8919
G01 X92.0400 Y24.9208
G01 X92.0149 Y24.9484
G01 X91.9884 Y24.9749
G01 X91.9608 Y25.0000
G01 X91.9465 Y25.0120
G01 X91.9170 Y25.0350
G01 X91.8864 Y25.0565
G01 X91.8549 Y25.0765
G01 X91.8387 Y25.0859
G01 X91.8058 Y25.1035
G01 X91.7890 Y25.1117
G01 X91.7548 Y25.1268
G01 X91.7375 Y25.1338
G01 X91.7023 Y25.1464
G01 X91.6665 Y25.1572
G01 X91.6485 Y25.1620
G01 X91.6120 Y25.1702
G01 X91.5936 Y25.1736
G01 X91.5567 Y25.1791
G01 X91.5381 Y25.1811
G01 X91.5008 Y25.1839
G01 X91.4822 Y25.1846
G01 X86.4448 Y25.1846
G01 X86.4075 Y25.1827
G01 X86.3889 Y25.1811
G01 X86.3518 Y25.1766
G01 X86.3150 Y25.1702
G01 X86.2785 Y25.1620
G01 X86.2425 Y25.1520
G01 X86.2070 Y25.1403
G01 X86.1895 Y25.1338
G01 X86.1550 Y25.1195
G01 X86.1380 Y25.1117
G01 X86.1046 Y25.0949
G01 X86.0721 Y25.0765
G01 X86.0406 Y25.0565
G01 X86.0100 Y25.0350
G01 X85.9951 Y25.0237
G01 X85.9662 Y25.0000
G01 X85.9386 Y24.9749
G01 X85.9121 Y24.9484
G01 X85.8994 Y24.9348
G01 X85.8750 Y24.9065
G01 X85.8520 Y24.8770
G01 X85.8411 Y24.8619
G01 X85.8203 Y24.8308
G01 X85.8011 Y24.7987
G01 X85.7921 Y24.7824
G01 X85.7753 Y24.7490
G01 X85.7675 Y24.7320
G01 X85.7532 Y24.6975
G01 X85.7467 Y24.6800
G01 X85.7350 Y24.6445
G01 X85.7298 Y24.6265
G01 X85.7207 Y24.5903
G01 X85.7168 Y24.5720
G01 X85.7134 Y24.5536
G01 X85.7079 Y24.5167
G01 X85.7059 Y24.4981
G01 X85.7031 Y24.4608
G01 X85.7022 Y24.4235
G01 X85.7022 Y21.4235
G01 X85.7031 Y21.3862
G01 X85.7059 Y21.3489
G01 X85.7104 Y21.3118
G01 X85.7168 Y21.2750
G01 X85.7207 Y21.2567
G01 X85.7298 Y21.2205
G01 X85.7406 Y21.1847
G01 X85.7532 Y21.1495
G01 X85.7602 Y21.1322
G01 X85.7753 Y21.0980
G01 X85.7921 Y21.0646
G01 X85.8105 Y21.0321
G01 X85.8203 Y21.0162
G01 X85.8411 Y20.9851
G01 X85.8633 Y20.9551
G01 X85.8870 Y20.9262
G01 X85.9121 Y20.8986
G01 X85.9386 Y20.8721
G01 X85.9662 Y20.8470
G01 X85.9805 Y20.8350
G01 X86.0100 Y20.8120
G01 X86.0406 Y20.7905
G01 X86.0562 Y20.7803
G01 X86.0721 Y20.7705
G01 X86.1046 Y20.7521
G01 X86.1380 Y20.7353
G01 X86.1550 Y20.7275
G01 X86.1722 Y20.7202
G01 X86.2070 Y20.7067
G01 X86.2425 Y20.6950
G01 X86.2605 Y20.6898
G01 X86.2785 Y20.6850
G01 X86.3150 Y20.6768
G01 X86.3518 Y20.6704
G01 X86.3889 Y20.6659
G01 X86.4075 Y20.6643
G01 X86.4448 Y20.6624
G01 X91.4635 Y20.6622
G00 Z2.0000
G00 X91.4635 Y20.9601
G01 F60.00
G01 Z-0.2001
G01 F320.00
G01 X91.4749 Y20.9602
G01 X91.4976 Y20.9614
G01 X91.5202 Y20.9636
G01 X91.5427 Y20.9669
G01 X91.5650 Y20.9714
G01 X91.5871 Y20.9769
G01 X91.6089 Y20.9835
G01 X91.6303 Y20.9912
G01 X91.6408 Y20.9954
G01 X91.6616 Y21.0046
G01 X91.6819 Y21.0148
G01 X91.7017 Y21.0260
G01 X91.7209 Y21.0382
G01 X91.7395 Y21.0513
G01 X91.7575 Y21.0653
G01 X91.7747 Y21.0801
G01 X91.7912 Y21.0958
G01 X91.8068 Y21.1123
G01 X91.8217 Y21.1295
G01 X91.8357 Y21.1475
G01 X91.8488 Y21.1661
G01 X91.8610 Y21.1853
G01 X91.8667 Y21.1951
G01 X91.8774 Y21.2152
G01 X91.8871 Y21.2357
G01 X91.8958 Y21.2567
G01 X91.9035 Y21.2781
G01 X91.9101 Y21.2999
G01 X91.9156 Y21.3220
G01 X91.9201 Y21.3443
G01 X91.9234 Y21.3668
G01 X91.9256 Y21.3894
G01 X91.9263 Y21.4008
G01 X91.9269 Y21.4235
G01 X91.9269 Y24.4235
G01 X91.9263 Y24.4462
G01 X91.9247 Y24.4689
G01 X91.9219 Y24.4915
G01 X91.9180 Y24.5139
G01 X91.9156 Y24.5250
G01 X91.9101 Y24.5471
G01 X91.9069 Y24.5580
G01 X91.8998 Y24.5796
G01 X91.8916 Y24.6008
G01 X91.8871 Y24.6113
G01 X91.8774 Y24.6318
G01 X91.8667 Y24.6519
G01 X91.8550 Y24.6714
G01 X91.8488 Y24.6809
G01 X91.8357 Y24.6995
G01 X91.8217 Y24.7175
G01 X91.8068 Y24.7347
G01 X91.7912 Y24.7512
G01 X91.7747 Y24.7669
G01 X91.7575 Y24.7817
G01 X91.7486 Y24.7888
G01 X91.7303 Y24.8024
G01 X91.7114 Y24.8150
G01 X91.7017 Y24.8210
G01 X91.6919 Y24.8267
G01 X91.6718 Y24.8374
G01 X91.6616 Y24.8424
G01 X91.6408 Y24.8516
G01 X91.6196 Y24.8598
G01 X91.6089 Y24.8635
G01 X91.5871 Y24.8701
G01 X91.5761 Y24.8730
G01 X91.5539 Y24.8780
G01 X91.5427 Y24.8801
G01 X91.5315 Y24.8819
G01 X91.5089 Y24.8847
G01 X91.4976 Y24.8856
G01 X91.4749 Y24.8868
G01 X86.4521 Y24.8868
G01 X86.4294 Y24.8856
G01 X86.4068 Y24.8834
G01 X86.3955 Y24.8819
G01 X86.3731 Y24.8780
G01 X86.3509 Y24.8730
G01 X86.3399 Y24.8701
G01 X86.3181 Y24.8635
G01 X86.2967 Y24.8558
G01 X86.2757 Y24.8471
G01 X86.2654 Y24.8424
G01 X86.2451 Y24.8322
G01 X86.2351 Y24.8267
G01 X86.2156 Y24.8150
G01 X86.1967 Y24.8024
G01 X86.1784 Y24.7888
G01 X86.1608 Y24.7744
G01 X86.1523 Y24.7669
G01 X86.1358 Y24.7512
G01 X86.1202 Y24.7347
G01 X86.1126 Y24.7262
G01 X86.0982 Y24.7086
G01 X86.0846 Y24.6903
G01 X86.0720 Y24.6714
G01 X86.0660 Y24.6617
G01 X86.0603 Y24.6519
G01 X86.0496 Y24.6318
G01 X86.0399 Y24.6113
G01 X86.0354 Y24.6008
G01 X86.0272 Y24.5796
G01 X86.0235 Y24.5689
G01 X86.0169 Y24.5471
G01 X86.0140 Y24.5361
G01 X86.0090 Y24.5139
G01 X86.0069 Y24.5027
G01 X86.0036 Y24.4802
G01 X86.0023 Y24.4689
G01 X86.0007 Y24.4462
G01 X86.0002 Y24.4349
G01 X86.0002 Y21.4121
G01 X86.0014 Y21.3894
G01 X86.0036 Y21.3668
G01 X86.0069 Y21.3443
G01 X86.0114 Y21.3220
G01 X86.0140 Y21.3109
G01 X86.0169 Y21.2999
G01 X86.0235 Y21.2781
G01 X86.0312 Y21.2567
G01 X86.0399 Y21.2357
G01 X86.0496 Y21.2152
G01 X86.0548 Y21.2051
G01 X86.0660 Y21.1853
G01 X86.0720 Y21.1756
G01 X86.0846 Y21.1567
G01 X86.0982 Y21.1384
G01 X86.1126 Y21.1208
G01 X86.1279 Y21.1040
G01 X86.1358 Y21.0958
G01 X86.1523 Y21.0801
G01 X86.1695 Y21.0653
G01 X86.1875 Y21.0513
G01 X86.1967 Y21.0446
G01 X86.2156 Y21.0320
G01 X86.2253 Y21.0260
G01 X86.2351 Y21.0203
G01 X86.2552 Y21.0096
G01 X86.2757 Y20.9999
G01 X86.2862 Y20.9954
G01 X86.2967 Y20.9912
G01 X86.3181 Y20.9835
G01 X86.3399 Y20.9769
G01 X86.3509 Y20.9740
G01 X86.3731 Y20.9690
G01 X86.3843 Y20.9669
G01 X86.3955 Y20.9651
G01 X86.4181 Y20.9623
G01 X86.4294 Y20.9614
G01 X86.4521 Y20.9602
G01 X91.4635 Y20.9601
G00 Z2.0000
G00 X91.4635 Y21.2580
G01 F60.00
G01 Z-0.2001
G01 F320.00
G01 X91.4797 Y21.2588
G01 X91.4958 Y21.2612
G01 X91.5115 Y21.2651
G01 X91.5268 Y21.2706
G01 X91.5415 Y21.2775
G01 X91.5554 Y21.2859
G01 X91.5685 Y21.2956
G01 X91.5776 Y21.3036
G01 X91.5888 Y21.3154
G01 X91.5988 Y21.3282
G01 X91.6075 Y21.3419
G01 X91.6148 Y21.3564
G01 X91.6206 Y21.3716
G01 X91.6250 Y21.3872
G01 X91.6277 Y21.4032
G01 X91.6289 Y21.4194
G01 X91.6289 Y24.4276
G01 X91.6282 Y24.4397
G01 X91.6272 Y24.4478
G01 X91.6250 Y24.4598
G01 X91.6230 Y24.4676
G01 X91.6193 Y24.4792
G01 X91.6164 Y24.4868
G01 X91.6131 Y24.4943
G01 X91.6075 Y24.5051
G01 X91.6011 Y24.5154
G01 X91.5964 Y24.5221
G01 X91.5914 Y24.5285
G01 X91.5834 Y24.5376
G01 X91.5776 Y24.5434
G01 X91.5685 Y24.5514
G01 X91.5588 Y24.5588
G01 X91.5520 Y24.5633
G01 X91.5415 Y24.5695
G01 X91.5306 Y24.5748
G01 X91.5192 Y24.5793
G01 X91.5076 Y24.5830
G01 X91.4958 Y24.5858
G01 X91.4838 Y24.5877
G01 X91.4716 Y24.5888
G01 X91.4635 Y24.5890
G01 X86.4635 Y24.5890
G01 X86.4513 Y24.5885
G01 X86.4432 Y24.5877
G01 X86.4312 Y24.5858
G01 X86.4233 Y24.5840
G01 X86.4155 Y24.5819
G01 X86.4039 Y24.5779
G01 X86.3964 Y24.5748
G01 X86.3855 Y24.5695
G01 X86.3750 Y24.5633
G01 X86.3682 Y24.5588
G01 X86.3585 Y24.5514
G01 X86.3524 Y24.5461
G01 X86.3436 Y24.5376
G01 X86.3356 Y24.5285
G01 X86.3282 Y24.5188
G01 X86.3237 Y24.5120
G01 X86.3175 Y24.5015
G01 X86.3122 Y24.4906
G01 X86.3077 Y24.4792
G01 X86.3051 Y24.4715
G01 X86.3020 Y24.4598
G01 X86.2998 Y24.4478
G01 X86.2985 Y24.4357
G01 X86.2980 Y24.4235
G01 X86.2981 Y21.4194
G01 X86.2985 Y21.4113
G01 X86.2998 Y21.3992
G01 X86.3020 Y21.3872
G01 X86.3040 Y21.3794
G01 X86.3064 Y21.3716
G01 X86.3106 Y21.3602
G01 X86.3157 Y21.3491
G01 X86.3195 Y21.3419
G01 X86.3237 Y21.3350
G01 X86.3306 Y21.3249
G01 X86.3356 Y21.3185
G01 X86.3436 Y21.3094
G01 X86.3524 Y21.3009
G01 X86.3585 Y21.2956
G01 X86.3682 Y21.2882
G01 X86.3750 Y21.2837
G01 X86.3855 Y21.2775
G01 X86.3964 Y21.2722
G01 X86.4039 Y21.2691
G01 X86.4155 Y21.2651
G01 X86.4272 Y21.2620
G01 X86.4392 Y21.2598
G01 X86.4513 Y21.2585
G01 X86.4635 Y21.2580
G01 X91.4635 Y21.2580
G00 Z2.0000
G00 X106.7035 Y21.2580
G01 F60.00
G01 Z-0.2001
G01 F320.00
G01 X106.7197 Y21.2588
G01 X106.7358 Y21.2612
G01 X106.7515 Y21.2651
G01 X106.7668 Y21.2706
G01 X106.7815 Y21.2775
G01 X106.7954 Y21.2859
G01 X106.8085 Y21.2956
G01 X106.8176 Y21.3036
G01 X106.8288 Y21.3154
G01 X106.8388 Y21.3282
G01 X106.8475 Y21.3419
G01 X106.8548 Y21.3564
G01 X106.8606 Y21.3716
G01 X106.8650 Y21.3872
G01 X106.8677 Y21.4032
G01 X106.8689 Y21.4194
G01 X106.8689 Y24.4276
G01 X106.8682 Y24.4397
G01 X106.8672 Y24.4478
G01 X106.8650 Y24.4598
G01 X106.8630 Y24.4676
G01 X106.8593 Y24.4792
G01 X106.8564 Y24.4868
G01 X106.8531 Y24.4943
G01 X106.8475 Y24.5051
G01 X106.8411 Y24.5154
G01 X106.8364 Y24.5221
G01 X106.8314 Y24.5285
G01 X106.8234 Y24.5376
G01 X106.8176 Y24.5434
G01 X106.8085 Y24.5514
G01 X106.7988 Y24.5588
G01 X106.7920 Y24.5633
G01 X106.7815 Y24.5695
G01 X106.7706 Y24.5748
G01 X106.7592 Y24.5793
G01 X106.7476 Y24.5830
G01 X106.7358 Y24.5858
G01 X106.7238 Y24.5877
G01 X106.7116 Y24.5888
G01 X106.7035 Y24.5890
G01 X101.7035 Y24.5890
G01 X101.6913 Y24.5885
G01 X101.6832 Y24.5877
G01 X101.6712 Y24.5858
G01 X101.6633 Y24.5840
G01 X101.6555 Y24.5819
G01 X101.6439 Y24.5779
G01 X101.6364 Y24.5748
G01 X101.6255 Y24.5695
G01 X101.6150 Y24.5633
G01 X101.6082 Y24.5588
G01 X101.5985 Y24.5514
G01 X101.5924 Y24.5461
G01 X101.5836 Y24.5376
G01 X101.5756 Y24.5285
G01 X101.5682 Y24.5188
G01 X101.5637 Y24.5120
G01 X101.5575 Y24.5015
G01 X101.5522 Y24.4906
G01 X101.5477 Y24.4792
G01 X101.5451 Y24.4715
G01 X101.5420 Y24.4598
G01 X101.5398 Y24.4478
G01 X101.5385 Y24.4357
G01 X101.5380 Y24.4235
G01 X101.5381 Y21.4194
G01 X101.5385 Y21.4113
G01 X101.5398 Y21.3992
G01 X101.5420 Y21.3872
G01 X101.5440 Y21.3794
G01 X101.5464 Y21.3716
G01 X101.5506 Y21.3602
G01 X101.5557 Y21.3491
G01 X101.5595 Y21.3419
G01 X101.5637 Y21.3350
G01 X101.5706 Y21.3249
G01 X101.5756 Y21.3185
G01 X101.5836 Y21.3094
G01 X101.5924 Y21.3009
G01 X101.5985 Y21.2956
G01 X101.6082 Y21.2882
G01 X101.6150 Y21.2837
G01 X101.6255 Y21.2775
G01 X101.6364 Y21.2722
G01 X101.6439 Y21.2691
G01 X101.6555 Y21.2651
G01 X101.6672 Y21.2620
G01 X101.6792 Y21.2598
G01 X101.6913 Y21.2585
G01 X101.7035 Y21.2580
G01 X106.7035 Y21.2580
G00 Z2.0000
G00 X106.7035 Y20.9601
G01 F60.00
G01 Z-0.2001
G01 F320.00
G01 X106.7149 Y20.9602
G01 X106.7376 Y20.9614
G01 X106.7602 Y20.9636
G01 X106.7827 Y20.9669
G01 X106.8050 Y20.9714
G01 X106.8271 Y20.9769
G01 X106.8489 Y20.9835
G01 X106.8703 Y20.9912
G01 X106.8808 Y20.9954
G01 X106.9016 Y21.0046
G01 X106.9219 Y21.0148
G01 X106.9417 Y21.0260
G01 X106.9609 Y21.0382
G01 X106.9795 Y21.0513
G01 X106.9975 Y21.0653
G01 X107.0147 Y21.0801
G01 X107.0312 Y21.0958
G01 X107.0468 Y21.1123
G01 X107.0617 Y21.1295
G01 X107.0757 Y21.1475
G01 X107.0888 Y21.1661
G01 X107.1010 Y21.1853
G01 X107.1067 Y21.1951
G01 X107.1174 Y21.2152
G01 X107.1271 Y21.2357
G01 X107.1358 Y21.2567
G01 X107.1435 Y21.2781
G01 X107.1501 Y21.2999
G01 X107.1556 Y21.3220
G01 X107.1601 Y21.3443
G01 X107.1634 Y21.3668
G01 X107.1656 Y21.3894
G01 X107.1663 Y21.4008
G01 X107.1669 Y21.4235
G01 X107.1669 Y24.4235
G01 X107.1663 Y24.4462
G01 X107.1647 Y24.4689
G01 X107.1619 Y24.4915
G01 X107.1580 Y24.5139
G01 X107.1556 Y24.5250
G01 X107.1501 Y24.5471
G01 X107.1469 Y24.5580
G01 X107.1398 Y24.5796
G01 X107.1316 Y24.6008
G01 X107.1271 Y24.6113
G01 X107.1174 Y24.6318
G01 X107.1067 Y24.6519
G01 X107.0950 Y24.6714
G01 X107.0888 Y24.6809
G01 X107.0757 Y24.6995
G01 X107.0617 Y24.7175
G01 X107.0468 Y24.7347
G01 X107.0312 Y24.7512
G01 X107.0147 Y24.7669
G01 X106.9975 Y24.7817
G01 X106.9886 Y24.7888
G01 X106.9703 Y24.8024
G01 X106.9514 Y24.8150
G01 X106.9417 Y24.8210
G01 X106.9319 Y24.8267
G01 X106.9118 Y24.8374
G01 X106.9016 Y24.8424
G01 X106.8808 Y24.8516
G01 X106.8596 Y24.8598
G01 X106.8489 Y24.8635
G01 X106.8271 Y24.8701
G01 X106.8161 Y24.8730
G01 X106.7939 Y24.8780
G01 X106.7827 Y24.8801
G01 X106.7715 Y24.8819
G01 X106.7489 Y24.8847
G01 X106.7376 Y24.8856
G01 X106.7149 Y24.8868
G01 X101.6921 Y24.8868
G01 X101.6694 Y24.8856
G01 X101.6468 Y24.8834
G01 X101.6355 Y24.8819
G01 X101.6131 Y24.8780
G01 X101.5909 Y24.8730
G01 X101.5799 Y24.8701
G01 X101.5581 Y24.8635
G01 X101.5367 Y24.8558
G01 X101.5157 Y24.8471
G01 X101.5054 Y24.8424
G01 X101.4851 Y24.8322
G01 X101.4751 Y24.8267
G01 X101.4556 Y24.8150
G01 X101.4367 Y24.8024
G01 X101.4184 Y24.7888
G01 X101.4008 Y24.7744
G01 X101.3923 Y24.7669
G01 X101.3758 Y24.7512
G01 X101.3602 Y24.7347
G01 X101.3526 Y24.7262
G01 X101.3382 Y24.7086
G01 X101.3246 Y24.6903
G01 X101.3120 Y24.6714
G01 X101.3060 Y24.6617
G01 X101.3003 Y24.6519
G01 X101.2896 Y24.6318
G01 X101.2799 Y24.6113
G01 X101.2754 Y24.6008
G01 X101.2672 Y24.5796
G01 X101.2635 Y24.5689
G01 X101.2569 Y24.5471
G01 X101.2540 Y24.5361
G01 X101.2514 Y24.5250
G01 X101.2469 Y24.5027
G01 X101.2436 Y24.4802
G01 X101.2423 Y24.4689
G01 X101.2407 Y24.4462
G01 X101.2402 Y24.4349
G01 X101.2402 Y21.4121
G01 X101.2414 Y21.3894
G01 X101.2436 Y21.3668
G01 X101.2469 Y21.3443
G01 X101.2514 Y21.3220
G01 X101.2540 Y21.3109
G01 X101.2569 Y21.2999
G01 X101.2635 Y21.2781
G01 X101.2712 Y21.2567
G01 X101.2799 Y21.2357
G01 X101.2896 Y21.2152
G01 X101.2948 Y21.2051
G01 X101.3060 Y21.1853
G01 X101.3120 Y21.1756
G01 X101.3246 Y21.1567
G01 X101.3382 Y21.1384
G01 X101.3526 Y21.1208
G01 X101.3679 Y21.1040
G01 X101.3758 Y21.0958
G01 X101.3923 Y21.0801
G01 X101.4095 Y21.0653
G01 X101.4275 Y21.0513
G01 X101.4367 Y21.0446
G01 X101.4556 Y21.0320
G01 X101.4653 Y21.0260
G01 X101.4751 Y21.0203
G01 X101.4952 Y21.0096
G01 X101.5157 Y20.9999
G01 X101.5262 Y20.9954
G01 X101.5367 Y20.9912
G01 X101.5581 Y20.9835
G01 X101.5799 Y20.9769
G01 X101.5909 Y20.9740
G01 X101.6131 Y20.9690
G01 X101.6243 Y20.9669
G01 X101.6355 Y20.9651
G01 X101.6581 Y20.9623
G01 X101.6694 Y20.9614
G01 X101.6921 Y20.9602
G01 X106.7035 Y20.9601
G00 Z2.0000
G00 X106.7035 Y20.6622
G01 F60.00
G01 Z-0.2001
G01 F320.00
G01 X106.7408 Y20.6631
G01 X106.7781 Y20.6659
G01 X106.8152 Y20.6704
G01 X106.8520 Y20.6768
G01 X106.8703 Y20.6807
G01 X106.9065 Y20.6898
G01 X106.9423 Y20.7006
G01 X106.9775 Y20.7132
G01 X107.0120 Y20.7275
G01 X107.0458 Y20.7435
G01 X107.0787 Y20.7611
G01 X107.0949 Y20.7705
G01 X107.1264 Y20.7905
G01 X107.1570 Y20.8120
G01 X107.1865 Y20.8350
G01 X107.2148 Y20.8594
G01 X107.2418 Y20.8852
G01 X107.2676 Y20.9122
G01 X107.2920 Y20.9405
G01 X107.3150 Y20.9700
G01 X107.3259 Y20.9851
G01 X107.3467 Y21.0162
G01 X107.3659 Y21.0483
G01 X107.3835 Y21.0812
G01 X107.3995 Y21.1150
G01 X107.4138 Y21.1495
G01 X107.4264 Y21.1847
G01 X107.4320 Y21.2025
G01 X107.4420 Y21.2385
G01 X107.4502 Y21.2750
G01 X107.4566 Y21.3118
G01 X107.4611 Y21.3489
G01 X107.4639 Y21.3862
G01 X107.4648 Y21.4235
G01 X107.4648 Y24.4235
G01 X107.4639 Y24.4608
G01 X107.4627 Y24.4795
G01 X107.4591 Y24.5167
G01 X107.4536 Y24.5536
G01 X107.4502 Y24.5720
G01 X107.4420 Y24.6085
G01 X107.4320 Y24.6445
G01 X107.4203 Y24.6800
G01 X107.4068 Y24.7148
G01 X107.3917 Y24.7490
G01 X107.3749 Y24.7824
G01 X107.3565 Y24.8149
G01 X107.3467 Y24.8308
G01 X107.3259 Y24.8619
G01 X107.3037 Y24.8919
G01 X107.2800 Y24.9208
G01 X107.2549 Y24.9484
G01 X107.2284 Y24.9749
G01 X107.2008 Y25.0000
G01 X107.1865 Y25.0120
G01 X107.1570 Y25.0350
G01 X107.1264 Y25.0565
G01 X107.0949 Y25.0765
G01 X107.0787 Y25.0859
G01 X107.0458 Y25.1035
G01 X107.0290 Y25.1117
G01 X106.9948 Y25.1268
G01 X106.9775 Y25.1338
G01 X106.9423 Y25.1464
G01 X106.9065 Y25.1572
G01 X106.8885 Y25.1620
G01 X106.8520 Y25.1702
G01 X106.8336 Y25.1736
G01 X106.7967 Y25.1791
G01 X106.7781 Y25.1811
G01 X106.7408 Y25.1839
G01 X106.7222 Y25.1846
G01 X101.6848 Y25.1846
G01 X101.6475 Y25.1827
G01 X101.6289 Y25.1811
G01 X101.5918 Y25.1766
G01 X101.5550 Y25.1702
G01 X101.5185 Y25.1620
G01 X101.4825 Y25.1520
G01 X101.4470 Y25.1403
G01 X101.4295 Y25.1338
G01 X101.4122 Y25.1268
G01 X101.3780 Y25.1117
G01 X101.3446 Y25.0949
G01 X101.3121 Y25.0765
G01 X101.2806 Y25.0565
G01 X101.2500 Y25.0350
G01 X101.2351 Y25.0237
G01 X101.2062 Y25.0000
G01 X101.1786 Y24.9749
G01 X101.1521 Y24.9484
G01 X101.1394 Y24.9348
G01 X101.1150 Y24.9065
G01 X101.0920 Y24.8770
G01 X101.0811 Y24.8619
G01 X101.0603 Y24.8308
G01 X101.0411 Y24.7987
G01 X101.0321 Y24.7824
G01 X101.0153 Y24.7490
G01 X101.0075 Y24.7320
G01 X100.9932 Y24.6975
G01 X100.9867 Y24.6800
G01 X100.9750 Y24.6445
G01 X100.9698 Y24.6265
G01 X100.9650 Y24.6085
G01 X100.9568 Y24.5720
G01 X100.9534 Y24.5536
G01 X100.9479 Y24.5167
G01 X100.9459 Y24.4981
G01 X100.9431 Y24.4608
G01 X100.9422 Y24.4235
G01 X100.9422 Y21.4235
G01 X100.9431 Y21.3862
G01 X100.9459 Y21.3489
G01 X100.9504 Y21.3118
G01 X100.9568 Y21.2750
G01 X100.9607 Y21.2567
G01 X100.9698 Y21.2205
G01 X100.9806 Y21.1847
G01 X100.9932 Y21.1495
G01 X101.0002 Y21.1322
G01 X101.0153 Y21.0980
G01 X101.0321 Y21.0646
G01 X101.0505 Y21.0321
G01 X101.0603 Y21.0162
G01 X101.0811 Y20.9851
G01 X101.1033 Y20.9551
G01 X101.1270 Y20.9262
G01 X101.1521 Y20.8986
G01 X101.1786 Y20.8721
G01 X101.2062 Y20.8470
G01 X101.2205 Y20.8350
G01 X101.2500 Y20.8120
G01 X101.2651 Y20.8011
G01 X101.2962 Y20.7803
G01 X101.3283 Y20.7611
G01 X101.3446 Y20.7521
G01 X101.3780 Y20.7353
G01 X101.3950 Y20.7275
G01 X101.4122 Y20.7202
G01 X101.4470 Y20.7067
G01 X101.4825 Y20.6950
G01 X101.5005 Y20.6898
G01 X101.5185 Y20.6850
G01 X101.5550 Y20.6768
G01 X101.5918 Y20.6704
G01 X101.6289 Y20.6659
G01 X101.6475 Y20.6643
G01 X101.6848 Y20.6624
G01 X106.7035 Y20.6622
G00 Z2.0000
G00 X110.9920 Y14.6378
G01 F60.00
G01 Z-0.2001
G01 F320.00
G01 X110.9998 Y14.6275
G01 X111.0051 Y14.6214
G01 X111.0700 Y14.5500
G01 X111.1475 Y14.4798
G01 X111.2315 Y14.4175
G01 X111.3212 Y14.3638
G01 X111.4157 Y14.3191
G01 X111.5142 Y14.2838
G01 X111.6156 Y14.2584
G01 X111.7191 Y14.2431
G01 X111.8235 Y14.2380
G01 X111.9279 Y14.2431
G01 X112.0314 Y14.2584
G01 X112.1328 Y14.2838
G01 X112.2313 Y14.3191
G01 X112.3258 Y14.3638
G01 X112.4155 Y14.4175
G01 X112.4995 Y14.4798
G01 X112.5770 Y14.5500
G01 X112.6472 Y14.6275
G01 X112.7095 Y14.7115
G01 X112.7632 Y14.8012
G01 X112.8079 Y14.8957
G01 X112.8432 Y14.9942
G01 X112.8686 Y15.0956
G01 X112.8839 Y15.1991
G01 X112.8890 Y15.3035
G01 X112.8839 Y15.4079
G01 X112.8686 Y15.5114
G01 X112.8432 Y15.6128
G01 X112.8079 Y15.7113
G01 X112.7632 Y15.8058
G01 X112.7095 Y15.8955
G01 X112.6472 Y15.9795
G01 X112.5770 Y16.0570
G01 X112.4995 Y16.1272
G01 X112.4155 Y16.1895
G01 X112.3329 Y16.2392
G01 X112.3185 Y16.2469
G01 X112.2313 Y16.2879
G01 X112.1405 Y16.3206
G01 X112.1250 Y16.3253
G01 X112.0393 Y16.3468
G01 X112.0234 Y16.3500
G01 X111.9279 Y16.3639
G01 X111.8235 Y16.3690
G01 X111.7191 Y16.3639
G01 X111.6236 Y16.3500
G01 X111.6077 Y16.3468
G01 X111.5142 Y16.3232
G01 X111.4233 Y16.2909
G01 X111.4083 Y16.2846
G01 X111.3285 Y16.2469
G01 X111.3141 Y16.2392
G01 X111.2315 Y16.1895
G01 X111.1475 Y16.1272
G01 X111.0700 Y16.0570
G01 X111.0051 Y15.9856
G01 X110.9998 Y15.9795
G01 X110.9920 Y15.9692
G01 X22.9398 Y15.9692
G01 X22.7399 Y15.9791
G01 X22.5580 Y16.0060
G01 X22.3797 Y16.0507
G01 X22.2066 Y16.1127
G01 X22.0404 Y16.1913
G01 X21.8827 Y16.2858
G01 X21.7350 Y16.3953
G01 X21.5988 Y16.5188
G01 X21.4753 Y16.6550
G01 X21.3658 Y16.8027
G01 X21.2713 Y16.9604
G01 X21.1927 Y17.1266
G01 X21.1307 Y17.2997
G01 X21.0860 Y17.4780
G01 X21.0591 Y17.6599
G01 X21.0492 Y17.8598
G01 X21.0492 Y25.3380
G01 X21.8835 Y25.3380
G01 X21.8957 Y25.3385
G01 X21.9118 Y25.3404
G01 X21.9276 Y25.3440
G01 X21.9393 Y25.3477
G01 X21.9506 Y25.3522
G01 X21.9651 Y25.3595
G01 X21.9788 Y25.3682
G01 X21.9885 Y25.3756
G01 X22.0005 Y25.3865
G01 X22.0114 Y25.3985
G01 X22.0188 Y25.4082
G01 X22.0275 Y25.4219
G01 X22.0331 Y25.4327
G01 X22.0393 Y25.4478
G01 X22.0430 Y25.4594
G01 X22.0466 Y25.4752
G01 X22.0485 Y25.4913
G01 X22.0490 Y25.5035
G01 X22.0490 Y30.5035
G01 X22.0485 Y30.5157
G01 X22.0477 Y30.5238
G01 X22.0450 Y30.5398
G01 X22.0419 Y30.5515
G01 X22.0379 Y30.5631
G01 X22.0331 Y30.5743
G01 X22.0275 Y30.5851
G01 X22.0188 Y30.5988
G01 X22.0114 Y30.6085
G01 X22.0034 Y30.6176
G01 X21.9916 Y30.6288
G01 X21.9821 Y30.6364
G01 X21.9720 Y30.6433
G01 X21.9615 Y30.6495
G01 X21.9506 Y30.6548
G01 X21.9354 Y30.6606
G01 X21.9237 Y30.6640
G01 X21.9078 Y30.6672
G01 X21.8957 Y30.6685
G01 X21.8835 Y30.6690
G01 X21.0492 Y30.6690
G01 X21.0492 Y32.9580
G01 X21.8835 Y32.9580
G01 X21.8916 Y32.9582
G01 X21.9038 Y32.9593
G01 X21.9158 Y32.9612
G01 X21.9276 Y32.9640
G01 X21.9393 Y32.9677
G01 X21.9543 Y32.9739
G01 X21.9651 Y32.9795
G01 X21.9754 Y32.9859
G01 X21.9853 Y32.9930
G01 X21.9946 Y33.0009
G01 X22.0061 Y33.0124
G01 X22.0140 Y33.0217
G01 X22.0211 Y33.0316
G01 X22.0275 Y33.0419
G01 X22.0331 Y33.0527
G01 X22.0393 Y33.0678
G01 X22.0430 Y33.0794
G01 X22.0458 Y33.0912
G01 X22.0482 Y33.1073
G01 X22.0490 Y33.1235
G01 X22.0490 Y38.1235
G01 X22.0485 Y38.1357
G01 X22.0466 Y38.1518
G01 X22.0430 Y38.1676
G01 X22.0393 Y38.1792
G01 X22.0331 Y38.1943
G01 X22.0275 Y38.2051
G01 X22.0188 Y38.2188
G01 X22.0114 Y38.2285
G01 X22.0034 Y38.2376
G01 X21.9916 Y38.2488
G01 X21.9821 Y38.2564
G01 X21.9686 Y38.2654
G01 X21.9543 Y38.2731
G01 X21.9431 Y38.2779
G01 X21.9276 Y38.2830
G01 X21.9118 Y38.2866
G01 X21.8957 Y38.2885
G01 X21.8835 Y38.2890
G01 X18.8754 Y38.2888
G01 X18.8592 Y38.2872
G01 X18.8472 Y38.2850
G01 X18.8355 Y38.2819
G01 X18.8239 Y38.2779
G01 X18.8127 Y38.2731
G01 X18.8019 Y38.2675
G01 X18.7916 Y38.2611
G01 X18.7785 Y38.2514
G01 X18.7694 Y38.2434
G01 X18.7609 Y38.2346
G01 X18.7530 Y38.2253
G01 X18.7437 Y38.2120
G01 X18.7375 Y38.2015
G01 X18.7306 Y38.1868
G01 X18.7264 Y38.1754
G01 X18.7230 Y38.1637
G01 X18.7212 Y38.1558
G01 X18.7193 Y38.1438
G01 X18.7185 Y38.1357
G01 X18.7180 Y38.1235
G01 X18.7180 Y33.1235
G01 X18.7188 Y33.1073
G01 X18.7212 Y33.0912
G01 X18.7240 Y33.0794
G01 X18.7277 Y33.0678
G01 X18.7322 Y33.0564
G01 X18.7375 Y33.0455
G01 X18.7437 Y33.0350
G01 X18.7506 Y33.0249
G01 X18.7609 Y33.0124
G01 X18.7694 Y33.0036
G01 X18.7785 Y32.9956
G01 X18.7916 Y32.9859
G01 X18.8019 Y32.9795
G01 X18.8127 Y32.9739
G01 X18.8239 Y32.9691
G01 X18.8355 Y32.9651
G01 X18.8472 Y32.9620
G01 X18.8632 Y32.9593
G01 X18.8754 Y32.9582
G01 X18.8835 Y32.9580
G01 X19.7178 Y32.9580
G01 X19.7178 Y30.6690
G01 X18.8835 Y30.6690
G01 X18.8713 Y30.6685
G01 X18.8592 Y30.6672
G01 X18.8472 Y30.6650
G01 X18.8355 Y30.6619
G01 X18.8239 Y30.6579
G01 X18.8091 Y30.6513
G01 X18.7984 Y30.6454
G01 X18.7882 Y30.6388
G01 X18.7785 Y30.6314
G01 X18.7665 Y30.6205
G01 X18.7556 Y30.6085
G01 X18.7482 Y30.5988
G01 X18.7416 Y30.5886
G01 X18.7357 Y30.5779
G01 X18.7291 Y30.5631
G01 X18.7251 Y30.5515
G01 X18.7212 Y30.5358
G01 X18.7193 Y30.5238
G01 X18.7182 Y30.5116
G01 X18.7180 Y30.5035
G01 X18.7180 Y25.5035
G01 X18.7185 Y25.4913
G01 X18.7204 Y25.4752
G01 X18.7230 Y25.4633
G01 X18.7277 Y25.4478
G01 X18.7322 Y25.4364
G01 X18.7395 Y25.4219
G01 X18.7482 Y25.4082
G01 X18.7556 Y25.3985
G01 X18.7636 Y25.3894
G01 X18.7754 Y25.3782
G01 X18.7882 Y25.3682
G01 X18.7984 Y25.3616
G01 X18.8127 Y25.3539
G01 X18.8278 Y25.3477
G01 X18.8394 Y25.3440
G01 X18.8552 Y25.3404
G01 X18.8673 Y25.3388
G01 X18.8835 Y25.3380
G01 X19.7178 Y25.3380
G01 X19.7178 Y17.8435
G01 X19.7186 Y17.8108
G01 X19.7308 Y17.5619
G01 X19.7372 Y17.4969
G01 X19.7738 Y17.2503
G01 X19.7847 Y17.1941
G01 X19.8471 Y16.9444
G01 X19.8660 Y16.8819
G01 X19.9500 Y16.6472
G01 X19.9717 Y16.5943
G01 X20.0852 Y16.3543
G01 X20.1124 Y16.3039
G01 X20.2405 Y16.0901
G01 X20.2768 Y16.0358
G01 X20.4253 Y15.8356
G01 X20.4615 Y15.7912
G01 X20.6398 Y15.5945
G01 X20.6804 Y15.5542
G01 X20.8651 Y15.3868
G01 X20.9156 Y15.3453
G01 X21.1158 Y15.1968
G01 X21.1632 Y15.1649
G01 X21.3910 Y15.0284
G01 X21.4415 Y15.0016
G01 X21.6668 Y14.8950
G01 X21.7272 Y14.8700
G01 X21.9619 Y14.7860
G01 X22.0244 Y14.7671
G01 X22.2662 Y14.7065
G01 X22.3223 Y14.6952
G01 X22.5769 Y14.6572
G01 X22.6419 Y14.6508
G01 X22.8908 Y14.6386
G01 X22.9235 Y14.6378
G01 X110.9920 Y14.6378
G00 Z2.0000
G00 X110.8590 Y14.3399
G01 F60.00
G01 Z-0.2001
G01 F320.00
G01 X110.8759 Y14.3237
G01 X110.9413 Y14.2644
G01 X110.9585 Y14.2495
G01 X110.9765 Y14.2355
G01 X111.0474 Y14.1829
G01 X111.0660 Y14.1698
G01 X111.0852 Y14.1577
G01 X111.1610 Y14.1123
G01 X111.1808 Y14.1010
G01 X111.2011 Y14.0908
G01 X111.2809 Y14.0531
G01 X111.3017 Y14.0438
G01 X111.3230 Y14.0357
G01 X111.4061 Y14.0059
G01 X111.4277 Y13.9988
G01 X111.4496 Y13.9927
G01 X111.5353 Y13.9712
G01 X111.5575 Y13.9663
G01 X111.5799 Y13.9624
G01 X111.6673 Y13.9494
G01 X111.6899 Y13.9466
G01 X111.7125 Y13.9449
G01 X111.8008 Y13.9406
G01 X111.8235 Y13.9401
G01 X111.8462 Y13.9406
G01 X111.9345 Y13.9449
G01 X111.9571 Y13.9466
G01 X111.9797 Y13.9494
G01 X112.0671 Y13.9624
G01 X112.0895 Y13.9663
G01 X112.1117 Y13.9712
G01 X112.1974 Y13.9927
G01 X112.2193 Y13.9988
G01 X112.2409 Y14.0059
G01 X112.3240 Y14.0357
G01 X112.3453 Y14.0438
G01 X112.3661 Y14.0531
G01 X112.4459 Y14.0908
G01 X112.4662 Y14.1010
G01 X112.4860 Y14.1123
G01 X112.5618 Y14.1577
G01 X112.5810 Y14.1698
G01 X112.5996 Y14.1829
G01 X112.6705 Y14.2355
G01 X112.6885 Y14.2495
G01 X112.7057 Y14.2644
G01 X112.7711 Y14.3237
G01 X112.7876 Y14.3394
G01 X112.8033 Y14.3559
G01 X112.8626 Y14.4213
G01 X112.8775 Y14.4385
G01 X112.8915 Y14.4565
G01 X112.9441 Y14.5274
G01 X112.9572 Y14.5460
G01 X112.9693 Y14.5652
G01 X113.0147 Y14.6410
G01 X113.0260 Y14.6608
G01 X113.0362 Y14.6811
G01 X113.0739 Y14.7609
G01 X113.0832 Y14.7817
G01 X113.0913 Y14.8030
G01 X113.1211 Y14.8861
G01 X113.1282 Y14.9077
G01 X113.1343 Y14.9296
G01 X113.1558 Y15.0153
G01 X113.1607 Y15.0375
G01 X113.1646 Y15.0599
G01 X113.1776 Y15.1473
G01 X113.1804 Y15.1699
G01 X113.1821 Y15.1925
G01 X113.1864 Y15.2808
G01 X113.1869 Y15.3035
G01 X113.1864 Y15.3262
G01 X113.1821 Y15.4145
G01 X113.1804 Y15.4371
G01 X113.1776 Y15.4597
G01 X113.1646 Y15.5471
G01 X113.1607 Y15.5695
G01 X113.1558 Y15.5917
G01 X113.1343 Y15.6774
G01 X113.1282 Y15.6993
G01 X113.1211 Y15.7209
G01 X113.0913 Y15.8040
G01 X113.0832 Y15.8253
G01 X113.0739 Y15.8461
G01 X113.0362 Y15.9259
G01 X113.0260 Y15.9462
G01 X113.0147 Y15.9660
G01 X112.9693 Y16.0418
G01 X112.9572 Y16.0610
G01 X112.9441 Y16.0796
G01 X112.8915 Y16.1505
G01 X112.8775 Y16.1685
G01 X112.8626 Y16.1857
G01 X112.8033 Y16.2511
G01 X112.7876 Y16.2676
G01 X112.7711 Y16.2833
G01 X112.7057 Y16.3426
G01 X112.6885 Y16.3575
G01 X112.6705 Y16.3715
G01 X112.5996 Y16.4241
G01 X112.5810 Y16.4372
G01 X112.5618 Y16.4493
G01 X112.4860 Y16.4947
G01 X112.4662 Y16.5060
G01 X112.4459 Y16.5162
G01 X112.3661 Y16.5539
G01 X112.3453 Y16.5632
G01 X112.3240 Y16.5713
G01 X112.2409 Y16.6011
G01 X112.2193 Y16.6082
G01 X112.1974 Y16.6143
G01 X112.1117 Y16.6358
G01 X112.0895 Y16.6407
G01 X112.0671 Y16.6446
G01 X111.9797 Y16.6576
G01 X111.9571 Y16.6604
G01 X111.9345 Y16.6621
G01 X111.8462 Y16.6664
G01 X111.8235 Y16.6669
G01 X111.8008 Y16.6664
G01 X111.7125 Y16.6621
G01 X111.6899 Y16.6604
G01 X111.6673 Y16.6576
G01 X111.5799 Y16.6446
G01 X111.5575 Y16.6407
G01 X111.5353 Y16.6358
G01 X111.4496 Y16.6143
G01 X111.4277 Y16.6082
G01 X111.4061 Y16.6011
G01 X111.3230 Y16.5713
G01 X111.3017 Y16.5632
G01 X111.2809 Y16.5539
G01 X111.2011 Y16.5162
G01 X111.1808 Y16.5060
G01 X111.1610 Y16.4947
G01 X111.0852 Y16.4493
G01 X111.0660 Y16.4372
G01 X111.0474 Y16.4241
G01 X110.9765 Y16.3715
G01 X110.9585 Y16.3575
G01 X110.9413 Y16.3426
G01 X110.8759 Y16.2833
G01 X110.8590 Y16.2671
G01 X22.9472 Y16.2671
G01 X22.7691 Y16.2759
G01 X22.6162 Y16.2986
G01 X22.4662 Y16.3361
G01 X22.3207 Y16.3882
G01 X22.1810 Y16.4543
G01 X22.0484 Y16.5338
G01 X21.9242 Y16.6259
G01 X21.8097 Y16.7297
G01 X21.7059 Y16.8442
G01 X21.6138 Y16.9684
G01 X21.5343 Y17.1010
G01 X21.4682 Y17.2407
G01 X21.4161 Y17.3862
G01 X21.3786 Y17.5362
G01 X21.3559 Y17.6891
G01 X21.3471 Y17.8672
G01 X21.3471 Y25.0401
G01 X21.8835 Y25.0401
G01 X21.9062 Y25.0407
G01 X21.9289 Y25.0423
G01 X21.9515 Y25.0451
G01 X21.9739 Y25.0490
G01 X21.9961 Y25.0540
G01 X22.0180 Y25.0601
G01 X22.0396 Y25.0672
G01 X22.0608 Y25.0754
G01 X22.0816 Y25.0846
G01 X22.1019 Y25.0948
G01 X22.1119 Y25.1003
G01 X22.1314 Y25.1120
G01 X22.1409 Y25.1182
G01 X22.1503 Y25.1246
G01 X22.1686 Y25.1382
G01 X22.1862 Y25.1526
G01 X22.1947 Y25.1602
G01 X22.2030 Y25.1679
G01 X22.2191 Y25.1840
G01 X22.2344 Y25.2008
G01 X22.2488 Y25.2184
G01 X22.2557 Y25.2275
G01 X22.2688 Y25.2461
G01 X22.2750 Y25.2556
G01 X22.2867 Y25.2751
G01 X22.2922 Y25.2851
G01 X22.2974 Y25.2952
G01 X22.3071 Y25.3157
G01 X22.3158 Y25.3367
G01 X22.3198 Y25.3474
G01 X22.3269 Y25.3690
G01 X22.3330 Y25.3909
G01 X22.3356 Y25.4020
G01 X22.3401 Y25.4243
G01 X22.3419 Y25.4355
G01 X22.3434 Y25.4468
G01 X22.3456 Y25.4694
G01 X22.3468 Y25.4921
G01 X22.3469 Y25.5035
G01 X22.3469 Y30.5035
G01 X22.3468 Y30.5149
G01 X22.3456 Y30.5376
G01 X22.3434 Y30.5602
G01 X22.3419 Y30.5715
G01 X22.3401 Y30.5827
G01 X22.3356 Y30.6050
G01 X22.3301 Y30.6271
G01 X22.3235 Y30.6489
G01 X22.3198 Y30.6596
G01 X22.3116 Y30.6808
G01 X22.3071 Y30.6913
G01 X22.2974 Y30.7118
G01 X22.2867 Y30.7319
G01 X22.2810 Y30.7417
G01 X22.2688 Y30.7609
G01 X22.2624 Y30.7703
G01 X22.2557 Y30.7795
G01 X22.2417 Y30.7975
G01 X22.2269 Y30.8147
G01 X22.2191 Y30.8230
G01 X22.2030 Y30.8391
G01 X22.1947 Y30.8468
G01 X22.1775 Y30.8617
G01 X22.1686 Y30.8688
G01 X22.1503 Y30.8824
G01 X22.1314 Y30.8950
G01 X22.1119 Y30.9067
G01 X22.1019 Y30.9122
G01 X22.0918 Y30.9174
G01 X22.0713 Y30.9271
G01 X22.0503 Y30.9358
G01 X22.0289 Y30.9435
G01 X22.0071 Y30.9501
G01 X21.9961 Y30.9530
G01 X21.9739 Y30.9580
G01 X21.9627 Y30.9601
G01 X21.9402 Y30.9634
G01 X21.9176 Y30.9656
G01 X21.9062 Y30.9663
G01 X21.8835 Y30.9669
G01 X21.3471 Y30.9669
G01 X21.3471 Y32.6601
G01 X21.8835 Y32.6601
G01 X21.9062 Y32.6607
G01 X21.9289 Y32.6623
G01 X21.9515 Y32.6651
G01 X21.9627 Y32.6669
G01 X21.9850 Y32.6714
G01 X22.0071 Y32.6769
G01 X22.0180 Y32.6801
G01 X22.0289 Y32.6835
G01 X22.0503 Y32.6912
G01 X22.0608 Y32.6954
G01 X22.0816 Y32.7046
G01 X22.1019 Y32.7148
G01 X22.1217 Y32.7260
G01 X22.1314 Y32.7320
G01 X22.1503 Y32.7446
G01 X22.1686 Y32.7582
G01 X22.1775 Y32.7653
G01 X22.1862 Y32.7726
G01 X22.2030 Y32.7879
G01 X22.2112 Y32.7958
G01 X22.2269 Y32.8123
G01 X22.2417 Y32.8295
G01 X22.2488 Y32.8384
G01 X22.2624 Y32.8567
G01 X22.2750 Y32.8756
G01 X22.2867 Y32.8951
G01 X22.2922 Y32.9051
G01 X22.2974 Y32.9152
G01 X22.3071 Y32.9357
G01 X22.3158 Y32.9567
G01 X22.3198 Y32.9674
G01 X22.3269 Y32.9890
G01 X22.3330 Y33.0109
G01 X22.3356 Y33.0220
G01 X22.3401 Y33.0443
G01 X22.3434 Y33.0668
G01 X22.3456 Y33.0894
G01 X22.3463 Y33.1008
G01 X22.3469 Y33.1235
G01 X22.3469 Y38.1235
G01 X22.3463 Y38.1462
G01 X22.3447 Y38.1689
G01 X22.3419 Y38.1915
G01 X22.3401 Y38.2027
G01 X22.3380 Y38.2139
G01 X22.3330 Y38.2361
G01 X22.3269 Y38.2580
G01 X22.3198 Y38.2796
G01 X22.3116 Y38.3008
G01 X22.3071 Y38.3113
G01 X22.2974 Y38.3318
G01 X22.2867 Y38.3519
G01 X22.2750 Y38.3714
G01 X22.2624 Y38.3903
G01 X22.2557 Y38.3995
G01 X22.2417 Y38.4175
G01 X22.2269 Y38.4347
G01 X22.2191 Y38.4430
G01 X22.2030 Y38.4591
G01 X22.1862 Y38.4744
G01 X22.1686 Y38.4888
G01 X22.1503 Y38.5024
G01 X22.1314 Y38.5150
G01 X22.1217 Y38.5210
G01 X22.1019 Y38.5322
G01 X22.0816 Y38.5424
G01 X22.0608 Y38.5516
G01 X22.0396 Y38.5598
G01 X22.0180 Y38.5669
G01 X21.9961 Y38.5730
G01 X21.9739 Y38.5780
G01 X21.9627 Y38.5801
G01 X21.9402 Y38.5834
G01 X21.9289 Y38.5847
G01 X21.9062 Y38.5863
G01 X21.8835 Y38.5869
G01 X18.8835 Y38.5869
G01 X18.8608 Y38.5863
G01 X18.8381 Y38.5847
G01 X18.8155 Y38.5819
G01 X18.8043 Y38.5801
G01 X18.7931 Y38.5780
G01 X18.7709 Y38.5730
G01 X18.7599 Y38.5701
G01 X18.7381 Y38.5635
G01 X18.7167 Y38.5558
G01 X18.7062 Y38.5516
G01 X18.6854 Y38.5424
G01 X18.6752 Y38.5374
G01 X18.6551 Y38.5267
G01 X18.6356 Y38.5150
G01 X18.6167 Y38.5024
G01 X18.6075 Y38.4957
G01 X18.5895 Y38.4817
G01 X18.5808 Y38.4744
G01 X18.5723 Y38.4668
G01 X18.5558 Y38.4512
G01 X18.5401 Y38.4347
G01 X18.5326 Y38.4262
G01 X18.5182 Y38.4086
G01 X18.5113 Y38.3995
G01 X18.5046 Y38.3903
G01 X18.4920 Y38.3714
G01 X18.4803 Y38.3519
G01 X18.4696 Y38.3318
G01 X18.4646 Y38.3216
G01 X18.4554 Y38.3008
G01 X18.4512 Y38.2903
G01 X18.4435 Y38.2689
G01 X18.4369 Y38.2471
G01 X18.4340 Y38.2361
G01 X18.4290 Y38.2139
G01 X18.4251 Y38.1915
G01 X18.4236 Y38.1802
G01 X18.4214 Y38.1576
G01 X18.4207 Y38.1462
G01 X18.4201 Y38.1235
G01 X18.4201 Y33.1235
G01 X18.4202 Y33.1121
G01 X18.4214 Y33.0894
G01 X18.4236 Y33.0668
G01 X18.4269 Y33.0443
G01 X18.4290 Y33.0331
G01 X18.4340 Y33.0109
G01 X18.4401 Y32.9890
G01 X18.4472 Y32.9674
G01 X18.4554 Y32.9462
G01 X18.4599 Y32.9357
G01 X18.4696 Y32.9152
G01 X18.4803 Y32.8951
G01 X18.4860 Y32.8853
G01 X18.4920 Y32.8756
G01 X18.5046 Y32.8567
G01 X18.5182 Y32.8384
G01 X18.5253 Y32.8295
G01 X18.5401 Y32.8123
G01 X18.5558 Y32.7958
G01 X18.5640 Y32.7879
G01 X18.5723 Y32.7802
G01 X18.5895 Y32.7653
G01 X18.6075 Y32.7513
G01 X18.6261 Y32.7382
G01 X18.6356 Y32.7320
G01 X18.6551 Y32.7203
G01 X18.6752 Y32.7096
G01 X18.6854 Y32.7046
G01 X18.6957 Y32.6999
G01 X18.7167 Y32.6912
G01 X18.7274 Y32.6872
G01 X18.7490 Y32.6801
G01 X18.7709 Y32.6740
G01 X18.7931 Y32.6690
G01 X18.8155 Y32.6651
G01 X18.8268 Y32.6636
G01 X18.8381 Y32.6623
G01 X18.8608 Y32.6607
G01 X18.8835 Y32.6601
G01 X19.4199 Y32.6601
G01 X19.4199 Y30.9669
G01 X18.8835 Y30.9669
G01 X18.8608 Y30.9663
G01 X18.8494 Y30.9656
G01 X18.8268 Y30.9634
G01 X18.8043 Y30.9601
G01 X18.7820 Y30.9556
G01 X18.7599 Y30.9501
G01 X18.7490 Y30.9469
G01 X18.7381 Y30.9435
G01 X18.7167 Y30.9358
G01 X18.7062 Y30.9316
G01 X18.6854 Y30.9224
G01 X18.6651 Y30.9122
G01 X18.6551 Y30.9067
G01 X18.6356 Y30.8950
G01 X18.6261 Y30.8888
G01 X18.6075 Y30.8757
G01 X18.5984 Y30.8688
G01 X18.5808 Y30.8544
G01 X18.5640 Y30.8391
G01 X18.5479 Y30.8230
G01 X18.5401 Y30.8147
G01 X18.5326 Y30.8062
G01 X18.5182 Y30.7886
G01 X18.5046 Y30.7703
G01 X18.4982 Y30.7609
G01 X18.4920 Y30.7514
G01 X18.4803 Y30.7319
G01 X18.4696 Y30.7118
G01 X18.4646 Y30.7016
G01 X18.4554 Y30.6808
G01 X18.4472 Y30.6596
G01 X18.4435 Y30.6489
G01 X18.4369 Y30.6271
G01 X18.4340 Y30.6161
G01 X18.4290 Y30.5939
G01 X18.4251 Y30.5715
G01 X18.4236 Y30.5602
G01 X18.4214 Y30.5376
G01 X18.4202 Y30.5149
G01 X18.4201 Y30.5035
G01 X18.4201 Y25.5035
G01 X18.4202 Y25.4921
G01 X18.4214 Y25.4694
G01 X18.4236 Y25.4468
G01 X18.4251 Y25.4355
G01 X18.4269 Y25.4243
G01 X18.4314 Y25.4020
G01 X18.4369 Y25.3799
G01 X18.4435 Y25.3581
G01 X18.4472 Y25.3474
G01 X18.4554 Y25.3262
G01 X18.4599 Y25.3157
G01 X18.4696 Y25.2952
G01 X18.4748 Y25.2851
G01 X18.4860 Y25.2653
G01 X18.4920 Y25.2556
G01 X18.4982 Y25.2461
G01 X18.5113 Y25.2275
G01 X18.5182 Y25.2184
G01 X18.5326 Y25.2008
G01 X18.5479 Y25.1840
G01 X18.5640 Y25.1679
G01 X18.5723 Y25.1602
G01 X18.5895 Y25.1453
G01 X18.5984 Y25.1382
G01 X18.6167 Y25.1246
G01 X18.6261 Y25.1182
G01 X18.6356 Y25.1120
G01 X18.6551 Y25.1003
G01 X18.6752 Y25.0896
G01 X18.6854 Y25.0846
G01 X18.7062 Y25.0754
G01 X18.7274 Y25.0672
G01 X18.7490 Y25.0601
G01 X18.7709 Y25.0540
G01 X18.7931 Y25.0490
G01 X18.8155 Y25.0451
G01 X18.8381 Y25.0423
G01 X18.8608 Y25.0407
G01 X18.8835 Y25.0401
G01 X19.4199 Y25.0401
G01 X19.4199 Y17.8435
G01 X19.4210 Y17.7962
G01 X19.4332 Y17.5473
G01 X19.4349 Y17.5246
G01 X19.4397 Y17.4757
G01 X19.4425 Y17.4531
G01 X19.4791 Y17.2066
G01 X19.4830 Y17.1842
G01 X19.4926 Y17.1360
G01 X19.4975 Y17.1138
G01 X19.5581 Y16.8720
G01 X19.5642 Y16.8501
G01 X19.5784 Y16.8031
G01 X19.5856 Y16.7815
G01 X19.6695 Y16.5468
G01 X19.6777 Y16.5256
G01 X19.6965 Y16.4803
G01 X19.7057 Y16.4595
G01 X19.8123 Y16.2341
G01 X19.8225 Y16.2138
G01 X19.8457 Y16.1705
G01 X19.8569 Y16.1507
G01 X19.9850 Y15.9369
G01 X19.9972 Y15.9177
G01 X20.0245 Y15.8769
G01 X20.0376 Y15.8583
G01 X20.1860 Y15.6581
G01 X20.2000 Y15.6402
G01 X20.2385 Y15.5935
G01 X20.4134 Y15.4003
G01 X20.4291 Y15.3838
G01 X20.4638 Y15.3491
G01 X20.4803 Y15.3334
G01 X20.6650 Y15.1660
G01 X20.6822 Y15.1512
G01 X20.7202 Y15.1200
G01 X20.7381 Y15.1060
G01 X20.9383 Y14.9576
G01 X20.9569 Y14.9445
G01 X20.9977 Y14.9172
G01 X21.0169 Y14.9050
G01 X21.2307 Y14.7769
G01 X21.2505 Y14.7657
G01 X21.2938 Y14.7425
G01 X21.3141 Y14.7323
G01 X21.5395 Y14.6257
G01 X21.5603 Y14.6165
G01 X21.6056 Y14.5977
G01 X21.6268 Y14.5895
G01 X21.8723 Y14.5019
G01 X21.9301 Y14.4842
G01 X21.9520 Y14.4781
G01 X22.1938 Y14.4175
G01 X22.2160 Y14.4126
G01 X22.2642 Y14.4030
G01 X22.2866 Y14.3991
G01 X22.5331 Y14.3625
G01 X22.5557 Y14.3597
G01 X22.6046 Y14.3549
G01 X22.6273 Y14.3532
G01 X22.8762 Y14.3410
G01 X22.9235 Y14.3399
G01 X110.8590 Y14.3399
G00 Z2.0000
G00 X110.7432 Y14.0420
G01 F60.00
G01 Z-0.2001
G01 F320.00
G01 X110.7696 Y14.0193
G01 X110.7841 Y14.0076
G01 X110.8851 Y13.9327
G01 X110.9162 Y13.9120
G01 X110.9321 Y13.9021
G01 X111.0240 Y13.8473
G01 X111.0403 Y13.8383
G01 X111.0737 Y13.8215
G01 X111.1536 Y13.7838
G01 X111.1877 Y13.7686
G01 X111.2226 Y13.7552
G01 X111.3234 Y13.7193
G01 X111.3592 Y13.7085
G01 X111.3772 Y13.7037
G01 X111.4629 Y13.6823
G01 X111.4994 Y13.6741
G01 X111.5362 Y13.6677
G01 X111.6236 Y13.6547
G01 X111.6607 Y13.6502
G01 X111.6979 Y13.6474
G01 X111.7861 Y13.6431
G01 X111.8235 Y13.6422
G01 X111.8609 Y13.6431
G01 X111.9677 Y13.6486
G01 X112.0049 Y13.6522
G01 X112.0234 Y13.6547
G01 X112.1108 Y13.6677
G01 X112.1476 Y13.6741
G01 X112.1841 Y13.6823
G01 X112.2698 Y13.7037
G01 X112.3058 Y13.7137
G01 X112.3412 Y13.7254
G01 X112.4244 Y13.7552
G01 X112.4593 Y13.7686
G01 X112.4934 Y13.7838
G01 X112.5733 Y13.8215
G01 X112.6067 Y13.8383
G01 X112.6392 Y13.8567
G01 X112.7149 Y13.9021
G01 X112.7465 Y13.9221
G01 X112.7770 Y13.9437
G01 X112.8480 Y13.9963
G01 X112.8774 Y14.0193
G01 X112.9057 Y14.0437
G01 X112.9712 Y14.1030
G01 X112.9982 Y14.1288
G01 X113.0240 Y14.1558
G01 X113.0833 Y14.2213
G01 X113.1020 Y14.2427
G01 X113.1020 Y7.7126
G01 X113.0952 Y7.5657
G01 X113.0789 Y7.4488
G01 X113.0519 Y7.3340
G01 X113.0144 Y7.2222
G01 X112.9667 Y7.1142
G01 X112.9093 Y7.0112
G01 X112.8427 Y6.9139
G01 X112.7673 Y6.8231
G01 X112.6839 Y6.7397
G01 X112.5931 Y6.6643
G01 X112.5276 Y6.6194
G01 X112.4669 Y6.6479
G01 X112.4323 Y6.6622
G01 X112.3340 Y6.6976
G01 X112.2985 Y6.7094
G01 X112.2806 Y6.7146
G01 X112.1792 Y6.7402
G01 X112.1427 Y6.7484
G01 X112.1059 Y6.7548
G01 X112.0025 Y6.7699
G01 X111.9653 Y6.7736
G01 X111.8609 Y6.7789
G01 X111.8235 Y6.7798
G01 X111.7861 Y6.7789
G01 X111.6817 Y6.7736
G01 X111.6445 Y6.7699
G01 X111.5411 Y6.7548
G01 X111.5226 Y6.7518
G01 X111.4860 Y6.7445
G01 X111.3845 Y6.7193
G01 X111.3485 Y6.7094
G01 X111.3130 Y6.6976
G01 X111.2322 Y6.6687
G01 X111.1973 Y6.6553
G01 X111.1631 Y6.6401
G01 X111.0855 Y6.6034
G01 X111.0521 Y6.5866
G01 X111.0196 Y6.5682
G01 X110.9460 Y6.5240
G01 X110.9144 Y6.5041
G01 X110.8839 Y6.4825
G01 X110.8000 Y6.4201
G01 X110.7711 Y6.3964
G01 X110.6935 Y6.3263
G01 X110.6664 Y6.3006
G01 X110.6407 Y6.2735
G01 X110.5830 Y6.2099
G01 X110.5586 Y6.1816
G01 X110.5356 Y6.1521
G01 X110.4735 Y6.0680
G01 X110.4528 Y6.0369
G01 X110.4430 Y6.0210
G01 X110.3988 Y5.9474
G01 X110.3804 Y5.9149
G01 X110.3636 Y5.8815
G01 X110.3269 Y5.8039
G01 X110.3117 Y5.7697
G01 X110.2983 Y5.7348
G01 X110.2633 Y5.6363
G01 X110.2576 Y5.6185
G01 X110.2477 Y5.5825
G01 X110.2268 Y5.4992
G01 X110.2186 Y5.4627
G01 X110.2122 Y5.4259
G01 X110.1996 Y5.3410
G01 X110.1951 Y5.3039
G01 X110.1923 Y5.2666
G01 X110.1874 Y5.1622
G01 X110.1874 Y5.1248
G01 X110.1881 Y5.1061
G01 X110.1923 Y5.0204
G01 X110.1951 Y4.9831
G01 X110.1996 Y4.9460
G01 X110.2122 Y4.8611
G01 X110.2186 Y4.8243
G01 X110.2268 Y4.7878
G01 X110.2477 Y4.7045
G01 X110.2576 Y4.6685
G01 X110.2694 Y4.6330
G01 X110.3048 Y4.5347
G01 X110.3191 Y4.5001
G01 X110.3636 Y4.4055
G01 X110.3804 Y4.3721
G01 X110.3988 Y4.3396
G01 X110.4430 Y4.2660
G01 X110.4629 Y4.2344
G01 X110.4845 Y4.2039
G01 X110.5356 Y4.1349
G01 X110.5586 Y4.1054
G01 X110.5706 Y4.0911
G01 X110.6407 Y4.0135
G01 X110.6664 Y3.9864
G01 X110.6798 Y3.9734
G01 X110.7711 Y3.8906
G01 X110.7854 Y3.8786
G01 X110.8149 Y3.8556
G01 X110.8839 Y3.8045
G01 X110.9144 Y3.7829
G01 X110.9460 Y3.7630
G01 X111.0196 Y3.7188
G01 X111.0521 Y3.7004
G01 X111.0687 Y3.6918
G01 X111.1801 Y3.6391
G01 X111.1973 Y3.6317
G01 X111.2322 Y3.6183
G01 X111.3130 Y3.5894
G01 X111.3485 Y3.5776
G01 X111.3845 Y3.5677
G01 X111.4678 Y3.5468
G01 X111.4860 Y3.5425
G01 X111.5226 Y3.5352
G01 X111.6445 Y3.5171
G01 X111.6631 Y3.5151
G01 X111.7004 Y3.5123
G01 X111.7861 Y3.5081
G01 X111.8235 Y3.5072
G01 X111.8609 Y3.5081
G01 X111.9653 Y3.5134
G01 X112.0025 Y3.5171
G01 X112.0210 Y3.5196
G01 X112.1059 Y3.5322
G01 X112.1427 Y3.5386
G01 X112.1792 Y3.5468
G01 X112.2625 Y3.5677
G01 X112.2985 Y3.5776
G01 X112.3163 Y3.5833
G01 X112.4148 Y3.6183
G01 X112.4497 Y3.6317
G01 X112.4839 Y3.6469
G01 X112.5615 Y3.6836
G01 X112.5949 Y3.7004
G01 X112.6112 Y3.7094
G01 X112.7169 Y3.7728
G01 X112.7480 Y3.7935
G01 X112.7631 Y3.8045
G01 X112.8470 Y3.8669
G01 X112.8616 Y3.8786
G01 X112.8899 Y3.9030
G01 X112.9535 Y3.9607
G01 X112.9806 Y3.9864
G01 X113.0063 Y4.0135
G01 X113.0640 Y4.0771
G01 X113.0831 Y4.0991
G01 X113.0993 Y4.1046
G01 X113.1230 Y4.0771
G01 X113.1934 Y3.9998
G01 X113.2198 Y3.9734
G01 X113.2335 Y3.9607
G01 X113.2971 Y3.9030
G01 X113.3254 Y3.8786
G01 X113.3549 Y3.8556
G01 X113.4239 Y3.8045
G01 X113.4544 Y3.7829
G01 X113.4701 Y3.7728
G01 X113.5758 Y3.7094
G01 X113.5921 Y3.7004
G01 X113.6255 Y3.6836
G01 X113.7031 Y3.6469
G01 X113.7373 Y3.6317
G01 X113.7722 Y3.6183
G01 X113.8707 Y3.5833
G01 X113.8885 Y3.5776
G01 X113.9245 Y3.5677
G01 X114.0078 Y3.5468
G01 X114.0443 Y3.5386
G01 X114.0811 Y3.5322
G01 X114.1660 Y3.5196
G01 X114.2031 Y3.5151
G01 X114.2217 Y3.5134
G01 X114.3261 Y3.5081
G01 X114.3635 Y3.5072
G01 X114.4009 Y3.5081
G01 X114.5053 Y3.5134
G01 X114.5239 Y3.5151
G01 X114.5610 Y3.5196
G01 X114.6459 Y3.5322
G01 X114.6827 Y3.5386
G01 X114.7192 Y3.5468
G01 X114.8025 Y3.5677
G01 X114.8385 Y3.5776
G01 X114.8740 Y3.5894
G01 X114.9548 Y3.6183
G01 X114.9897 Y3.6317
G01 X115.0239 Y3.6469
G01 X115.1015 Y3.6836
G01 X115.1349 Y3.7004
G01 X115.1674 Y3.7188
G01 X115.2410 Y3.7630
G01 X115.2726 Y3.7829
G01 X115.3031 Y3.8045
G01 X115.3721 Y3.8556
G01 X115.4016 Y3.8786
G01 X115.4299 Y3.9030
G01 X115.4935 Y3.9607
G01 X115.5206 Y3.9864
G01 X115.5463 Y4.0135
G01 X115.6040 Y4.0771
G01 X115.6277 Y4.1046
G01 X115.6439 Y4.0991
G01 X115.6630 Y4.0771
G01 X115.7207 Y4.0135
G01 X115.7464 Y3.9864
G01 X115.7598 Y3.9734
G01 X115.8511 Y3.8906
G01 X115.8654 Y3.8786
G01 X115.8949 Y3.8556
G01 X115.9639 Y3.8045
G01 X115.9944 Y3.7829
G01 X116.0260 Y3.7630
G01 X116.0996 Y3.7188
G01 X116.1158 Y3.7094
G01 X116.1487 Y3.6918
G01 X116.2431 Y3.6469
G01 X116.2773 Y3.6317
G01 X116.2947 Y3.6248
G01 X116.4107 Y3.5833
G01 X116.4464 Y3.5724
G01 X116.4645 Y3.5677
G01 X116.5478 Y3.5468
G01 X116.5843 Y3.5386
G01 X116.6211 Y3.5322
G01 X116.7060 Y3.5196
G01 X116.7431 Y3.5151
G01 X116.7804 Y3.5123
G01 X116.8661 Y3.5081
G01 X116.9035 Y3.5072
G01 X116.9222 Y3.5074
G01 X117.0266 Y3.5123
G01 X117.0639 Y3.5151
G01 X117.1010 Y3.5196
G01 X117.1859 Y3.5322
G01 X117.2227 Y3.5386
G01 X117.2410 Y3.5425
G01 X117.3425 Y3.5677
G01 X117.3785 Y3.5776
G01 X117.3963 Y3.5833
G01 X117.5123 Y3.6248
G01 X117.5297 Y3.6317
G01 X117.5639 Y3.6469
G01 X117.6583 Y3.6918
G01 X117.6912 Y3.7094
G01 X117.7969 Y3.7728
G01 X117.8280 Y3.7935
G01 X117.8431 Y3.8045
G01 X117.9270 Y3.8669
G01 X117.9416 Y3.8786
G01 X117.9699 Y3.9030
G01 X118.0335 Y3.9607
G01 X118.0606 Y3.9864
G01 X118.0863 Y4.0135
G01 X118.1440 Y4.0771
G01 X118.1564 Y4.0911
G01 X118.1801 Y4.1200
G01 X118.2535 Y4.2190
G01 X118.2641 Y4.2344
G01 X118.2840 Y4.2660
G01 X118.3282 Y4.3396
G01 X118.3466 Y4.3721
G01 X118.3634 Y4.4055
G01 X118.4001 Y4.4831
G01 X118.4153 Y4.5173
G01 X118.4287 Y4.5522
G01 X118.4576 Y4.6330
G01 X118.4694 Y4.6685
G01 X118.4793 Y4.7045
G01 X118.5002 Y4.7878
G01 X118.5084 Y4.8243
G01 X118.5148 Y4.8611
G01 X118.5274 Y4.9460
G01 X118.5319 Y4.9831
G01 X118.5347 Y5.0204
G01 X118.5389 Y5.1061
G01 X118.5398 Y5.1435
G01 X118.5389 Y5.1809
G01 X118.5347 Y5.2666
G01 X118.5336 Y5.2853
G01 X118.5299 Y5.3225
G01 X118.5148 Y5.4259
G01 X118.5118 Y5.4444
G01 X118.5045 Y5.4810
G01 X118.4746 Y5.6006
G01 X118.4637 Y5.6363
G01 X118.4576 Y5.6540
G01 X118.4287 Y5.7348
G01 X118.4153 Y5.7697
G01 X118.4001 Y5.8039
G01 X118.3634 Y5.8815
G01 X118.3466 Y5.9149
G01 X118.3376 Y5.9312
G01 X118.2840 Y6.0210
G01 X118.2742 Y6.0369
G01 X118.2535 Y6.0680
G01 X118.1801 Y6.1670
G01 X118.1684 Y6.1816
G01 X118.1440 Y6.2099
G01 X118.0736 Y6.2872
G01 X118.0606 Y6.3006
G01 X118.0335 Y6.3263
G01 X117.9699 Y6.3840
G01 X117.9416 Y6.4084
G01 X117.9121 Y6.4314
G01 X117.8280 Y6.4935
G01 X117.7969 Y6.5142
G01 X117.7810 Y6.5240
G01 X117.7074 Y6.5682
G01 X117.6749 Y6.5866
G01 X117.6415 Y6.6034
G01 X117.5469 Y6.6479
G01 X117.5297 Y6.6553
G01 X117.4948 Y6.6687
G01 X117.4140 Y6.6976
G01 X117.3785 Y6.7094
G01 X117.3425 Y6.7193
G01 X117.2410 Y6.7445
G01 X117.2227 Y6.7484
G01 X117.1859 Y6.7548
G01 X117.0825 Y6.7699
G01 X117.0453 Y6.7736
G01 X116.9222 Y6.7796
G01 X116.9035 Y6.7798
G01 X116.8661 Y6.7789
G01 X116.7804 Y6.7747
G01 X116.7431 Y6.7719
G01 X116.7060 Y6.7674
G01 X116.6026 Y6.7518
G01 X116.5843 Y6.7484
G01 X116.5478 Y6.7402
G01 X116.4464 Y6.7146
G01 X116.4107 Y6.7037
G01 X116.2947 Y6.6622
G01 X116.2601 Y6.6479
G01 X116.1994 Y6.6194
G01 X116.1339 Y6.6643
G01 X116.0431 Y6.7397
G01 X115.9597 Y6.8231
G01 X115.8843 Y6.9139
G01 X115.8177 Y7.0112
G01 X115.7603 Y7.1142
G01 X115.7126 Y7.2222
G01 X115.6751 Y7.3340
G01 X115.6481 Y7.4488
G01 X115.6318 Y7.5657
G01 X115.6250 Y7.7126
G01 X115.6250 Y14.2427
G01 X115.6437 Y14.2213
G01 X115.7030 Y14.1558
G01 X115.7288 Y14.1288
G01 X115.7421 Y14.1157
G01 X115.8353 Y14.0313
G01 X115.8496 Y14.0193
G01 X115.8790 Y13.9963
G01 X115.9651 Y13.9327
G01 X115.9805 Y13.9221
G01 X116.0121 Y13.9021
G01 X116.0878 Y13.8567
G01 X116.1203 Y13.8383
G01 X116.1537 Y13.8215
G01 X116.2336 Y13.7838
G01 X116.2506 Y13.7760
G01 X116.2851 Y13.7617
G01 X116.4034 Y13.7193
G01 X116.4392 Y13.7085
G01 X116.4572 Y13.7037
G01 X116.5429 Y13.6823
G01 X116.5794 Y13.6741
G01 X116.6162 Y13.6677
G01 X116.7036 Y13.6547
G01 X116.7407 Y13.6502
G01 X116.7779 Y13.6474
G01 X116.8661 Y13.6431
G01 X116.9035 Y13.6422
G01 X116.9409 Y13.6431
G01 X117.0291 Y13.6474
G01 X117.0663 Y13.6502
G01 X117.1034 Y13.6547
G01 X117.1908 Y13.6677
G01 X117.2276 Y13.6741
G01 X117.2641 Y13.6823
G01 X117.3498 Y13.7037
G01 X117.3858 Y13.7137
G01 X117.4212 Y13.7254
G01 X117.5044 Y13.7552
G01 X117.5219 Y13.7617
G01 X117.5564 Y13.7760
G01 X117.6533 Y13.8215
G01 X117.6867 Y13.8383
G01 X117.7192 Y13.8567
G01 X117.8108 Y13.9120
G01 X117.8419 Y13.9327
G01 X117.9429 Y14.0076
G01 X117.9574 Y14.0193
G01 X117.9838 Y14.0420
G01 X155.0035 Y14.0420
G01 X155.0467 Y14.0428
G01 X155.3144 Y14.0557
G01 X155.3516 Y14.0585
G01 X155.4191 Y14.0653
G01 X155.7026 Y14.1074
G01 X155.7691 Y14.1204
G01 X155.8056 Y14.1286
G01 X156.0654 Y14.1939
G01 X156.1303 Y14.2133
G01 X156.1658 Y14.2251
G01 X156.4005 Y14.3090
G01 X156.4354 Y14.3225
G01 X156.4807 Y14.3413
G01 X156.5149 Y14.3564
G01 X156.7402 Y14.4630
G01 X156.7736 Y14.4798
G01 X156.8333 Y14.5119
G01 X157.0632 Y14.6495
G01 X157.0948 Y14.6695
G01 X157.1356 Y14.6968
