(G-CODE GENERATED BY FLATCAM v8.994 - www.flatcam.org - Version Date: 2020/11/7)

(Name: Diag - NC Drill Data - [Through Hole].drl_cnc)
(Type: G-code from Geometry)
(Units: MM)

(Created on Monday, 09 December 2024 at 09:44)

(This preprocessor is the default preprocessor used by FlatCAM.)
(It is made to work with MACH3 compatible motion controllers.)


(TOOLS DIAMETER: )
(Tool: 1 -> Dia: 0.8128)
(Tool: 2 -> Dia: 0.889)

(FEEDRATE Z: )
(Tool: 1 -> Feedrate: 300)
(Tool: 2 -> Feedrate: 300)

(FEEDRATE RAPIDS: )
(Tool: 1 -> Feedrate Rapids: 1500)
(Tool: 2 -> Feedrate Rapids: 1500)

(Z_CUT: )
(Tool: 1 -> Z_Cut: -2.0)
(Tool: 2 -> Z_Cut: -2.0)

(Tools Offset: )
(Tool: 1 -> Offset Z: 0.0)
(Tool: 2 -> Offset Z: 0.0)

(Z_MOVE: )
(Tool: 1 -> Z_Move: 2)
(Tool: 2 -> Z_Move: 2)

(Z Toolchange: 15 mm)
(X,Y Toolchange: 0.0000, 0.0000 mm)
(Z Start: None mm)
(Z End: 0.5 mm)
(X,Y End: None mm)
(Steps per circle: 64)
(Preprocessor Excellon: default)

(X range:    7.2390 ...  157.9880  mm)
(Y range:    4.6990 ...  109.7280  mm)

(Spindle Speed: 0 RPM)
G21
G90
G94

G01 F300.00
G00 Z15.0000

G01 F300.00
M03
G00 X116.9035 Y58.4835
G01 Z-2.0000
G01 Z0
G00 Z2.0000
G00 X114.3635 Y55.9435
G01 Z-2.0000
G01 Z0
G00 Z2.0000
G00 X111.8235 Y53.4035
G01 Z-2.0000
G01 Z0
G00 Z2.0000
G00 X109.2835 Y50.8635
G01 Z-2.0000
G01 Z0
G00 Z2.0000
G00 X111.8235 Y15.3035
G01 Z-2.0000
G01 Z0
G00 Z2.0000
G00 X116.9035 Y15.3035
G01 Z-2.0000
G01 Z0
G00 Z2.0000
G00 X127.0635 Y5.1435
G01 Z-2.0000
G01 Z0
G00 Z2.0000
G00 X124.5235 Y5.1435
G01 Z-2.0000
G01 Z0
G00 Z2.0000
G00 X121.9835 Y5.1435
G01 Z-2.0000
G01 Z0
G00 Z2.0000
G00 X116.9035 Y5.1435
G01 Z-2.0000
G01 Z0
G00 Z2.0000
G00 X114.3635 Y5.1435
G01 Z-2.0000
G01 Z0
G00 Z2.0000
G00 X111.8235 Y5.1435
G01 Z-2.0000
G01 Z0
G00 Z2.0000
G00 X106.7435 Y5.1435
G01 Z-2.0000
G01 Z0
G00 Z2.0000
G00 X104.2035 Y5.1435
G01 Z-2.0000
G01 Z0
G00 Z2.0000
G00 X101.6635 Y5.1435
G01 Z-2.0000
G01 Z0
G00 Z2.0000
G00 X48.3235 Y50.8635
G01 Z-2.0000
G01 Z0
G00 Z2.0000
G00 X43.2435 Y55.9435
G01 Z-2.0000
G01 Z0
G00 Z2.0000
G00 X40.7035 Y53.4035
G01 Z-2.0000
G01 Z0
G00 Z2.0000
G00 X38.1635 Y50.8635
G01 Z-2.0000
G01 Z0
G00 Z2.0000
G00 X35.6235 Y45.7835
G01 Z-2.0000
G01 Z0
G00 Z2.0000
G00 X10.2235 Y45.7835
G01 Z-2.0000
G01 Z0
G00 Z2.0000
G00 X12.7635 Y73.7235
G01 Z-2.0000
G01 Z0
G00 Z2.0000
G00 X7.6835 Y81.3435
G01 Z-2.0000
G01 Z0
G00 Z2.0000
G00 X7.6835 Y83.8835
G01 Z-2.0000
G01 Z0
G00 Z2.0000
G00 X7.6835 Y86.4235
G01 Z-2.0000
G01 Z0
G00 Z2.0000
G00 X7.6835 Y88.9635
G01 Z-2.0000
G01 Z0
G00 Z2.0000
G00 X7.6835 Y99.1235
G01 Z-2.0000
G01 Z0
G00 Z2.0000
G00 X7.6835 Y101.6635
G01 Z-2.0000
G01 Z0
G00 Z2.0000
G00 X7.6835 Y104.2035
G01 Z-2.0000
G01 Z0
G00 Z2.0000
G00 X7.6835 Y106.7435
G01 Z-2.0000
G01 Z0
G00 Z2.0000
G00 X15.3035 Y106.7435
G01 Z-2.0000
G01 Z0
G00 Z2.0000
G00 X15.3035 Y104.2035
G01 Z-2.0000
G01 Z0
G00 Z2.0000
G00 X15.3035 Y101.6635
G01 Z-2.0000
G01 Z0
G00 Z2.0000
G00 X15.3035 Y99.1235
G01 Z-2.0000
G01 Z0
G00 Z2.0000
G00 X15.3035 Y96.5835
G01 Z-2.0000
G01 Z0
G00 Z2.0000
G00 X15.3035 Y88.9635
G01 Z-2.0000
G01 Z0
G00 Z2.0000
G00 X15.3035 Y86.4235
G01 Z-2.0000
G01 Z0
G00 Z2.0000
G00 X15.3035 Y83.8835
G01 Z-2.0000
G01 Z0
G00 Z2.0000
G00 X15.3035 Y81.3435
G01 Z-2.0000
G01 Z0
G00 Z2.0000
G00 X15.3035 Y78.8035
G01 Z-2.0000
G01 Z0
G00 Z2.0000
G00 X38.1635 Y73.7235
G01 Z-2.0000
G01 Z0
G00 Z2.0000
G00 X45.7835 Y68.6435
G01 Z-2.0000
G01 Z0
G00 Z2.0000
G00 X45.7835 Y66.1035
G01 Z-2.0000
G01 Z0
G00 Z2.0000
G00 X45.7835 Y63.5635
G01 Z-2.0000
G01 Z0
G00 Z2.0000
G00 X45.7835 Y61.0235
G01 Z-2.0000
G01 Z0
G00 Z2.0000
G00 X45.7835 Y58.4835
G01 Z-2.0000
G01 Z0
G00 Z2.0000
G00 X50.8635 Y53.4035
G01 Z-2.0000
G01 Z0
G00 Z2.0000
G00 X53.4035 Y55.9435
G01 Z-2.0000
G01 Z0
G00 Z2.0000
G00 X55.9435 Y58.4835
G01 Z-2.0000
G01 Z0
G00 Z2.0000
G00 X58.4835 Y61.0235
G01 Z-2.0000
G01 Z0
G00 Z2.0000
G00 X58.4835 Y63.5635
G01 Z-2.0000
G01 Z0
G00 Z2.0000
G00 X58.4835 Y66.1035
G01 Z-2.0000
G01 Z0
G00 Z2.0000
G00 X58.4835 Y68.6435
G01 Z-2.0000
G01 Z0
G00 Z2.0000
G00 X99.1235 Y50.8635
G01 Z-2.0000
G01 Z0
G00 Z2.0000
G00 X101.6635 Y53.4035
G01 Z-2.0000
G01 Z0
G00 Z2.0000
G00 X104.2035 Y55.9435
G01 Z-2.0000
G01 Z0
G00 Z2.0000
G00 X106.7435 Y58.4835
G01 Z-2.0000
G01 Z0
G00 Z2.0000
G00 X134.6835 Y78.8035
G01 Z-2.0000
G01 Z0
G00 Z2.0000
G00 X134.6835 Y91.5035
G01 Z-2.0000
G01 Z0
G00 Z2.0000
G00 X134.6835 Y96.5835
G01 Z-2.0000
G01 Z0
G00 Z2.0000
G00 X134.6835 Y109.2835
G01 Z-2.0000
G01 Z0
G00 Z2.0000
G00 X157.5435 Y106.7435
G01 Z-2.0000
G01 Z0
G00 Z2.0000
G00 X157.5435 Y104.2035
G01 Z-2.0000
G01 Z0
G00 Z2.0000
G00 X157.5435 Y101.6635
G01 Z-2.0000
G01 Z0
G00 Z2.0000
G00 X157.5435 Y99.1235
G01 Z-2.0000
G01 Z0
G00 Z2.0000
G00 X157.5435 Y86.4235
G01 Z-2.0000
G01 Z0
G00 Z2.0000
G00 X157.5435 Y83.8835
G01 Z-2.0000
G01 Z0
G00 Z2.0000
G00 X157.5435 Y81.3435
G01 Z-2.0000
G01 Z0
G00 Z2.0000
G00 X157.5435 Y78.8035
G01 Z-2.0000
G01 Z0
G00 Z2.0000
G00 X157.5435 Y71.1835
G01 Z-2.0000
G01 Z0
G00 Z2.0000
G00 X157.5435 Y68.6435
G01 Z-2.0000
G01 Z0
G00 Z2.0000
M05
G00 Z0.50


