(G-CODE GENERATED BY FLATCAM v8.994 - www.flatcam.org - Version Date: 2020/11/7)

(Name: Diag - Outline.gbr_iso_combined_cnc)
(Type: G-code from Geometry)
(Units: MM)

(Created on Monday, 09 December 2024 at 09:44)

(This preprocessor is the default preprocessor used by FlatCAM.)
(It is made to work with MACH3 compatible motion controllers.)

(TOOL DIAMETER: 1.5 mm)
(Feedrate_XY: 120.0 mm/min)
(Feedrate_Z: 60.0 mm/min)
(Feedrate rapids 1500.0 mm/min)

(Z_Cut: -2.4 mm)
(Z_Move: 2.0 mm)
(Z Start: None mm)
(Z End: 15.0 mm)
(X,Y End: None mm)
(Steps per circle: 64)
(Preprocessor Geometry: default)

(X range:   -0.7500 ...  163.4370  mm)
(Y range:   -0.7500 ...  115.1770  mm)

(Spindle Speed: 0.0 RPM)
G21
G90
G94

G01 F120.00
G00 Z15.0000

M03
G01 F120.00
G00 X0.0267 Y-0.7491
G01 F60.00
G01 Z-2.4000
G01 F120.00
G01 X0.0635 Y-0.7500
G01 X162.6235 Y-0.7500
G01 X162.6603 Y-0.7491
G01 X162.6849 Y-0.7477
G01 X162.7215 Y-0.7441
G01 X162.7459 Y-0.7407
G01 X162.7822 Y-0.7344
G01 X162.8002 Y-0.7306
G01 X162.8242 Y-0.7248
G01 X162.8597 Y-0.7150
G01 X162.8946 Y-0.7035
G01 X162.9177 Y-0.6949
G01 X162.9517 Y-0.6809
G01 X162.9741 Y-0.6705
G01 X163.0070 Y-0.6540
G01 X163.0390 Y-0.6358
G01 X163.0600 Y-0.6230
G01 X163.0907 Y-0.6025
G01 X163.1252 Y-0.5769
G01 X163.1537 Y-0.5535
G01 X163.1675 Y-0.5413
G01 X163.1856 Y-0.5246
G01 X163.1988 Y-0.5118
G01 X163.2116 Y-0.4986
G01 X163.2283 Y-0.4805
G01 X163.2524 Y-0.4526
G01 X163.2639 Y-0.4382
G01 X163.2895 Y-0.4037
G01 X163.2999 Y-0.3885
G01 X163.3196 Y-0.3574
G01 X163.3321 Y-0.3361
G01 X163.3410 Y-0.3200
G01 X163.3494 Y-0.3037
G01 X163.3602 Y-0.2815
G01 X163.3679 Y-0.2647
G01 X163.3819 Y-0.2307
G01 X163.3905 Y-0.2076
G01 X163.4020 Y-0.1727
G01 X163.4071 Y-0.1550
G01 X163.4133 Y-0.1311
G01 X163.4214 Y-0.0952
G01 X163.4248 Y-0.0771
G01 X163.4311 Y-0.0345
G01 X163.4331 Y-0.0162
G01 X163.4358 Y0.0205
G01 X163.4368 Y0.0451
G01 X163.4370 Y0.0635
G01 X163.4370 Y114.3635
G01 X163.4361 Y114.4003
G01 X163.4347 Y114.4249
G01 X163.4311 Y114.4615
G01 X163.4277 Y114.4859
G01 X163.4214 Y114.5222
G01 X163.4176 Y114.5402
G01 X163.4118 Y114.5642
G01 X163.4020 Y114.5997
G01 X163.3905 Y114.6346
G01 X163.3819 Y114.6577
G01 X163.3679 Y114.6917
G01 X163.3575 Y114.7141
G01 X163.3410 Y114.7470
G01 X163.3228 Y114.7790
G01 X163.3100 Y114.8000
G01 X163.2895 Y114.8307
G01 X163.2639 Y114.8652
G01 X163.2405 Y114.8937
G01 X163.2283 Y114.9075
G01 X163.2116 Y114.9256
G01 X163.1988 Y114.9388
G01 X163.1856 Y114.9516
G01 X163.1675 Y114.9683
G01 X163.1396 Y114.9924
G01 X163.1252 Y115.0039
G01 X163.0907 Y115.0295
G01 X163.0600 Y115.0500
G01 X163.0444 Y115.0596
G01 X163.0231 Y115.0721
G01 X163.0070 Y115.0810
G01 X162.9907 Y115.0894
G01 X162.9685 Y115.1002
G01 X162.9348 Y115.1151
G01 X162.9177 Y115.1219
G01 X162.8946 Y115.1305
G01 X162.8597 Y115.1420
G01 X162.8420 Y115.1471
G01 X162.8181 Y115.1533
G01 X162.7822 Y115.1614
G01 X162.7641 Y115.1648
G01 X162.7215 Y115.1711
G01 X162.6849 Y115.1747
G01 X162.6665 Y115.1758
G01 X162.6419 Y115.1768
G01 X162.6235 Y115.1770
G01 X0.0635 Y115.1770
G01 X0.0267 Y115.1761
G01 X0.0021 Y115.1747
G01 X-0.0345 Y115.1711
G01 X-0.0589 Y115.1677
G01 X-0.0771 Y115.1648
G01 X-0.1132 Y115.1576
G01 X-0.1372 Y115.1518
G01 X-0.1727 Y115.1420
G01 X-0.2076 Y115.1305
G01 X-0.2307 Y115.1219
G01 X-0.2647 Y115.1079
G01 X-0.2871 Y115.0975
G01 X-0.3200 Y115.0810
G01 X-0.3520 Y115.0628
G01 X-0.3730 Y115.0500
G01 X-0.4037 Y115.0295
G01 X-0.4382 Y115.0039
G01 X-0.4667 Y114.9805
G01 X-0.4805 Y114.9683
G01 X-0.4986 Y114.9516
G01 X-0.5118 Y114.9388
G01 X-0.5246 Y114.9256
G01 X-0.5413 Y114.9075
G01 X-0.5654 Y114.8796
G01 X-0.5769 Y114.8652
G01 X-0.6025 Y114.8307
G01 X-0.6230 Y114.8000
G01 X-0.6326 Y114.7844
G01 X-0.6451 Y114.7631
G01 X-0.6540 Y114.7470
G01 X-0.6624 Y114.7307
G01 X-0.6732 Y114.7085
G01 X-0.6881 Y114.6748
G01 X-0.6949 Y114.6577
G01 X-0.7035 Y114.6346
G01 X-0.7150 Y114.5997
G01 X-0.7201 Y114.5820
G01 X-0.7263 Y114.5581
G01 X-0.7344 Y114.5222
G01 X-0.7378 Y114.5041
G01 X-0.7441 Y114.4615
G01 X-0.7477 Y114.4249
G01 X-0.7488 Y114.4065
G01 X-0.7498 Y114.3819
G01 X-0.7500 Y114.3635
G01 X-0.7500 Y0.0635
G01 X-0.7491 Y0.0267
G01 X-0.7477 Y0.0021
G01 X-0.7461 Y-0.0162
G01 X-0.7441 Y-0.0345
G01 X-0.7407 Y-0.0589
G01 X-0.7344 Y-0.0952
G01 X-0.7263 Y-0.1311
G01 X-0.7201 Y-0.1550
G01 X-0.7150 Y-0.1727
G01 X-0.7035 Y-0.2076
G01 X-0.6949 Y-0.2307
G01 X-0.6881 Y-0.2478
G01 X-0.6732 Y-0.2815
G01 X-0.6624 Y-0.3037
G01 X-0.6540 Y-0.3200
G01 X-0.6451 Y-0.3361
G01 X-0.6326 Y-0.3574
G01 X-0.6129 Y-0.3885
G01 X-0.5917 Y-0.4186
G01 X-0.5769 Y-0.4382
G01 X-0.5654 Y-0.4526
G01 X-0.5413 Y-0.4805
G01 X-0.5246 Y-0.4986
G01 X-0.4986 Y-0.5246
G01 X-0.4667 Y-0.5535
G01 X-0.4382 Y-0.5769
G01 X-0.4037 Y-0.6025
G01 X-0.3730 Y-0.6230
G01 X-0.3361 Y-0.6451
G01 X-0.3037 Y-0.6624
G01 X-0.2647 Y-0.6809
G01 X-0.2307 Y-0.6949
G01 X-0.1902 Y-0.7094
G01 X-0.1550 Y-0.7201
G01 X-0.1132 Y-0.7306
G01 X-0.0771 Y-0.7378
G01 X-0.0345 Y-0.7441
G01 X0.0021 Y-0.7477
G01 X0.0267 Y-0.7491
G00 Z2.0000
G00 X7.1722 Y7.0362
G01 F60.00
G01 Z-2.4000
G01 F120.00
G01 X7.2296 Y6.9588
G01 X7.2791 Y6.8762
G01 X7.3203 Y6.7891
G01 X7.3528 Y6.6984
G01 X7.3762 Y6.6050
G01 X7.3903 Y6.5097
G01 X7.3950 Y6.4135
G01 X7.3903 Y6.3173
G01 X7.3762 Y6.2220
G01 X7.3528 Y6.1286
G01 X7.3203 Y6.0379
G01 X7.2791 Y5.9508
G01 X7.2296 Y5.8682
G01 X7.1722 Y5.7908
G01 X7.1076 Y5.7194
G01 X7.0362 Y5.6548
G01 X6.9588 Y5.5974
G01 X6.8762 Y5.5479
G01 X6.7891 Y5.5067
G01 X6.6984 Y5.4742
G01 X6.6050 Y5.4508
G01 X6.5097 Y5.4367
G01 X6.4135 Y5.4320
G01 X6.3173 Y5.4367
G01 X6.2220 Y5.4508
G01 X6.1286 Y5.4742
G01 X6.0379 Y5.5067
G01 X5.9508 Y5.5479
G01 X5.8682 Y5.5974
G01 X5.7908 Y5.6548
G01 X5.7194 Y5.7194
G01 X5.6548 Y5.7908
G01 X5.5974 Y5.8682
G01 X5.5479 Y5.9508
G01 X5.5067 Y6.0379
G01 X5.4742 Y6.1286
G01 X5.4508 Y6.2220
G01 X5.4367 Y6.3173
G01 X5.4320 Y6.4135
G01 X5.4367 Y6.5097
G01 X5.4508 Y6.6050
G01 X5.4742 Y6.6984
G01 X5.5067 Y6.7891
G01 X5.5479 Y6.8762
G01 X5.5974 Y6.9588
G01 X5.6548 Y7.0362
G01 X5.7194 Y7.1076
G01 X5.7908 Y7.1722
G01 X5.8682 Y7.2296
G01 X5.9508 Y7.2791
G01 X6.0379 Y7.3203
G01 X6.1286 Y7.3528
G01 X6.2220 Y7.3762
G01 X6.3173 Y7.3903
G01 X6.4135 Y7.3950
G01 X6.5097 Y7.3903
G01 X6.6050 Y7.3762
G01 X6.6984 Y7.3528
G01 X6.7891 Y7.3203
G01 X6.8762 Y7.2791
G01 X6.9588 Y7.2296
G01 X7.0362 Y7.1722
G01 X7.1076 Y7.1076
G01 X7.1722 Y7.0362
G00 Z2.0000
G00 X11.9500 Y29.7300
G01 F60.00
G01 Z-2.4000
G01 F120.00
G01 X11.9500 Y26.2770
G01 X11.0370 Y26.2770
G01 X11.0370 Y29.7300
G01 X11.9500 Y29.7300
G00 Z2.0000
G00 X11.9500 Y37.3500
G01 F60.00
G01 Z-2.4000
G01 F120.00
G01 X11.9500 Y33.8970
G01 X11.0370 Y33.8970
G01 X11.0370 Y37.3500
G01 X11.9500 Y37.3500
G00 Z2.0000
G00 X22.1100 Y37.3500
G01 F60.00
G01 Z-2.4000
G01 F120.00
G01 X22.1100 Y33.8970
G01 X21.1970 Y33.8970
G01 X21.1970 Y37.3500
G01 X22.1100 Y37.3500
G00 Z2.0000
G00 X27.1900 Y37.3500
G01 F60.00
G01 Z-2.4000
G01 F120.00
G01 X27.1900 Y33.8970
G01 X26.2770 Y33.8970
G01 X26.2770 Y37.3500
G01 X27.1900 Y37.3500
G00 Z2.0000
G00 X27.1900 Y29.7300
G01 F60.00
G01 Z-2.4000
G01 F120.00
G01 X27.1900 Y26.2770
G01 X26.2770 Y26.2770
G01 X26.2770 Y29.7300
G01 X27.1900 Y29.7300
G00 Z2.0000
G00 X22.1100 Y29.7300
G01 F60.00
G01 Z-2.4000
G01 F120.00
G01 X22.1100 Y26.2770
G01 X21.1970 Y26.2770
G01 X21.1970 Y29.7300
G01 X22.1100 Y29.7300
G00 Z2.0000
G00 X44.9700 Y28.8170
G01 F60.00
G01 Z-2.4000
G01 F120.00
G01 X41.5170 Y28.8170
G01 X41.5170 Y29.7300
G01 X44.9700 Y29.7300
G01 X44.9700 Y28.8170
G00 Z2.0000
G00 X44.9700 Y23.7370
G01 F60.00
G01 Z-2.4000
G01 F120.00
G01 X41.5170 Y23.7370
G01 X41.5170 Y24.6500
G01 X44.9700 Y24.6500
G01 X44.9700 Y23.7370
G00 Z2.0000
G00 X60.2100 Y23.7370
G01 F60.00
G01 Z-2.4000
G01 F120.00
G01 X56.7570 Y23.7370
G01 X56.7570 Y24.6500
G01 X60.2100 Y24.6500
G01 X60.2100 Y23.7370
G00 Z2.0000
G00 X60.2100 Y28.8170
G01 F60.00
G01 Z-2.4000
G01 F120.00
G01 X56.7570 Y28.8170
G01 X56.7570 Y29.7300
G01 X60.2100 Y29.7300
G01 X60.2100 Y28.8170
G00 Z2.0000
G00 X60.2100 Y38.9770
G01 F60.00
G01 Z-2.4000
G01 F120.00
G01 X56.7570 Y38.9770
G01 X56.7570 Y39.8900
G01 X60.2100 Y39.8900
G01 X60.2100 Y38.9770
G00 Z2.0000
G00 X44.9700 Y38.9770
G01 F60.00
G01 Z-2.4000
G01 F120.00
G01 X41.5170 Y38.9770
G01 X41.5170 Y39.8900
G01 X44.9700 Y39.8900
G01 X44.9700 Y38.9770
G00 Z2.0000
G00 X72.9090 Y48.3239
G01 F60.00
G01 Z-2.4000
G01 F120.00
G01 X72.9009 Y48.1583
G01 X72.8766 Y47.9947
G01 X72.8364 Y47.8342
G01 X72.7807 Y47.6784
G01 X72.7100 Y47.5289
G01 X72.6249 Y47.3870
G01 X72.5264 Y47.2542
G01 X72.4153 Y47.1316
G01 X72.2927 Y47.0205
G01 X72.1599 Y46.9220
G01 X72.0180 Y46.8369
G01 X71.8684 Y46.7662
G01 X71.7127 Y46.7105
G01 X71.5522 Y46.6703
G01 X71.3886 Y46.6460
G01 X71.2234 Y46.6379
G01 X71.0582 Y46.6460
G01 X70.8945 Y46.6703
G01 X70.7341 Y46.7105
G01 X70.5783 Y46.7662
G01 X70.4288 Y46.8369
G01 X70.2869 Y46.9220
G01 X70.1540 Y47.0205
G01 X70.0315 Y47.1316
G01 X69.9204 Y47.2542
G01 X69.8218 Y47.3870
G01 X69.7368 Y47.5289
G01 X69.6661 Y47.6784
G01 X69.6103 Y47.8342
G01 X69.5702 Y47.9947
G01 X69.5459 Y48.1579
G01 X69.5380 Y48.3231
G01 X69.5461 Y48.4887
G01 X69.5704 Y48.6523
G01 X69.6106 Y48.8128
G01 X69.6663 Y48.9686
G01 X69.7371 Y49.1181
G01 X69.8221 Y49.2600
G01 X69.9206 Y49.3928
G01 X70.0317 Y49.5154
G01 X70.1543 Y49.6265
G01 X70.2872 Y49.7250
G01 X70.4290 Y49.8101
G01 X70.5786 Y49.8808
G01 X70.7343 Y49.9365
G01 X70.8948 Y49.9767
G01 X71.0584 Y50.0010
G01 X71.2236 Y50.0091
G01 X71.3889 Y50.0010
G01 X71.5525 Y49.9767
G01 X71.7129 Y49.9365
G01 X71.8687 Y49.8808
G01 X72.0182 Y49.8101
G01 X72.1601 Y49.7250
G01 X72.2930 Y49.6265
G01 X72.4155 Y49.5154
G01 X72.5266 Y49.3928
G01 X72.6252 Y49.2600
G01 X72.7102 Y49.1181
G01 X72.7809 Y48.9686
G01 X72.8367 Y48.8128
G01 X72.8769 Y48.6523
G01 X72.9011 Y48.4891
G01 X72.9090 Y48.3239
G00 Z2.0000
G00 X75.4500 Y38.9770
G01 F60.00
G01 Z-2.4000
G01 F120.00
G01 X71.9970 Y38.9770
G01 X71.9970 Y39.8900
G01 X75.4500 Y39.8900
G01 X75.4500 Y38.9770
G00 Z2.0000
G00 X75.4500 Y28.8170
G01 F60.00
G01 Z-2.4000
G01 F120.00
G01 X71.9970 Y28.8170
G01 X71.9970 Y29.7300
G01 X75.4500 Y29.7300
G01 X75.4500 Y28.8170
G00 Z2.0000
G00 X75.4500 Y23.7370
G01 F60.00
G01 Z-2.4000
G01 F120.00
G01 X71.9970 Y23.7370
G01 X71.9970 Y24.6500
G01 X75.4500 Y24.6500
G01 X75.4500 Y23.7370
G00 Z2.0000
G00 X90.6900 Y23.7370
G01 F60.00
G01 Z-2.4000
G01 F120.00
G01 X87.2370 Y23.7370
G01 X87.2370 Y24.6500
G01 X90.6900 Y24.6500
G01 X90.6900 Y23.7370
G00 Z2.0000
G00 X90.6900 Y28.8170
G01 F60.00
G01 Z-2.4000
G01 F120.00
G01 X87.2370 Y28.8170
G01 X87.2370 Y29.7300
G01 X90.6900 Y29.7300
G01 X90.6900 Y28.8170
G00 Z2.0000
G00 X90.6900 Y38.9770
G01 F60.00
G01 Z-2.4000
G01 F120.00
G01 X87.2370 Y38.9770
G01 X87.2370 Y39.8900
G01 X90.6900 Y39.8900
G01 X90.6900 Y38.9770
G00 Z2.0000
G00 X105.9300 Y38.9770
G01 F60.00
G01 Z-2.4000
G01 F120.00
G01 X102.4770 Y38.9770
G01 X102.4770 Y39.8900
G01 X105.9300 Y39.8900
G01 X105.9300 Y38.9770
G00 Z2.0000
G00 X105.9300 Y28.8170
G01 F60.00
G01 Z-2.4000
G01 F120.00
G01 X102.4770 Y28.8170
G01 X102.4770 Y29.7300
G01 X105.9300 Y29.7300
G01 X105.9300 Y28.8170
G00 Z2.0000
G00 X105.9300 Y23.7370
G01 F60.00
G01 Z-2.4000
G01 F120.00
G01 X102.4770 Y23.7370
G01 X102.4770 Y24.6500
G01 X105.9300 Y24.6500
G01 X105.9300 Y23.7370
G00 Z2.0000
G00 X121.1700 Y23.7370
G01 F60.00
G01 Z-2.4000
G01 F120.00
G01 X117.7170 Y23.7370
G01 X117.7170 Y24.6500
G01 X121.1700 Y24.6500
G01 X121.1700 Y23.7370
G00 Z2.0000
G00 X121.1700 Y28.8170
G01 F60.00
G01 Z-2.4000
G01 F120.00
G01 X117.7170 Y28.8170
G01 X117.7170 Y29.7300
G01 X121.1700 Y29.7300
G01 X121.1700 Y28.8170
G00 Z2.0000
G00 X121.1700 Y38.9770
G01 F60.00
G01 Z-2.4000
G01 F120.00
G01 X117.7170 Y38.9770
G01 X117.7170 Y39.8900
G01 X121.1700 Y39.8900
G01 X121.1700 Y38.9770
G00 Z2.0000
G00 X136.4100 Y38.9770
G01 F60.00
G01 Z-2.4000
G01 F120.00
G01 X132.9570 Y38.9770
G01 X132.9570 Y39.8900
G01 X136.4100 Y39.8900
G01 X136.4100 Y38.9770
G00 Z2.0000
G00 X133.7890 Y48.3239
G01 F60.00
G01 Z-2.4000
G01 F120.00
G01 X133.7809 Y48.1583
G01 X133.7566 Y47.9947
G01 X133.7164 Y47.8342
G01 X133.6607 Y47.6784
G01 X133.5899 Y47.5289
G01 X133.5049 Y47.3870
G01 X133.4064 Y47.2542
G01 X133.2953 Y47.1316
G01 X133.1727 Y47.0205
G01 X133.0398 Y46.9220
G01 X132.8980 Y46.8369
G01 X132.7484 Y46.7662
G01 X132.5927 Y46.7105
G01 X132.4322 Y46.6703
G01 X132.2686 Y46.6460
G01 X132.1034 Y46.6379
G01 X131.9381 Y46.6460
G01 X131.7745 Y46.6703
G01 X131.6141 Y46.7105
G01 X131.4583 Y46.7662
G01 X131.3088 Y46.8369
G01 X131.1669 Y46.9220
G01 X131.0340 Y47.0205
G01 X130.9115 Y47.1316
G01 X130.8004 Y47.2542
G01 X130.7018 Y47.3870
G01 X130.6168 Y47.5289
G01 X130.5461 Y47.6784
G01 X130.4903 Y47.8342
G01 X130.4501 Y47.9947
G01 X130.4259 Y48.1579
G01 X130.4180 Y48.3231
G01 X130.4261 Y48.4887
G01 X130.4504 Y48.6523
G01 X130.4906 Y48.8128
G01 X130.5463 Y48.9686
G01 X130.6170 Y49.1181
G01 X130.7021 Y49.2600
G01 X130.8006 Y49.3928
G01 X130.9117 Y49.5154
G01 X131.0343 Y49.6265
G01 X131.1671 Y49.7250
G01 X131.3090 Y49.8101
G01 X131.4586 Y49.8808
G01 X131.6143 Y49.9365
G01 X131.7748 Y49.9767
G01 X131.9384 Y50.0010
G01 X132.1036 Y50.0091
G01 X132.2688 Y50.0010
G01 X132.4325 Y49.9767
G01 X132.5929 Y49.9365
G01 X132.7487 Y49.8808
G01 X132.8982 Y49.8101
G01 X133.0401 Y49.7250
G01 X133.1730 Y49.6265
G01 X133.2955 Y49.5154
G01 X133.4066 Y49.3928
G01 X133.5052 Y49.2600
G01 X133.5902 Y49.1181
G01 X133.6609 Y48.9686
G01 X133.7167 Y48.8128
G01 X133.7568 Y48.6523
G01 X133.7811 Y48.4891
G01 X133.7890 Y48.3239
G00 Z2.0000
G00 X136.4100 Y28.8170
G01 F60.00
G01 Z-2.4000
G01 F120.00
G01 X132.9570 Y28.8170
G01 X132.9570 Y29.7300
G01 X136.4100 Y29.7300
G01 X136.4100 Y28.8170
G00 Z2.0000
G00 X136.4100 Y23.7370
G01 F60.00
G01 Z-2.4000
G01 F120.00
G01 X132.9570 Y23.7370
G01 X132.9570 Y24.6500
G01 X136.4100 Y24.6500
G01 X136.4100 Y23.7370
G00 Z2.0000
G00 X151.6500 Y23.7370
G01 F60.00
G01 Z-2.4000
G01 F120.00
G01 X148.1970 Y23.7370
G01 X148.1970 Y24.6500
G01 X151.6500 Y24.6500
G01 X151.6500 Y23.7370
G00 Z2.0000
G00 X151.6500 Y28.8170
G01 F60.00
G01 Z-2.4000
G01 F120.00
G01 X148.1970 Y28.8170
G01 X148.1970 Y29.7300
G01 X151.6500 Y29.7300
G01 X151.6500 Y28.8170
G00 Z2.0000
G00 X151.6500 Y38.9770
G01 F60.00
G01 Z-2.4000
G01 F120.00
G01 X148.1970 Y38.9770
G01 X148.1970 Y39.8900
G01 X151.6500 Y39.8900
G01 X151.6500 Y38.9770
G00 Z2.0000
G00 X139.2522 Y67.9962
G01 F60.00
G01 Z-2.4000
G01 F120.00
G01 X139.3096 Y67.9188
G01 X139.3591 Y67.8362
G01 X139.4003 Y67.7491
G01 X139.4328 Y67.6584
G01 X139.4562 Y67.5650
G01 X139.4703 Y67.4697
G01 X139.4750 Y67.3735
G01 X139.4703 Y67.2773
G01 X139.4562 Y67.1820
G01 X139.4328 Y67.0886
G01 X139.4003 Y66.9979
G01 X139.3591 Y66.9108
G01 X139.3096 Y66.8282
G01 X139.2522 Y66.7508
G01 X139.1876 Y66.6794
G01 X139.1162 Y66.6148
G01 X139.0388 Y66.5574
G01 X138.9562 Y66.5079
G01 X138.8691 Y66.4667
G01 X138.7784 Y66.4342
G01 X138.6850 Y66.4108
G01 X138.5897 Y66.3967
G01 X138.4935 Y66.3920
G01 X138.3973 Y66.3967
G01 X138.3020 Y66.4108
G01 X138.2086 Y66.4342
G01 X138.1179 Y66.4667
G01 X138.0308 Y66.5079
G01 X137.9482 Y66.5574
G01 X137.8708 Y66.6148
G01 X137.7994 Y66.6794
G01 X137.7348 Y66.7508
G01 X137.6774 Y66.8282
G01 X137.6279 Y66.9108
G01 X137.5867 Y66.9979
G01 X137.5542 Y67.0886
G01 X137.5308 Y67.1820
G01 X137.5167 Y67.2773
G01 X137.5120 Y67.3735
G01 X137.5167 Y67.4697
G01 X137.5308 Y67.5650
G01 X137.5542 Y67.6584
G01 X137.5867 Y67.7491
G01 X137.6279 Y67.8362
G01 X137.6774 Y67.9188
G01 X137.7348 Y67.9962
G01 X137.7994 Y68.0676
G01 X137.8708 Y68.1322
G01 X137.9482 Y68.1896
G01 X138.0308 Y68.2391
G01 X138.1179 Y68.2803
G01 X138.2086 Y68.3128
G01 X138.3020 Y68.3362
G01 X138.3973 Y68.3503
G01 X138.4935 Y68.3550
G01 X138.5897 Y68.3503
G01 X138.6850 Y68.3362
G01 X138.7784 Y68.3128
G01 X138.8691 Y68.2803
G01 X138.9562 Y68.2391
G01 X139.0388 Y68.1896
G01 X139.1162 Y68.1322
G01 X139.1876 Y68.0676
G01 X139.2522 Y67.9962
G00 Z2.0000
G00 X157.0322 Y7.0362
G01 F60.00
G01 Z-2.4000
G01 F120.00
G01 X157.0896 Y6.9588
G01 X157.1391 Y6.8762
G01 X157.1803 Y6.7891
G01 X157.2128 Y6.6984
G01 X157.2362 Y6.6050
G01 X157.2503 Y6.5097
G01 X157.2550 Y6.4135
G01 X157.2503 Y6.3173
G01 X157.2362 Y6.2220
G01 X157.2128 Y6.1286
G01 X157.1803 Y6.0379
G01 X157.1391 Y5.9508
G01 X157.0896 Y5.8682
G01 X157.0322 Y5.7908
G01 X156.9676 Y5.7194
G01 X156.8962 Y5.6548
G01 X156.8188 Y5.5974
G01 X156.7362 Y5.5479
G01 X156.6491 Y5.5067
G01 X156.5584 Y5.4742
G01 X156.4650 Y5.4508
G01 X156.3697 Y5.4367
G01 X156.2735 Y5.4320
G01 X156.1773 Y5.4367
G01 X156.0820 Y5.4508
G01 X155.9886 Y5.4742
G01 X155.8979 Y5.5067
G01 X155.8108 Y5.5479
G01 X155.7282 Y5.5974
G01 X155.6508 Y5.6548
G01 X155.5794 Y5.7194
G01 X155.5148 Y5.7908
G01 X155.4574 Y5.8682
G01 X155.4079 Y5.9508
G01 X155.3667 Y6.0379
G01 X155.3342 Y6.1286
G01 X155.3108 Y6.2220
G01 X155.2967 Y6.3173
G01 X155.2920 Y6.4135
G01 X155.2967 Y6.5097
G01 X155.3108 Y6.6050
G01 X155.3342 Y6.6984
G01 X155.3667 Y6.7891
G01 X155.4079 Y6.8762
G01 X155.4574 Y6.9588
G01 X155.5148 Y7.0362
G01 X155.5794 Y7.1076
G01 X155.6508 Y7.1722
G01 X155.7282 Y7.2296
G01 X155.8108 Y7.2791
G01 X155.8979 Y7.3203
G01 X155.9886 Y7.3528
G01 X156.0820 Y7.3762
G01 X156.1773 Y7.3903
G01 X156.2735 Y7.3950
G01 X156.3697 Y7.3903
G01 X156.4650 Y7.3762
G01 X156.5584 Y7.3528
G01 X156.6491 Y7.3203
G01 X156.7362 Y7.2791
G01 X156.8188 Y7.2296
G01 X156.8962 Y7.1722
G01 X156.9676 Y7.1076
G01 X157.0322 Y7.0362
G00 Z2.0000
G00 X63.0522 Y75.6162
G01 F60.00
G01 Z-2.4000
G01 F120.00
G01 X63.1096 Y75.5388
G01 X63.1591 Y75.4562
G01 X63.2003 Y75.3691
G01 X63.2328 Y75.2784
G01 X63.2562 Y75.1850
G01 X63.2703 Y75.0897
G01 X63.2750 Y74.9935
G01 X63.2703 Y74.8973
G01 X63.2562 Y74.8020
G01 X63.2328 Y74.7086
G01 X63.2003 Y74.6179
G01 X63.1591 Y74.5308
G01 X63.1096 Y74.4482
G01 X63.0522 Y74.3708
G01 X62.9876 Y74.2994
G01 X62.9162 Y74.2348
G01 X62.8388 Y74.1774
G01 X62.7562 Y74.1279
G01 X62.6691 Y74.0867
G01 X62.5784 Y74.0542
G01 X62.4850 Y74.0308
G01 X62.3897 Y74.0167
G01 X62.2935 Y74.0120
G01 X62.1973 Y74.0167
G01 X62.1020 Y74.0308
G01 X62.0086 Y74.0542
G01 X61.9179 Y74.0867
G01 X61.8308 Y74.1279
G01 X61.7482 Y74.1774
G01 X61.6708 Y74.2348
G01 X61.5994 Y74.2994
G01 X61.5348 Y74.3708
G01 X61.4774 Y74.4482
G01 X61.4279 Y74.5308
G01 X61.3867 Y74.6179
G01 X61.3542 Y74.7086
G01 X61.3308 Y74.8020
G01 X61.3167 Y74.8973
G01 X61.3120 Y74.9935
G01 X61.3167 Y75.0897
G01 X61.3308 Y75.1850
G01 X61.3542 Y75.2784
G01 X61.3867 Y75.3691
G01 X61.4279 Y75.4562
G01 X61.4774 Y75.5388
G01 X61.5348 Y75.6162
G01 X61.5994 Y75.6876
G01 X61.6708 Y75.7522
G01 X61.7482 Y75.8096
G01 X61.8308 Y75.8591
G01 X61.9179 Y75.9003
G01 X62.0086 Y75.9328
G01 X62.1020 Y75.9562
G01 X62.1973 Y75.9703
G01 X62.2935 Y75.9750
G01 X62.3897 Y75.9703
G01 X62.4850 Y75.9562
G01 X62.5784 Y75.9328
G01 X62.6691 Y75.9003
G01 X62.7562 Y75.8591
G01 X62.8388 Y75.8096
G01 X62.9162 Y75.7522
G01 X62.9876 Y75.6876
G01 X63.0522 Y75.6162
G00 Z2.0000
M05
G00 Z2.0000
G00 Z15.00


