(G-CODE GENERATED BY FLATCAM v8.994 - www.flatcam.org - Version Date: 2020/11/7)

(Name: Conn3 - Bottom Copper.gbr_iso_combined_cnc)
(Type: G-code from Geometry)
(Units: MM)

(Created on Tuesday, 10 December 2024 at 11:24)

(This preprocessor is the default preprocessor used by FlatCAM.)
(It is made to work with MACH3 compatible motion controllers.)

(TOOL DIAMETER: 0.331 mm)
(Feedrate_XY: 320.0 mm/min)
(Feedrate_Z: 60.0 mm/min)
(Feedrate rapids 1500.0 mm/min)

(Z_Cut: -0.2001 mm)
(Z_Move: 2.0 mm)
(Z Start: None mm)
(Z End: 15.0 mm)
(X,Y End: None mm)
(Steps per circle: 64)
(Preprocessor Geometry: default)

(X range:    3.4822 ...   90.5998  mm)
(Y range:    3.4822 ...   60.1198  mm)

(Spindle Speed: 0.0 RPM)
G21
G90
G94

G01 F320.00
G00 Z15.0000

M03
G01 F320.00
G00 X3.8820 Y6.2238
G01 F60.00
G01 Z-0.2001
G01 F320.00
G01 X3.8593 Y6.1974
G01 X3.8363 Y6.1680
G01 X3.7727 Y6.0819
G01 X3.7520 Y6.0508
G01 X3.6967 Y5.9592
G01 X3.6783 Y5.9267
G01 X3.6615 Y5.8933
G01 X3.6238 Y5.8134
G01 X3.6160 Y5.7964
G01 X3.6017 Y5.7619
G01 X3.5654 Y5.6612
G01 X3.5537 Y5.6258
G01 X3.5437 Y5.5898
G01 X3.5179 Y5.4859
G01 X3.5107 Y5.4492
G01 X3.5077 Y5.4308
G01 X3.4947 Y5.3434
G01 X3.4902 Y5.3063
G01 X3.4874 Y5.2691
G01 X3.4831 Y5.1809
G01 X3.4824 Y5.1622
G01 X3.4824 Y5.1248
G01 X3.4874 Y5.0179
G01 X3.4902 Y4.9807
G01 X3.4947 Y4.9436
G01 X3.5077 Y4.8562
G01 X3.5141 Y4.8194
G01 X3.5223 Y4.7829
G01 X3.5437 Y4.6972
G01 X3.5537 Y4.6612
G01 X3.5593 Y4.6434
G01 X3.5952 Y4.5426
G01 X3.6086 Y4.5077
G01 X3.6238 Y4.4736
G01 X3.6615 Y4.3937
G01 X3.6783 Y4.3603
G01 X3.6967 Y4.3278
G01 X3.7421 Y4.2521
G01 X3.7520 Y4.2362
G01 X3.7727 Y4.2051
G01 X3.8363 Y4.1190
G01 X3.8593 Y4.0896
G01 X3.8837 Y4.0613
G01 X3.9557 Y3.9821
G01 X3.9688 Y3.9688
G01 X3.9958 Y3.9430
G01 X4.0613 Y3.8837
G01 X4.0896 Y3.8593
G01 X4.1190 Y3.8363
G01 X4.1900 Y3.7837
G01 X4.2205 Y3.7621
G01 X4.2362 Y3.7520
G01 X4.3278 Y3.6967
G01 X4.3603 Y3.6783
G01 X4.3937 Y3.6615
G01 X4.4906 Y3.6160
G01 X4.5077 Y3.6086
G01 X4.5426 Y3.5952
G01 X4.6258 Y3.5654
G01 X4.6612 Y3.5537
G01 X4.6972 Y3.5437
G01 X4.7829 Y3.5223
G01 X4.8194 Y3.5141
G01 X4.8378 Y3.5107
G01 X4.9436 Y3.4947
G01 X4.9807 Y3.4902
G01 X5.0179 Y3.4874
G01 X5.1061 Y3.4831
G01 X5.1435 Y3.4822
G01 X5.1809 Y3.4831
G01 X5.2691 Y3.4874
G01 X5.3063 Y3.4902
G01 X5.3434 Y3.4947
G01 X5.4308 Y3.5077
G01 X5.4676 Y3.5141
G01 X5.5041 Y3.5223
G01 X5.5898 Y3.5437
G01 X5.6258 Y3.5537
G01 X5.6612 Y3.5654
G01 X5.7444 Y3.5952
G01 X5.7793 Y3.6086
G01 X5.8134 Y3.6238
G01 X5.8933 Y3.6615
G01 X5.9267 Y3.6783
G01 X5.9592 Y3.6967
G01 X6.0349 Y3.7421
G01 X6.0665 Y3.7621
G01 X6.0970 Y3.7837
G01 X6.1829 Y3.8476
G01 X6.1974 Y3.8593
G01 X6.2238 Y3.8820
G01 X16.7632 Y3.8820
G01 X16.7896 Y3.8593
G01 X16.8041 Y3.8476
G01 X16.9051 Y3.7727
G01 X16.9362 Y3.7520
G01 X16.9521 Y3.7421
G01 X17.0440 Y3.6873
G01 X17.0603 Y3.6783
G01 X17.0937 Y3.6615
G01 X17.1736 Y3.6238
G01 X17.2077 Y3.6086
G01 X17.2426 Y3.5952
G01 X17.3434 Y3.5593
G01 X17.3612 Y3.5537
G01 X17.3972 Y3.5437
G01 X17.4829 Y3.5223
G01 X17.5194 Y3.5141
G01 X17.5562 Y3.5077
G01 X17.6436 Y3.4947
G01 X17.6807 Y3.4902
G01 X17.7179 Y3.4874
G01 X17.8061 Y3.4831
G01 X17.8435 Y3.4822
G01 X17.8809 Y3.4831
G01 X17.9877 Y3.4886
G01 X18.0249 Y3.4922
G01 X18.0434 Y3.4947
G01 X18.1492 Y3.5107
G01 X18.1859 Y3.5179
G01 X18.2898 Y3.5437
G01 X18.3258 Y3.5537
G01 X18.3612 Y3.5654
G01 X18.4444 Y3.5952
G01 X18.4793 Y3.6086
G01 X18.4964 Y3.6160
G01 X18.5933 Y3.6615
G01 X18.6267 Y3.6783
G01 X18.6592 Y3.6967
G01 X18.7508 Y3.7520
G01 X18.7819 Y3.7727
G01 X18.7970 Y3.7837
G01 X18.8680 Y3.8363
G01 X18.8974 Y3.8593
G01 X18.9257 Y3.8837
G01 X19.0049 Y3.9557
G01 X19.0313 Y3.9821
G01 X19.0440 Y3.9958
G01 X19.1157 Y4.0753
G01 X19.1394 Y4.1041
G01 X19.2033 Y4.1900
G01 X19.2249 Y4.2205
G01 X19.2449 Y4.2521
G01 X19.2903 Y4.3278
G01 X19.3087 Y4.3603
G01 X19.3255 Y4.3937
G01 X19.3710 Y4.4906
G01 X19.3853 Y4.5251
G01 X19.4277 Y4.6434
G01 X19.4385 Y4.6792
G01 X19.4433 Y4.6972
G01 X19.4647 Y4.7829
G01 X19.4729 Y4.8194
G01 X19.4793 Y4.8562
G01 X19.4923 Y4.9436
G01 X19.4968 Y4.9807
G01 X19.4984 Y4.9993
G01 X19.5039 Y5.1061
G01 X19.5048 Y5.1435
G01 X19.5039 Y5.1809
G01 X19.4996 Y5.2691
G01 X19.4968 Y5.3063
G01 X19.4948 Y5.3249
G01 X19.4793 Y5.4308
G01 X19.4729 Y5.4676
G01 X19.4647 Y5.5041
G01 X19.4433 Y5.5898
G01 X19.4333 Y5.6258
G01 X19.4216 Y5.6612
G01 X19.3853 Y5.7619
G01 X19.3710 Y5.7964
G01 X19.3255 Y5.8933
G01 X19.3087 Y5.9267
G01 X19.2903 Y5.9592
G01 X19.2350 Y6.0508
G01 X19.2143 Y6.0819
G01 X19.1507 Y6.1680
G01 X19.1277 Y6.1974
G01 X19.1050 Y6.2238
G01 X19.1050 Y6.6032
G01 X19.1277 Y6.6296
G01 X19.1394 Y6.6441
G01 X19.2033 Y6.7300
G01 X19.2249 Y6.7605
G01 X19.2449 Y6.7921
G01 X19.2903 Y6.8678
G01 X19.3087 Y6.9003
G01 X19.3255 Y6.9337
G01 X19.3632 Y7.0136
G01 X19.3784 Y7.0477
G01 X19.3918 Y7.0826
G01 X19.4216 Y7.1658
G01 X19.4333 Y7.2012
G01 X19.4433 Y7.2372
G01 X19.4647 Y7.3229
G01 X19.4729 Y7.3594
G01 X19.4793 Y7.3962
G01 X19.4923 Y7.4836
G01 X19.4968 Y7.5207
G01 X19.4996 Y7.5579
G01 X19.5039 Y7.6461
G01 X19.5048 Y7.6835
G01 X19.5039 Y7.7209
G01 X19.4996 Y7.8091
G01 X19.4968 Y7.8463
G01 X19.4923 Y7.8834
G01 X19.4793 Y7.9708
G01 X19.4729 Y8.0076
G01 X19.4647 Y8.0441
G01 X19.4433 Y8.1298
G01 X19.4333 Y8.1658
G01 X19.4216 Y8.2012
G01 X19.3918 Y8.2844
G01 X19.3784 Y8.3193
G01 X19.3632 Y8.3534
G01 X19.3255 Y8.4333
G01 X19.3087 Y8.4667
G01 X19.2903 Y8.4992
G01 X19.2449 Y8.5749
G01 X19.2249 Y8.6065
G01 X19.2033 Y8.6370
G01 X19.1507 Y8.7080
G01 X19.1277 Y8.7374
G01 X19.1033 Y8.7657
G01 X19.0440 Y8.8312
G01 X19.0182 Y8.8582
G01 X18.9912 Y8.8840
G01 X18.9142 Y8.9535
G01 X19.0049 Y9.0357
G01 X19.0182 Y9.0488
G01 X19.0440 Y9.0758
G01 X19.1033 Y9.1413
G01 X19.1277 Y9.1696
G01 X19.1507 Y9.1990
G01 X19.2033 Y9.2700
G01 X19.2143 Y9.2851
G01 X19.2350 Y9.3162
G01 X19.2997 Y9.4240
G01 X19.3173 Y9.4569
G01 X19.3255 Y9.4737
G01 X19.3632 Y9.5536
G01 X19.3784 Y9.5877
G01 X19.3918 Y9.6226
G01 X19.4216 Y9.7058
G01 X19.4333 Y9.7412
G01 X19.4385 Y9.7592
G01 X19.4691 Y9.8811
G01 X19.4763 Y9.9178
G01 X19.4793 Y9.9362
G01 X19.4923 Y10.0236
G01 X19.4968 Y10.0607
G01 X19.4996 Y10.0979
G01 X19.5039 Y10.1861
G01 X19.5048 Y10.2235
G01 X19.5046 Y10.2422
G01 X19.4984 Y10.3677
G01 X19.4968 Y10.3863
G01 X19.4923 Y10.4234
G01 X19.4793 Y10.5108
G01 X19.4729 Y10.5476
G01 X19.4647 Y10.5841
G01 X19.4433 Y10.6698
G01 X19.4333 Y10.7058
G01 X19.4216 Y10.7412
G01 X19.3918 Y10.8244
G01 X19.3784 Y10.8593
G01 X19.3632 Y10.8934
G01 X19.3255 Y10.9733
G01 X19.3087 Y11.0067
G01 X19.2903 Y11.0392
G01 X19.2449 Y11.1149
G01 X19.2249 Y11.1465
G01 X19.2033 Y11.1770
G01 X19.1507 Y11.2480
G01 X19.1277 Y11.2774
G01 X19.1033 Y11.3057
G01 X19.0440 Y11.3712
G01 X19.0182 Y11.3982
G01 X18.9912 Y11.4240
G01 X18.9142 Y11.4935
G01 X19.0049 Y11.5757
G01 X19.0313 Y11.6021
G01 X19.0440 Y11.6158
G01 X19.1033 Y11.6813
G01 X19.1277 Y11.7096
G01 X19.1507 Y11.7390
G01 X19.2033 Y11.8100
G01 X19.2143 Y11.8251
G01 X19.2350 Y11.8562
G01 X19.2997 Y11.9640
G01 X19.3087 Y11.9803
G01 X19.3255 Y12.0137
G01 X19.3632 Y12.0936
G01 X19.3784 Y12.1277
G01 X19.3918 Y12.1626
G01 X19.4216 Y12.2458
G01 X19.4333 Y12.2812
G01 X19.4385 Y12.2992
G01 X19.4691 Y12.4211
G01 X19.4729 Y12.4394
G01 X19.4793 Y12.4762
G01 X19.4923 Y12.5636
G01 X19.4968 Y12.6007
G01 X19.4996 Y12.6379
G01 X19.5039 Y12.7261
G01 X19.5048 Y12.7635
G01 X19.5046 Y12.7822
G01 X19.4996 Y12.8891
G01 X19.4984 Y12.9077
G01 X19.4948 Y12.9449
G01 X19.4763 Y13.0692
G01 X19.4691 Y13.1059
G01 X19.4647 Y13.1241
G01 X19.4385 Y13.2278
G01 X19.4333 Y13.2458
G01 X19.4216 Y13.2812
G01 X19.3918 Y13.3644
G01 X19.3784 Y13.3993
G01 X19.3632 Y13.4334
G01 X19.3173 Y13.5301
G01 X19.2997 Y13.5630
G01 X19.2903 Y13.5792
G01 X19.2449 Y13.6549
G01 X19.2249 Y13.6865
G01 X19.2033 Y13.7170
G01 X19.1507 Y13.7880
G01 X19.1277 Y13.8174
G01 X19.1033 Y13.8457
G01 X19.0440 Y13.9112
G01 X19.0182 Y13.9382
G01 X18.9912 Y13.9640
G01 X18.9142 Y14.0335
G01 X19.0049 Y14.1157
G01 X19.0313 Y14.1421
G01 X19.0440 Y14.1558
G01 X19.1033 Y14.2213
G01 X19.1277 Y14.2496
G01 X19.1507 Y14.2790
G01 X19.2033 Y14.3500
G01 X19.2143 Y14.3651
G01 X19.2350 Y14.3962
G01 X19.2997 Y14.5040
G01 X19.3173 Y14.5369
G01 X19.3255 Y14.5537
G01 X19.3710 Y14.6506
G01 X19.3784 Y14.6677
G01 X19.3918 Y14.7026
G01 X19.4216 Y14.7858
G01 X19.4333 Y14.8212
G01 X19.4433 Y14.8572
G01 X19.4647 Y14.9429
G01 X19.4729 Y14.9794
G01 X19.4793 Y15.0162
G01 X19.4923 Y15.1036
G01 X19.4948 Y15.1221
G01 X19.4984 Y15.1593
G01 X19.5046 Y15.2848
G01 X19.5048 Y15.3035
G01 X19.5039 Y15.3409
G01 X19.4984 Y15.4477
G01 X19.4948 Y15.4849
G01 X19.4923 Y15.5034
G01 X19.4793 Y15.5908
G01 X19.4729 Y15.6276
G01 X19.4647 Y15.6641
G01 X19.4433 Y15.7498
G01 X19.4333 Y15.7858
G01 X19.4277 Y15.8036
G01 X19.3853 Y15.9219
G01 X19.3710 Y15.9564
G01 X19.3255 Y16.0533
G01 X19.3087 Y16.0867
G01 X19.2997 Y16.1030
G01 X19.2350 Y16.2108
G01 X19.2143 Y16.2419
G01 X19.2033 Y16.2570
G01 X19.1394 Y16.3429
G01 X19.1277 Y16.3574
G01 X19.1033 Y16.3857
G01 X19.0440 Y16.4512
G01 X19.0182 Y16.4782
G01 X18.9912 Y16.5040
G01 X18.9142 Y16.5735
G01 X18.9912 Y16.6430
G01 X19.0049 Y16.6557
G01 X19.0313 Y16.6821
G01 X19.1157 Y16.7753
G01 X19.1394 Y16.8041
G01 X19.1507 Y16.8190
G01 X19.2143 Y16.9051
G01 X19.2350 Y16.9362
G01 X19.2449 Y16.9521
G01 X19.2903 Y17.0278
G01 X19.3087 Y17.0603
G01 X19.3255 Y17.0937
G01 X19.3632 Y17.1736
G01 X19.3784 Y17.2077
G01 X19.3853 Y17.2251
G01 X19.4277 Y17.3434
G01 X19.4385 Y17.3792
G01 X19.4433 Y17.3972
G01 X19.4647 Y17.4829
G01 X19.4729 Y17.5194
G01 X19.4793 Y17.5562
G01 X19.4923 Y17.6436
G01 X19.4968 Y17.6807
G01 X19.4996 Y17.7179
G01 X19.5039 Y17.8061
G01 X19.5048 Y17.8435
G01 X19.5046 Y17.8622
G01 X19.4996 Y17.9691
G01 X19.4968 Y18.0063
G01 X19.4923 Y18.0434
G01 X19.4793 Y18.1308
G01 X19.4763 Y18.1492
G01 X19.4691 Y18.1859
G01 X19.4433 Y18.2898
G01 X19.4333 Y18.3258
G01 X19.4277 Y18.3436
G01 X19.3853 Y18.4619
G01 X19.3710 Y18.4964
G01 X19.3632 Y18.5134
G01 X19.3255 Y18.5933
G01 X19.3087 Y18.6267
G01 X19.2903 Y18.6592
G01 X19.2449 Y18.7349
G01 X19.2249 Y18.7665
G01 X19.2143 Y18.7819
G01 X19.1507 Y18.8680
G01 X19.1394 Y18.8829
G01 X19.1157 Y18.9117
G01 X19.0313 Y19.0049
G01 X19.0182 Y19.0182
G01 X18.9912 Y19.0440
G01 X18.9142 Y19.1135
G01 X18.9912 Y19.1830
G01 X19.0182 Y19.2088
G01 X19.0313 Y19.2221
G01 X19.1157 Y19.3153
G01 X19.1394 Y19.3441
G01 X19.1507 Y19.3590
G01 X19.2143 Y19.4451
G01 X19.2249 Y19.4605
G01 X19.2449 Y19.4921
G01 X19.2903 Y19.5678
G01 X19.3087 Y19.6003
G01 X19.3255 Y19.6337
G01 X19.3632 Y19.7136
G01 X19.3784 Y19.7477
G01 X19.3853 Y19.7651
G01 X19.4277 Y19.8834
G01 X19.4385 Y19.9192
G01 X19.4433 Y19.9372
G01 X19.4647 Y20.0229
G01 X19.4729 Y20.0594
G01 X19.4793 Y20.0962
G01 X19.4923 Y20.1836
G01 X19.4968 Y20.2207
G01 X19.4996 Y20.2579
G01 X19.5039 Y20.3461
G01 X19.5046 Y20.3648
G01 X19.5046 Y20.4022
G01 X19.4996 Y20.5091
G01 X19.4968 Y20.5463
G01 X19.4923 Y20.5834
G01 X19.4793 Y20.6708
G01 X19.4729 Y20.7076
G01 X19.4691 Y20.7259
G01 X19.4433 Y20.8298
G01 X19.4333 Y20.8658
G01 X19.4277 Y20.8836
G01 X19.3853 Y21.0019
G01 X19.3710 Y21.0364
G01 X19.3632 Y21.0534
G01 X19.3255 Y21.1333
G01 X19.3087 Y21.1667
G01 X19.2903 Y21.1992
G01 X19.2449 Y21.2749
G01 X19.2249 Y21.3065
G01 X19.2143 Y21.3219
G01 X19.1507 Y21.4080
G01 X19.1394 Y21.4229
G01 X19.1157 Y21.4517
G01 X19.0313 Y21.5449
G01 X19.0049 Y21.5713
G01 X18.9912 Y21.5840
G01 X18.9142 Y21.6535
G01 X18.9912 Y21.7230
G01 X19.0182 Y21.7488
G01 X19.0313 Y21.7621
G01 X19.1157 Y21.8553
G01 X19.1394 Y21.8841
G01 X19.1507 Y21.8990
G01 X19.2143 Y21.9851
G01 X19.2249 Y22.0005
G01 X19.2449 Y22.0321
G01 X19.2903 Y22.1078
G01 X19.3087 Y22.1403
G01 X19.3255 Y22.1737
G01 X19.3632 Y22.2536
G01 X19.3710 Y22.2706
G01 X19.3853 Y22.3051
G01 X19.4277 Y22.4234
G01 X19.4333 Y22.4412
G01 X19.4433 Y22.4772
G01 X19.4647 Y22.5629
G01 X19.4729 Y22.5994
G01 X19.4793 Y22.6362
G01 X19.4923 Y22.7236
G01 X19.4968 Y22.7607
G01 X19.4996 Y22.7979
G01 X19.5039 Y22.8861
G01 X19.5046 Y22.9048
G01 X19.5046 Y22.9422
G01 X19.4996 Y23.0491
G01 X19.4968 Y23.0863
G01 X19.4923 Y23.1234
G01 X19.4793 Y23.2108
G01 X19.4729 Y23.2476
G01 X19.4691 Y23.2659
G01 X19.4433 Y23.3698
G01 X19.4333 Y23.4058
G01 X19.4277 Y23.4236
G01 X19.3853 Y23.5419
G01 X19.3710 Y23.5764
G01 X19.3632 Y23.5934
G01 X19.3255 Y23.6733
G01 X19.3087 Y23.7067
G01 X19.2903 Y23.7392
G01 X19.2449 Y23.8149
G01 X19.2249 Y23.8465
G01 X19.2143 Y23.8619
G01 X19.1507 Y23.9480
G01 X19.1394 Y23.9629
G01 X19.1157 Y23.9917
G01 X19.0313 Y24.0849
G01 X19.0049 Y24.1113
G01 X18.9912 Y24.1240
G01 X18.9142 Y24.1935
G01 X18.9912 Y24.2630
G01 X19.0182 Y24.2888
G01 X19.0313 Y24.3021
G01 X19.1157 Y24.3953
G01 X19.1394 Y24.4241
G01 X19.1507 Y24.4390
G01 X19.2143 Y24.5251
G01 X19.2350 Y24.5562
G01 X19.2449 Y24.5721
G01 X19.2903 Y24.6478
G01 X19.3087 Y24.6803
G01 X19.3255 Y24.7137
G01 X19.3632 Y24.7936
G01 X19.3710 Y24.8106
G01 X19.3853 Y24.8451
G01 X19.4277 Y24.9634
G01 X19.4333 Y24.9812
G01 X19.4433 Y25.0172
G01 X19.4647 Y25.1029
G01 X19.4729 Y25.1394
G01 X19.4793 Y25.1762
G01 X19.4923 Y25.2636
G01 X19.4968 Y25.3007
G01 X19.4996 Y25.3379
G01 X19.5039 Y25.4261
G01 X19.5048 Y25.4635
G01 X19.5046 Y25.4822
G01 X19.4996 Y25.5891
G01 X19.4968 Y25.6263
G01 X19.4923 Y25.6634
G01 X19.4793 Y25.7508
G01 X19.4729 Y25.7876
G01 X19.4691 Y25.8059
G01 X19.4433 Y25.9098
G01 X19.4385 Y25.9278
G01 X19.4277 Y25.9636
G01 X19.3853 Y26.0819
G01 X19.3710 Y26.1164
G01 X19.3632 Y26.1334
G01 X19.3255 Y26.2133
G01 X19.3087 Y26.2467
G01 X19.2903 Y26.2792
G01 X19.2449 Y26.3549
G01 X19.2350 Y26.3708
G01 X19.2143 Y26.4019
G01 X19.1507 Y26.4880
G01 X19.1394 Y26.5029
G01 X19.1157 Y26.5317
G01 X19.0313 Y26.6249
G01 X19.0182 Y26.6382
G01 X18.9912 Y26.6640
G01 X18.9142 Y26.7335
G01 X18.9912 Y26.8030
G01 X19.0182 Y26.8288
G01 X19.0313 Y26.8421
G01 X19.1157 Y26.9353
G01 X19.1394 Y26.9641
G01 X19.1507 Y26.9790
G01 X19.2143 Y27.0651
G01 X19.2350 Y27.0962
G01 X19.2449 Y27.1121
G01 X19.2903 Y27.1878
G01 X19.3087 Y27.2203
G01 X19.3255 Y27.2537
G01 X19.3632 Y27.3336
G01 X19.3784 Y27.3677
G01 X19.3853 Y27.3851
G01 X19.4277 Y27.5034
G01 X19.4333 Y27.5212
G01 X19.4433 Y27.5572
G01 X19.4647 Y27.6429
G01 X19.4729 Y27.6794
G01 X19.4793 Y27.7162
G01 X19.4923 Y27.8036
G01 X19.4968 Y27.8407
G01 X19.4996 Y27.8779
G01 X19.5039 Y27.9661
G01 X19.5048 Y28.0035
G01 X19.5046 Y28.0222
G01 X19.4996 Y28.1291
G01 X19.4968 Y28.1663
G01 X19.4923 Y28.2034
G01 X19.4793 Y28.2908
G01 X19.4763 Y28.3092
G01 X19.4691 Y28.3459
G01 X19.4433 Y28.4498
G01 X19.4333 Y28.4858
G01 X19.4277 Y28.5036
G01 X19.3853 Y28.6219
G01 X19.3710 Y28.6564
G01 X19.3632 Y28.6734
G01 X19.3255 Y28.7533
G01 X19.3087 Y28.7867
G01 X19.2903 Y28.8192
G01 X19.2449 Y28.8949
G01 X19.2249 Y28.9265
G01 X19.2143 Y28.9419
G01 X19.1507 Y29.0280
G01 X19.1394 Y29.0429
G01 X19.1157 Y29.0717
G01 X19.0313 Y29.1649
G01 X19.0182 Y29.1782
G01 X18.9912 Y29.2040
G01 X18.9142 Y29.2735
G01 X18.9912 Y29.3430
G01 X19.0049 Y29.3557
G01 X19.0313 Y29.3821
G01 X19.1157 Y29.4753
G01 X19.1394 Y29.5041
G01 X19.1507 Y29.5190
G01 X19.2143 Y29.6051
G01 X19.2249 Y29.6205
G01 X19.2449 Y29.6521
G01 X19.2903 Y29.7278
G01 X19.3087 Y29.7603
G01 X19.3255 Y29.7937
G01 X19.3632 Y29.8736
G01 X19.3710 Y29.8906
G01 X19.3853 Y29.9251
G01 X19.4277 Y30.0434
G01 X19.4333 Y30.0612
G01 X19.4433 Y30.0972
G01 X19.4647 Y30.1829
G01 X19.4729 Y30.2194
G01 X19.4793 Y30.2562
G01 X19.4923 Y30.3436
G01 X19.4968 Y30.3807
G01 X19.4996 Y30.4179
G01 X19.5039 Y30.5061
G01 X19.5048 Y30.5435
G01 X19.5046 Y30.5622
G01 X19.4996 Y30.6691
G01 X19.4968 Y30.7063
G01 X19.4923 Y30.7434
G01 X19.4793 Y30.8308
G01 X19.4729 Y30.8676
G01 X19.4691 Y30.8859
G01 X19.4433 Y30.9898
G01 X19.4385 Y31.0078
G01 X19.4277 Y31.0436
G01 X19.3853 Y31.1619
G01 X19.3710 Y31.1964
G01 X19.3632 Y31.2134
G01 X19.3255 Y31.2933
G01 X19.3087 Y31.3267
G01 X19.2903 Y31.3592
G01 X19.2449 Y31.4349
G01 X19.2249 Y31.4665
G01 X19.2143 Y31.4819
G01 X19.1507 Y31.5680
G01 X19.1277 Y31.5974
G01 X19.1157 Y31.6117
G01 X19.0313 Y31.7049
G01 X19.0049 Y31.7313
G01 X18.9912 Y31.7440
G01 X18.9142 Y31.8135
G01 X18.9912 Y31.8830
G01 X19.0182 Y31.9088
G01 X19.0313 Y31.9221
G01 X19.1157 Y32.0153
G01 X19.1394 Y32.0441
G01 X19.1507 Y32.0590
G01 X19.2143 Y32.1451
G01 X19.2249 Y32.1605
G01 X19.2449 Y32.1921
G01 X19.2903 Y32.2678
G01 X19.3087 Y32.3003
G01 X19.3255 Y32.3337
G01 X19.3632 Y32.4136
G01 X19.3710 Y32.4306
G01 X19.3853 Y32.4651
G01 X19.4277 Y32.5834
G01 X19.4333 Y32.6012
G01 X19.4433 Y32.6372
G01 X19.4647 Y32.7229
G01 X19.4729 Y32.7594
G01 X19.4793 Y32.7962
G01 X19.4923 Y32.8836
G01 X19.4968 Y32.9207
G01 X19.4996 Y32.9579
G01 X19.5039 Y33.0461
G01 X19.5046 Y33.0648
G01 X19.5046 Y33.1022
G01 X19.4996 Y33.2091
G01 X19.4968 Y33.2463
G01 X19.4923 Y33.2834
G01 X19.4793 Y33.3708
G01 X19.4729 Y33.4076
G01 X19.4691 Y33.4259
G01 X19.4433 Y33.5298
G01 X19.4333 Y33.5658
G01 X19.4277 Y33.5836
G01 X19.3853 Y33.7019
G01 X19.3784 Y33.7193
G01 X19.3632 Y33.7534
G01 X19.3255 Y33.8333
G01 X19.3087 Y33.8667
G01 X19.2903 Y33.8992
G01 X19.2449 Y33.9749
G01 X19.2249 Y34.0065
G01 X19.2143 Y34.0219
G01 X19.1507 Y34.1080
G01 X19.1394 Y34.1229
G01 X19.1157 Y34.1517
G01 X19.0313 Y34.2449
G01 X19.0049 Y34.2713
G01 X18.9912 Y34.2840
G01 X18.9142 Y34.3535
G01 X18.9912 Y34.4230
G01 X19.0049 Y34.4357
G01 X19.0313 Y34.4621
G01 X19.1157 Y34.5553
G01 X19.1394 Y34.5841
G01 X19.1507 Y34.5990
G01 X19.2143 Y34.6851
G01 X19.2350 Y34.7162
G01 X19.2449 Y34.7321
G01 X19.2903 Y34.8078
G01 X19.3087 Y34.8403
G01 X19.3255 Y34.8737
G01 X19.3632 Y34.9536
G01 X19.3710 Y34.9706
G01 X19.3853 Y35.0051
G01 X19.4277 Y35.1234
G01 X19.4333 Y35.1412
G01 X19.4433 Y35.1772
G01 X19.4647 Y35.2629
G01 X19.4729 Y35.2994
G01 X19.4793 Y35.3362
G01 X19.4923 Y35.4236
G01 X19.4968 Y35.4607
G01 X19.4996 Y35.4979
G01 X19.5039 Y35.5861
G01 X19.5048 Y35.6235
G01 X19.5046 Y35.6422
G01 X19.4996 Y35.7491
G01 X19.4968 Y35.7863
G01 X19.4923 Y35.8234
G01 X19.4793 Y35.9108
G01 X19.4729 Y35.9476
G01 X19.4691 Y35.9659
G01 X19.4433 Y36.0698
G01 X19.4385 Y36.0878
G01 X19.4277 Y36.1236
G01 X19.3853 Y36.2419
G01 X19.3710 Y36.2764
G01 X19.3632 Y36.2934
G01 X19.3255 Y36.3733
G01 X19.3087 Y36.4067
G01 X19.2903 Y36.4392
G01 X19.2449 Y36.5149
G01 X19.2249 Y36.5465
G01 X19.2143 Y36.5619
G01 X19.1507 Y36.6480
G01 X19.1277 Y36.6774
G01 X19.1157 Y36.6917
G01 X19.0313 Y36.7849
G01 X19.0049 Y36.8113
G01 X18.9912 Y36.8240
G01 X18.9142 Y36.8935
G01 X18.9912 Y36.9630
G01 X19.0049 Y36.9757
G01 X19.0313 Y37.0021
G01 X19.1157 Y37.0953
G01 X19.1394 Y37.1241
G01 X19.1507 Y37.1390
G01 X19.2143 Y37.2251
G01 X19.2350 Y37.2562
G01 X19.2449 Y37.2721
G01 X19.2903 Y37.3478
G01 X19.3087 Y37.3803
G01 X19.3255 Y37.4137
G01 X19.3632 Y37.4936
G01 X19.3710 Y37.5106
G01 X19.3853 Y37.5451
G01 X19.4277 Y37.6634
G01 X19.4333 Y37.6812
G01 X19.4433 Y37.7172
G01 X19.4647 Y37.8029
G01 X19.4729 Y37.8394
G01 X19.4793 Y37.8762
G01 X19.4923 Y37.9636
G01 X19.4968 Y38.0007
G01 X19.4996 Y38.0379
G01 X19.5039 Y38.1261
G01 X19.5046 Y38.1448
G01 X19.5046 Y38.1822
G01 X19.4996 Y38.2891
G01 X19.4968 Y38.3263
G01 X19.4923 Y38.3634
G01 X19.4793 Y38.4508
G01 X19.4729 Y38.4876
G01 X19.4691 Y38.5059
G01 X19.4433 Y38.6098
G01 X19.4385 Y38.6278
G01 X19.4277 Y38.6636
G01 X19.3853 Y38.7819
G01 X19.3784 Y38.7993
G01 X19.3632 Y38.8334
G01 X19.3255 Y38.9133
G01 X19.3087 Y38.9467
G01 X19.2903 Y38.9792
G01 X19.2449 Y39.0549
G01 X19.2249 Y39.0865
G01 X19.2143 Y39.1019
G01 X19.1507 Y39.1880
G01 X19.1277 Y39.2174
G01 X19.1157 Y39.2317
G01 X19.0313 Y39.3249
G01 X19.0182 Y39.3382
G01 X18.9912 Y39.3640
G01 X18.9142 Y39.4335
G01 X18.9912 Y39.5030
G01 X19.0182 Y39.5288
G01 X19.0313 Y39.5421
G01 X19.1157 Y39.6353
G01 X19.1277 Y39.6496
G01 X19.1507 Y39.6790
G01 X19.2143 Y39.7651
G01 X19.2249 Y39.7805
G01 X19.2449 Y39.8121
G01 X19.2903 Y39.8878
G01 X19.3087 Y39.9203
G01 X19.3255 Y39.9537
G01 X19.3632 Y40.0336
G01 X19.3784 Y40.0677
G01 X19.3853 Y40.0851
G01 X19.4277 Y40.2034
G01 X19.4333 Y40.2212
G01 X19.4433 Y40.2572
G01 X19.4647 Y40.3429
G01 X19.4729 Y40.3794
G01 X19.4793 Y40.4162
G01 X19.4923 Y40.5036
G01 X19.4968 Y40.5407
G01 X19.4996 Y40.5779
G01 X19.5039 Y40.6661
G01 X19.5046 Y40.6848
G01 X19.5046 Y40.7222
G01 X19.4996 Y40.8291
G01 X19.4968 Y40.8663
G01 X19.4923 Y40.9034
G01 X19.4793 Y40.9908
G01 X19.4763 Y41.0092
G01 X19.4691 Y41.0459
G01 X19.4433 Y41.1498
G01 X19.4333 Y41.1858
G01 X19.4277 Y41.2036
G01 X19.3853 Y41.3219
G01 X19.3710 Y41.3564
G01 X19.3632 Y41.3734
G01 X19.3255 Y41.4533
G01 X19.3087 Y41.4867
G01 X19.2903 Y41.5192
G01 X19.2449 Y41.5949
G01 X19.2249 Y41.6265
G01 X19.2143 Y41.6419
G01 X19.1507 Y41.7280
G01 X19.1277 Y41.7574
G01 X19.1157 Y41.7717
G01 X19.0313 Y41.8649
G01 X19.0049 Y41.8913
G01 X18.9912 Y41.9040
G01 X18.9142 Y41.9735
G01 X18.9912 Y42.0430
G01 X19.0049 Y42.0557
G01 X19.0313 Y42.0821
G01 X19.1157 Y42.1753
G01 X19.1277 Y42.1896
G01 X19.1507 Y42.2190
G01 X19.2143 Y42.3051
G01 X19.2350 Y42.3362
G01 X19.2449 Y42.3521
G01 X19.2903 Y42.4278
G01 X19.3087 Y42.4603
G01 X19.3255 Y42.4937
G01 X19.3632 Y42.5736
G01 X19.3710 Y42.5906
G01 X19.3853 Y42.6251
G01 X19.4277 Y42.7434
G01 X19.4333 Y42.7612
G01 X19.4433 Y42.7972
G01 X19.4647 Y42.8829
G01 X19.4729 Y42.9194
G01 X19.4793 Y42.9562
G01 X19.4923 Y43.0436
G01 X19.4968 Y43.0807
G01 X19.4996 Y43.1179
G01 X19.5039 Y43.2061
G01 X19.5048 Y43.2435
G01 X19.5046 Y43.2622
G01 X19.4996 Y43.3691
G01 X19.4968 Y43.4063
G01 X19.4923 Y43.4434
G01 X19.4793 Y43.5308
G01 X19.4729 Y43.5676
G01 X19.4691 Y43.5859
G01 X19.4433 Y43.6898
G01 X19.4333 Y43.7258
G01 X19.4216 Y43.7612
G01 X19.3918 Y43.8444
G01 X19.3784 Y43.8793
G01 X19.3632 Y43.9134
G01 X19.3255 Y43.9933
G01 X19.3173 Y44.0101
G01 X19.2997 Y44.0430
G01 X19.2449 Y44.1349
G01 X19.2249 Y44.1665
G01 X19.2033 Y44.1970
G01 X19.1507 Y44.2680
G01 X19.1277 Y44.2974
G01 X19.1033 Y44.3257
G01 X19.0440 Y44.3912
G01 X19.0313 Y44.4049
G01 X19.0049 Y44.4313
G01 X18.9257 Y44.5033
G01 X18.8974 Y44.5277
G01 X18.8680 Y44.5507
G01 X18.7970 Y44.6033
G01 X18.7665 Y44.6249
G01 X18.7349 Y44.6449
G01 X18.6592 Y44.6903
G01 X18.6267 Y44.7087
G01 X18.5933 Y44.7255
G01 X18.4964 Y44.7710
G01 X18.4619 Y44.7853
G01 X18.3612 Y44.8216
G01 X18.3258 Y44.8333
G01 X18.2898 Y44.8433
G01 X18.2041 Y44.8647
G01 X18.1676 Y44.8729
G01 X18.1492 Y44.8763
G01 X18.0434 Y44.8923
G01 X18.0063 Y44.8968
G01 X17.9691 Y44.8996
G01 X17.8622 Y44.9046
G01 X17.8435 Y44.9048
G01 X17.8061 Y44.9039
G01 X17.7179 Y44.8996
G01 X17.6807 Y44.8968
G01 X17.6436 Y44.8923
G01 X17.5378 Y44.8763
G01 X17.5011 Y44.8691
G01 X17.3972 Y44.8433
G01 X17.3792 Y44.8385
G01 X17.3434 Y44.8277
G01 X17.2426 Y44.7918
G01 X17.2077 Y44.7784
G01 X17.1736 Y44.7632
G01 X17.0937 Y44.7255
G01 X17.0769 Y44.7173
G01 X17.0440 Y44.6997
G01 X16.9521 Y44.6449
G01 X16.9205 Y44.6249
G01 X16.8900 Y44.6033
G01 X16.8041 Y44.5394
G01 X16.7896 Y44.5277
G01 X16.7632 Y44.5050
G01 X6.2238 Y44.5050
G01 X6.1974 Y44.5277
G01 X6.1829 Y44.5394
G01 X6.0819 Y44.6143
G01 X6.0508 Y44.6350
G01 X6.0349 Y44.6449
G01 X5.9430 Y44.6997
G01 X5.9101 Y44.7173
G01 X5.8933 Y44.7255
G01 X5.8134 Y44.7632
G01 X5.7793 Y44.7784
G01 X5.7444 Y44.7918
G01 X5.6436 Y44.8277
G01 X5.6078 Y44.8385
G01 X5.5898 Y44.8433
G01 X5.5041 Y44.8647
G01 X5.4676 Y44.8729
G01 X5.4308 Y44.8793
G01 X5.3434 Y44.8923
G01 X5.3063 Y44.8968
G01 X5.2691 Y44.8996
G01 X5.1809 Y44.9039
G01 X5.1435 Y44.9048
G01 X5.1061 Y44.9039
G01 X4.9993 Y44.8984
G01 X4.9621 Y44.8948
G01 X4.9436 Y44.8923
G01 X4.8378 Y44.8763
G01 X4.8011 Y44.8691
G01 X4.6972 Y44.8433
G01 X4.6612 Y44.8333
G01 X4.6258 Y44.8216
G01 X4.5426 Y44.7918
G01 X4.5077 Y44.7784
G01 X4.4906 Y44.7710
G01 X4.3937 Y44.7255
G01 X4.3603 Y44.7087
G01 X4.3278 Y44.6903
G01 X4.2362 Y44.6350
G01 X4.2051 Y44.6143
G01 X4.1900 Y44.6033
G01 X4.1190 Y44.5507
G01 X4.0896 Y44.5277
G01 X4.0613 Y44.5033
G01 X3.9821 Y44.4313
G01 X3.9688 Y44.4182
G01 X3.9430 Y44.3912
G01 X3.8713 Y44.3117
G01 X3.8476 Y44.2829
G01 X3.7837 Y44.1970
G01 X3.7621 Y44.1665
G01 X3.7421 Y44.1349
G01 X3.6967 Y44.0592
G01 X3.6783 Y44.0267
G01 X3.6615 Y43.9933
G01 X3.6160 Y43.8964
G01 X3.6017 Y43.8619
G01 X3.5654 Y43.7612
G01 X3.5537 Y43.7258
G01 X3.5437 Y43.6898
G01 X3.5223 Y43.6041
G01 X3.5141 Y43.5676
G01 X3.5077 Y43.5308
G01 X3.4922 Y43.4249
G01 X3.4886 Y43.3877
G01 X3.4831 Y43.2809
G01 X3.4822 Y43.2435
G01 X3.4831 Y43.2061
G01 X3.4886 Y43.0993
G01 X3.4922 Y43.0621
G01 X3.5077 Y42.9562
G01 X3.5141 Y42.9194
G01 X3.5223 Y42.8829
G01 X3.5437 Y42.7972
G01 X3.5537 Y42.7612
G01 X3.5654 Y42.7258
G01 X3.5952 Y42.6426
G01 X3.6086 Y42.6077
G01 X3.6238 Y42.5736
G01 X3.6615 Y42.4937
G01 X3.6783 Y42.4603
G01 X3.6967 Y42.4278
G01 X3.7421 Y42.3521
G01 X3.7621 Y42.3205
G01 X3.7837 Y42.2900
G01 X3.8476 Y42.2041
G01 X3.8713 Y42.1753
G01 X3.9430 Y42.0958
G01 X3.9688 Y42.0688
G01 X3.9958 Y42.0430
G01 X4.0728 Y41.9735
G01 X3.9958 Y41.9040
G01 X3.9688 Y41.8782
G01 X3.9557 Y41.8649
G01 X3.8713 Y41.7717
G01 X3.8476 Y41.7429
G01 X3.8363 Y41.7280
G01 X3.7727 Y41.6419
G01 X3.7621 Y41.6265
G01 X3.7421 Y41.5949
G01 X3.6967 Y41.5192
G01 X3.6783 Y41.4867
G01 X3.6615 Y41.4533
G01 X3.6238 Y41.3734
G01 X3.6086 Y41.3393
G01 X3.6017 Y41.3219
G01 X3.5593 Y41.2036
G01 X3.5485 Y41.1678
G01 X3.5437 Y41.1498
G01 X3.5223 Y41.0641
G01 X3.5141 Y41.0276
G01 X3.5077 Y40.9908
G01 X3.4947 Y40.9034
G01 X3.4902 Y40.8663
G01 X3.4874 Y40.8291
G01 X3.4831 Y40.7409
G01 X3.4822 Y40.7035
G01 X3.4831 Y40.6661
G01 X3.4874 Y40.5779
G01 X3.4902 Y40.5407
G01 X3.4947 Y40.5036
G01 X3.5077 Y40.4162
G01 X3.5141 Y40.3794
G01 X3.5223 Y40.3429
G01 X3.5437 Y40.2572
G01 X3.5537 Y40.2212
G01 X3.5593 Y40.2034
G01 X3.6017 Y40.0851
G01 X3.6086 Y40.0677
G01 X3.6238 Y40.0336
G01 X3.6615 Y39.9537
G01 X3.6783 Y39.9203
G01 X3.6967 Y39.8878
G01 X3.7421 Y39.8121
G01 X3.7520 Y39.7962
G01 X3.7727 Y39.7651
G01 X3.8363 Y39.6790
G01 X3.8476 Y39.6641
G01 X3.8713 Y39.6353
G01 X3.9557 Y39.5421
G01 X3.9688 Y39.5288
G01 X3.9958 Y39.5030
G01 X4.0728 Y39.4335
G01 X3.9958 Y39.3640
G01 X3.9821 Y39.3513
G01 X3.9557 Y39.3249
G01 X3.8713 Y39.2317
G01 X3.8593 Y39.2174
G01 X3.8363 Y39.1880
G01 X3.7727 Y39.1019
G01 X3.7621 Y39.0865
G01 X3.7421 Y39.0549
G01 X3.6967 Y38.9792
G01 X3.6783 Y38.9467
G01 X3.6615 Y38.9133
G01 X3.6238 Y38.8334
G01 X3.6086 Y38.7993
G01 X3.6017 Y38.7819
G01 X3.5593 Y38.6636
G01 X3.5537 Y38.6458
G01 X3.5437 Y38.6098
G01 X3.5223 Y38.5241
G01 X3.5141 Y38.4876
G01 X3.5077 Y38.4508
G01 X3.4947 Y38.3634
G01 X3.4902 Y38.3263
G01 X3.4874 Y38.2891
G01 X3.4831 Y38.2009
G01 X3.4822 Y38.1635
G01 X3.4831 Y38.1261
G01 X3.4874 Y38.0379
G01 X3.4902 Y38.0007
G01 X3.4947 Y37.9636
G01 X3.5077 Y37.8762
G01 X3.5141 Y37.8394
G01 X3.5223 Y37.8029
G01 X3.5437 Y37.7172
G01 X3.5537 Y37.6812
G01 X3.5593 Y37.6634
G01 X3.6017 Y37.5451
G01 X3.6160 Y37.5106
G01 X3.6238 Y37.4936
G01 X3.6615 Y37.4137
G01 X3.6783 Y37.3803
G01 X3.6967 Y37.3478
G01 X3.7421 Y37.2721
G01 X3.7520 Y37.2562
G01 X3.7727 Y37.2251
G01 X3.8363 Y37.1390
G01 X3.8476 Y37.1241
G01 X3.8713 Y37.0953
G01 X3.9557 Y37.0021
G01 X3.9688 Y36.9888
G01 X3.9958 Y36.9630
G01 X4.0728 Y36.8935
G01 X3.9958 Y36.8240
G01 X3.9688 Y36.7982
G01 X3.9557 Y36.7849
G01 X3.8713 Y36.6917
G01 X3.8476 Y36.6629
G01 X3.8363 Y36.6480
G01 X3.7727 Y36.5619
G01 X3.7621 Y36.5465
G01 X3.7421 Y36.5149
G01 X3.6967 Y36.4392
G01 X3.6783 Y36.4067
G01 X3.6615 Y36.3733
G01 X3.6238 Y36.2934
G01 X3.6086 Y36.2593
G01 X3.6017 Y36.2419
G01 X3.5593 Y36.1236
G01 X3.5485 Y36.0878
G01 X3.5437 Y36.0698
G01 X3.5223 Y35.9841
G01 X3.5141 Y35.9476
G01 X3.5077 Y35.9108
G01 X3.4947 Y35.8234
G01 X3.4902 Y35.7863
G01 X3.4874 Y35.7491
G01 X3.4831 Y35.6609
G01 X3.4822 Y35.6235
G01 X3.4831 Y35.5861
G01 X3.4874 Y35.4979
G01 X3.4902 Y35.4607
G01 X3.4947 Y35.4236
G01 X3.5077 Y35.3362
G01 X3.5141 Y35.2994
G01 X3.5223 Y35.2629
G01 X3.5437 Y35.1772
G01 X3.5537 Y35.1412
G01 X3.5593 Y35.1234
G01 X3.6017 Y35.0051
G01 X3.6160 Y34.9706
G01 X3.6238 Y34.9536
G01 X3.6615 Y34.8737
G01 X3.6783 Y34.8403
G01 X3.6967 Y34.8078
G01 X3.7421 Y34.7321
G01 X3.7520 Y34.7162
G01 X3.7727 Y34.6851
G01 X3.8363 Y34.5990
G01 X3.8593 Y34.5696
G01 X3.8713 Y34.5553
G01 X3.9557 Y34.4621
G01 X3.9821 Y34.4357
G01 X3.9958 Y34.4230
G01 X4.0728 Y34.3535
G01 X3.9958 Y34.2840
G01 X3.9821 Y34.2713
G01 X3.9557 Y34.2449
G01 X3.8713 Y34.1517
G01 X3.8476 Y34.1229
G01 X3.8363 Y34.1080
G01 X3.7727 Y34.0219
G01 X3.7520 Y33.9908
G01 X3.7421 Y33.9749
G01 X3.6967 Y33.8992
G01 X3.6783 Y33.8667
G01 X3.6615 Y33.8333
G01 X3.6238 Y33.7534
G01 X3.6160 Y33.7364
G01 X3.6017 Y33.7019
G01 X3.5593 Y33.5836
G01 X3.5485 Y33.5478
G01 X3.5437 Y33.5298
G01 X3.5223 Y33.4441
G01 X3.5141 Y33.4076
G01 X3.5077 Y33.3708
G01 X3.4947 Y33.2834
G01 X3.4902 Y33.2463
G01 X3.4874 Y33.2091
G01 X3.4831 Y33.1209
G01 X3.4822 Y33.0835
G01 X3.4831 Y33.0461
G01 X3.4874 Y32.9579
G01 X3.4902 Y32.9207
G01 X3.4947 Y32.8836
G01 X3.5077 Y32.7962
G01 X3.5141 Y32.7594
G01 X3.5223 Y32.7229
G01 X3.5437 Y32.6372
G01 X3.5537 Y32.6012
G01 X3.5593 Y32.5834
G01 X3.6017 Y32.4651
G01 X3.6086 Y32.4477
G01 X3.6238 Y32.4136
G01 X3.6615 Y32.3337
G01 X3.6783 Y32.3003
G01 X3.6967 Y32.2678
G01 X3.7421 Y32.1921
G01 X3.7520 Y32.1762
G01 X3.7727 Y32.1451
G01 X3.8363 Y32.0590
G01 X3.8593 Y32.0296
G01 X3.8713 Y32.0153
G01 X3.9557 Y31.9221
G01 X3.9688 Y31.9088
G01 X3.9958 Y31.8830
G01 X4.0728 Y31.8135
G01 X3.9958 Y31.7440
G01 X3.9821 Y31.7313
G01 X3.9557 Y31.7049
G01 X3.8713 Y31.6117
G01 X3.8476 Y31.5829
G01 X3.8363 Y31.5680
G01 X3.7727 Y31.4819
G01 X3.7520 Y31.4508
G01 X3.7421 Y31.4349
G01 X3.6967 Y31.3592
G01 X3.6783 Y31.3267
G01 X3.6615 Y31.2933
G01 X3.6238 Y31.2134
G01 X3.6086 Y31.1793
G01 X3.6017 Y31.1619
G01 X3.5593 Y31.0436
G01 X3.5485 Y31.0078
G01 X3.5437 Y30.9898
G01 X3.5223 Y30.9041
G01 X3.5141 Y30.8676
G01 X3.5077 Y30.8308
G01 X3.4947 Y30.7434
G01 X3.4902 Y30.7063
G01 X3.4874 Y30.6691
G01 X3.4831 Y30.5809
G01 X3.4822 Y30.5435
G01 X3.4831 Y30.5061
G01 X3.4874 Y30.4179
G01 X3.4902 Y30.3807
G01 X3.4947 Y30.3436
G01 X3.5077 Y30.2562
G01 X3.5141 Y30.2194
G01 X3.5223 Y30.1829
G01 X3.5437 Y30.0972
G01 X3.5485 Y30.0792
G01 X3.5593 Y30.0434
G01 X3.6017 Y29.9251
G01 X3.6086 Y29.9077
G01 X3.6238 Y29.8736
G01 X3.6615 Y29.7937
G01 X3.6783 Y29.7603
G01 X3.6967 Y29.7278
G01 X3.7421 Y29.6521
G01 X3.7621 Y29.6205
G01 X3.7727 Y29.6051
G01 X3.8363 Y29.5190
G01 X3.8593 Y29.4896
G01 X3.8713 Y29.4753
G01 X3.9557 Y29.3821
G01 X3.9821 Y29.3557
G01 X3.9958 Y29.3430
G01 X4.0728 Y29.2735
G01 X3.9958 Y29.2040
G01 X3.9821 Y29.1913
G01 X3.9557 Y29.1649
G01 X3.8713 Y29.0717
G01 X3.8593 Y29.0574
G01 X3.8363 Y29.0280
G01 X3.7727 Y28.9419
G01 X3.7621 Y28.9265
G01 X3.7421 Y28.8949
G01 X3.6967 Y28.8192
G01 X3.6783 Y28.7867
G01 X3.6615 Y28.7533
G01 X3.6238 Y28.6734
G01 X3.6086 Y28.6393
G01 X3.6017 Y28.6219
G01 X3.5593 Y28.5036
G01 X3.5537 Y28.4858
G01 X3.5437 Y28.4498
G01 X3.5223 Y28.3641
G01 X3.5141 Y28.3276
G01 X3.5077 Y28.2908
G01 X3.4947 Y28.2034
G01 X3.4902 Y28.1663
G01 X3.4874 Y28.1291
G01 X3.4831 Y28.0409
G01 X3.4822 Y28.0035
G01 X3.4831 Y27.9661
G01 X3.4874 Y27.8779
G01 X3.4902 Y27.8407
G01 X3.4947 Y27.8036
G01 X3.5077 Y27.7162
G01 X3.5141 Y27.6794
G01 X3.5223 Y27.6429
G01 X3.5437 Y27.5572
G01 X3.5485 Y27.5392
G01 X3.5593 Y27.5034
G01 X3.6017 Y27.3851
G01 X3.6160 Y27.3506
G01 X3.6238 Y27.3336
G01 X3.6615 Y27.2537
G01 X3.6783 Y27.2203
G01 X3.6967 Y27.1878
G01 X3.7421 Y27.1121
G01 X3.7520 Y27.0962
G01 X3.7727 Y27.0651
G01 X3.8363 Y26.9790
G01 X3.8476 Y26.9641
G01 X3.8713 Y26.9353
G01 X3.9557 Y26.8421
G01 X3.9688 Y26.8288
G01 X3.9958 Y26.8030
G01 X4.0728 Y26.7335
G01 X3.9958 Y26.6640
G01 X3.9688 Y26.6382
G01 X3.9557 Y26.6249
G01 X3.8713 Y26.5317
G01 X3.8476 Y26.5029
G01 X3.8363 Y26.4880
G01 X3.7727 Y26.4019
G01 X3.7621 Y26.3865
G01 X3.7421 Y26.3549
G01 X3.6967 Y26.2792
G01 X3.6783 Y26.2467
G01 X3.6615 Y26.2133
G01 X3.6238 Y26.1334
G01 X3.6086 Y26.0993
G01 X3.6017 Y26.0819
G01 X3.5593 Y25.9636
G01 X3.5485 Y25.9278
G01 X3.5437 Y25.9098
G01 X3.5223 Y25.8241
G01 X3.5141 Y25.7876
G01 X3.5077 Y25.7508
G01 X3.4947 Y25.6634
G01 X3.4902 Y25.6263
G01 X3.4874 Y25.5891
G01 X3.4831 Y25.5009
G01 X3.4822 Y25.4635
G01 X3.4831 Y25.4261
G01 X3.4874 Y25.3379
G01 X3.4902 Y25.3007
G01 X3.4947 Y25.2636
G01 X3.5077 Y25.1762
G01 X3.5141 Y25.1394
G01 X3.5223 Y25.1029
G01 X3.5437 Y25.0172
G01 X3.5537 Y24.9812
G01 X3.5593 Y24.9634
G01 X3.6017 Y24.8451
G01 X3.6160 Y24.8106
G01 X3.6238 Y24.7936
G01 X3.6615 Y24.7137
G01 X3.6783 Y24.6803
G01 X3.6967 Y24.6478
G01 X3.7421 Y24.5721
G01 X3.7520 Y24.5562
G01 X3.7727 Y24.5251
G01 X3.8363 Y24.4390
G01 X3.8593 Y24.4096
G01 X3.8713 Y24.3953
G01 X3.9557 Y24.3021
G01 X3.9688 Y24.2888
G01 X3.9958 Y24.2630
G01 X4.0728 Y24.1935
G01 X3.9958 Y24.1240
G01 X3.9688 Y24.0982
G01 X3.9557 Y24.0849
G01 X3.8713 Y23.9917
G01 X3.8476 Y23.9629
G01 X3.8363 Y23.9480
G01 X3.7727 Y23.8619
G01 X3.7520 Y23.8308
G01 X3.7421 Y23.8149
G01 X3.6967 Y23.7392
G01 X3.6783 Y23.7067
G01 X3.6615 Y23.6733
G01 X3.6238 Y23.5934
G01 X3.6086 Y23.5593
G01 X3.6017 Y23.5419
G01 X3.5593 Y23.4236
G01 X3.5537 Y23.4058
G01 X3.5437 Y23.3698
G01 X3.5223 Y23.2841
G01 X3.5141 Y23.2476
G01 X3.5077 Y23.2108
G01 X3.4947 Y23.1234
G01 X3.4902 Y23.0863
G01 X3.4874 Y23.0491
G01 X3.4831 Y22.9609
G01 X3.4822 Y22.9235
G01 X3.4831 Y22.8861
G01 X3.4874 Y22.7979
G01 X3.4902 Y22.7607
G01 X3.4947 Y22.7236
G01 X3.5077 Y22.6362
G01 X3.5141 Y22.5994
G01 X3.5223 Y22.5629
G01 X3.5437 Y22.4772
G01 X3.5485 Y22.4592
G01 X3.5593 Y22.4234
G01 X3.6017 Y22.3051
G01 X3.6086 Y22.2877
G01 X3.6238 Y22.2536
G01 X3.6615 Y22.1737
G01 X3.6783 Y22.1403
G01 X3.6967 Y22.1078
G01 X3.7421 Y22.0321
G01 X3.7520 Y22.0162
G01 X3.7727 Y21.9851
G01 X3.8363 Y21.8990
G01 X3.8476 Y21.8841
G01 X3.8713 Y21.8553
G01 X3.9557 Y21.7621
G01 X3.9821 Y21.7357
G01 X3.9958 Y21.7230
G01 X4.0728 Y21.6535
G01 X3.9958 Y21.5840
G01 X3.9688 Y21.5582
G01 X3.9557 Y21.5449
G01 X3.8713 Y21.4517
G01 X3.8476 Y21.4229
G01 X3.8363 Y21.4080
G01 X3.7727 Y21.3219
G01 X3.7520 Y21.2908
G01 X3.7421 Y21.2749
G01 X3.6967 Y21.1992
G01 X3.6783 Y21.1667
G01 X3.6615 Y21.1333
G01 X3.6238 Y21.0534
G01 X3.6160 Y21.0364
G01 X3.6017 Y21.0019
G01 X3.5593 Y20.8836
G01 X3.5537 Y20.8658
G01 X3.5437 Y20.8298
G01 X3.5179 Y20.7259
G01 X3.5141 Y20.7076
G01 X3.5077 Y20.6708
G01 X3.4947 Y20.5834
G01 X3.4902 Y20.5463
G01 X3.4874 Y20.5091
G01 X3.4824 Y20.4022
G01 X3.4824 Y20.3648
G01 X3.4831 Y20.3461
G01 X3.4874 Y20.2579
G01 X3.4902 Y20.2207
G01 X3.4947 Y20.1836
G01 X3.5077 Y20.0962
G01 X3.5141 Y20.0594
G01 X3.5223 Y20.0229
G01 X3.5437 Y19.9372
G01 X3.5537 Y19.9012
G01 X3.5593 Y19.8834
G01 X3.6017 Y19.7651
G01 X3.6086 Y19.7477
G01 X3.6238 Y19.7136
G01 X3.6615 Y19.6337
G01 X3.6783 Y19.6003
G01 X3.6967 Y19.5678
G01 X3.7421 Y19.4921
G01 X3.7621 Y19.4605
G01 X3.7727 Y19.4451
G01 X3.8363 Y19.3590
G01 X3.8593 Y19.3296
G01 X3.8713 Y19.3153
G01 X3.9557 Y19.2221
G01 X3.9821 Y19.1957
G01 X3.9958 Y19.1830
G01 X4.0728 Y19.1135
G01 X3.9958 Y19.0440
G01 X3.9821 Y19.0313
G01 X3.9557 Y19.0049
G01 X3.8713 Y18.9117
G01 X3.8476 Y18.8829
G01 X3.8363 Y18.8680
G01 X3.7727 Y18.7819
G01 X3.7520 Y18.7508
G01 X3.7421 Y18.7349
G01 X3.6967 Y18.6592
G01 X3.6783 Y18.6267
G01 X3.6615 Y18.5933
G01 X3.6238 Y18.5134
G01 X3.6160 Y18.4964
G01 X3.6017 Y18.4619
G01 X3.5593 Y18.3436
G01 X3.5485 Y18.3078
G01 X3.5437 Y18.2898
G01 X3.5179 Y18.1859
G01 X3.5107 Y18.1492
G01 X3.5077 Y18.1308
G01 X3.4947 Y18.0434
G01 X3.4902 Y18.0063
G01 X3.4874 Y17.9691
G01 X3.4824 Y17.8622
G01 X3.4822 Y17.8435
G01 X3.4831 Y17.8061
G01 X3.4874 Y17.7179
G01 X3.4902 Y17.6807
G01 X3.4947 Y17.6436
G01 X3.5077 Y17.5562
G01 X3.5141 Y17.5194
G01 X3.5223 Y17.4829
G01 X3.5437 Y17.3972
G01 X3.5537 Y17.3612
G01 X3.5593 Y17.3434
G01 X3.6017 Y17.2251
G01 X3.6086 Y17.2077
G01 X3.6238 Y17.1736
G01 X3.6615 Y17.0937
G01 X3.6783 Y17.0603
G01 X3.6967 Y17.0278
G01 X3.7421 Y16.9521
G01 X3.7621 Y16.9205
G01 X3.7727 Y16.9051
G01 X3.8363 Y16.8190
G01 X3.8476 Y16.8041
G01 X3.8713 Y16.7753
G01 X3.9557 Y16.6821
G01 X3.9688 Y16.6688
G01 X3.9958 Y16.6430
G01 X4.0728 Y16.5735
G01 X3.9958 Y16.5040
G01 X3.9688 Y16.4782
G01 X3.9557 Y16.4649
G01 X3.8713 Y16.3717
G01 X3.8593 Y16.3574
G01 X3.8363 Y16.3280
G01 X3.7727 Y16.2419
G01 X3.7520 Y16.2108
G01 X3.7421 Y16.1949
G01 X3.6967 Y16.1192
G01 X3.6783 Y16.0867
G01 X3.6615 Y16.0533
G01 X3.6238 Y15.9734
G01 X3.6086 Y15.9393
G01 X3.6017 Y15.9219
G01 X3.5593 Y15.8036
G01 X3.5485 Y15.7678
G01 X3.5437 Y15.7498
G01 X3.5179 Y15.6459
G01 X3.5141 Y15.6276
G01 X3.5077 Y15.5908
G01 X3.4947 Y15.5034
G01 X3.4902 Y15.4663
G01 X3.4874 Y15.4291
G01 X3.4824 Y15.3222
G01 X3.4822 Y15.3035
G01 X3.4831 Y15.2661
G01 X3.4874 Y15.1779
G01 X3.4902 Y15.1407
G01 X3.4947 Y15.1036
G01 X3.5077 Y15.0162
G01 X3.5141 Y14.9794
G01 X3.5223 Y14.9429
G01 X3.5437 Y14.8572
G01 X3.5485 Y14.8392
G01 X3.5593 Y14.8034
G01 X3.6017 Y14.6851
G01 X3.6086 Y14.6677
G01 X3.6238 Y14.6336
G01 X3.6615 Y14.5537
G01 X3.6783 Y14.5203
G01 X3.6967 Y14.4878
G01 X3.7421 Y14.4121
G01 X3.7520 Y14.3962
G01 X3.7727 Y14.3651
G01 X3.8363 Y14.2790
G01 X3.8476 Y14.2641
G01 X3.8713 Y14.2353
G01 X3.9557 Y14.1421
G01 X3.9688 Y14.1288
G01 X3.9958 Y14.1030
G01 X4.0728 Y14.0335
G01 X3.9958 Y13.9640
G01 X3.9821 Y13.9513
G01 X3.9557 Y13.9249
G01 X3.8713 Y13.8317
G01 X3.8476 Y13.8029
G01 X3.8363 Y13.7880
G01 X3.7727 Y13.7019
G01 X3.7520 Y13.6708
G01 X3.7421 Y13.6549
G01 X3.6967 Y13.5792
G01 X3.6783 Y13.5467
G01 X3.6615 Y13.5133
G01 X3.6238 Y13.4334
G01 X3.6160 Y13.4164
G01 X3.6017 Y13.3819
G01 X3.5593 Y13.2636
G01 X3.5537 Y13.2458
G01 X3.5437 Y13.2098
G01 X3.5179 Y13.1059
G01 X3.5141 Y13.0876
G01 X3.5077 Y13.0508
G01 X3.4947 Y12.9634
G01 X3.4902 Y12.9263
G01 X3.4874 Y12.8891
G01 X3.4824 Y12.7822
G01 X3.4824 Y12.7448
G01 X3.4831 Y12.7261
G01 X3.4874 Y12.6379
G01 X3.4902 Y12.6007
G01 X3.4947 Y12.5636
G01 X3.5077 Y12.4762
G01 X3.5141 Y12.4394
G01 X3.5223 Y12.4029
G01 X3.5437 Y12.3172
G01 X3.5537 Y12.2812
G01 X3.5593 Y12.2634
G01 X3.6017 Y12.1451
G01 X3.6160 Y12.1106
G01 X3.6238 Y12.0936
G01 X3.6615 Y12.0137
G01 X3.6783 Y11.9803
G01 X3.6967 Y11.9478
G01 X3.7421 Y11.8721
G01 X3.7621 Y11.8405
G01 X3.7727 Y11.8251
G01 X3.8363 Y11.7390
G01 X3.8593 Y11.7096
G01 X3.8713 Y11.6953
G01 X3.9557 Y11.6021
G01 X3.9688 Y11.5888
G01 X3.9958 Y11.5630
G01 X4.0728 Y11.4935
G01 X3.9958 Y11.4240
G01 X3.9688 Y11.3982
G01 X3.9557 Y11.3849
G01 X3.8713 Y11.2917
G01 X3.8593 Y11.2774
G01 X3.8363 Y11.2480
G01 X3.7727 Y11.1619
G01 X3.7621 Y11.1465
G01 X3.7421 Y11.1149
G01 X3.6967 Y11.0392
G01 X3.6783 Y11.0067
G01 X3.6615 Y10.9733
G01 X3.6238 Y10.8934
G01 X3.6086 Y10.8593
G01 X3.6017 Y10.8419
G01 X3.5593 Y10.7236
G01 X3.5537 Y10.7058
G01 X3.5437 Y10.6698
G01 X3.5179 Y10.5659
G01 X3.5141 Y10.5476
G01 X3.5077 Y10.5108
G01 X3.4947 Y10.4234
G01 X3.4902 Y10.3863
G01 X3.4874 Y10.3491
G01 X3.4824 Y10.2422
G01 X3.4824 Y10.2048
G01 X3.4831 Y10.1861
G01 X3.4874 Y10.0979
G01 X3.4902 Y10.0607
G01 X3.4947 Y10.0236
G01 X3.5077 Y9.9362
G01 X3.5141 Y9.8994
G01 X3.5223 Y9.8629
G01 X3.5437 Y9.7772
G01 X3.5537 Y9.7412
G01 X3.5593 Y9.7234
G01 X3.6017 Y9.6051
G01 X3.6086 Y9.5877
G01 X3.6238 Y9.5536
G01 X3.6615 Y9.4737
G01 X3.6783 Y9.4403
G01 X3.6967 Y9.4078
G01 X3.7421 Y9.3321
G01 X3.7520 Y9.3162
G01 X3.7727 Y9.2851
G01 X3.8363 Y9.1990
G01 X3.8593 Y9.1696
G01 X3.8713 Y9.1553
G01 X3.9557 Y9.0621
G01 X3.9821 Y9.0357
G01 X3.9958 Y9.0230
G01 X4.0728 Y8.9535
G01 X3.9958 Y8.8840
G01 X3.9688 Y8.8582
G01 X3.9430 Y8.8312
G01 X3.8837 Y8.7657
G01 X3.8593 Y8.7374
G01 X3.8363 Y8.7080
G01 X3.7837 Y8.6370
G01 X3.7621 Y8.6065
G01 X3.7421 Y8.5749
G01 X3.6967 Y8.4992
G01 X3.6783 Y8.4667
G01 X3.6615 Y8.4333
G01 X3.6238 Y8.3534
G01 X3.6086 Y8.3193
G01 X3.5952 Y8.2844
G01 X3.5654 Y8.2012
G01 X3.5537 Y8.1658
G01 X3.5437 Y8.1298
G01 X3.5223 Y8.0441
G01 X3.5141 Y8.0076
G01 X3.5077 Y7.9708
G01 X3.4947 Y7.8834
G01 X3.4922 Y7.8649
G01 X3.4886 Y7.8277
G01 X3.4831 Y7.7209
G01 X3.4822 Y7.6835
G01 X3.4831 Y7.6461
G01 X3.4874 Y7.5579
G01 X3.4902 Y7.5207
G01 X3.4947 Y7.4836
G01 X3.5077 Y7.3962
G01 X3.5141 Y7.3594
G01 X3.5223 Y7.3229
G01 X3.5437 Y7.2372
G01 X3.5537 Y7.2012
G01 X3.5593 Y7.1834
G01 X3.5952 Y7.0826
G01 X3.6086 Y7.0477
G01 X3.6238 Y7.0136
G01 X3.6615 Y6.9337
G01 X3.6697 Y6.9169
G01 X3.6873 Y6.8840
G01 X3.7421 Y6.7921
G01 X3.7621 Y6.7605
G01 X3.7727 Y6.7451
G01 X3.8476 Y6.6441
G01 X3.8593 Y6.6296
G01 X3.8820 Y6.6032
G01 X3.8820 Y6.2238
G00 Z2.0000
G00 X4.1799 Y6.1080
G01 F60.00
G01 Z-0.2001
G01 F320.00
G01 X4.1637 Y6.0911
G01 X4.1044 Y6.0257
G01 X4.0895 Y6.0085
G01 X4.0755 Y5.9905
G01 X4.0229 Y5.9196
G01 X4.0098 Y5.9010
G01 X3.9977 Y5.8818
G01 X3.9523 Y5.8060
G01 X3.9410 Y5.7862
G01 X3.9308 Y5.7659
G01 X3.8931 Y5.6861
G01 X3.8838 Y5.6653
G01 X3.8757 Y5.6440
G01 X3.8459 Y5.5609
G01 X3.8388 Y5.5393
G01 X3.8327 Y5.5174
G01 X3.8112 Y5.4317
G01 X3.8063 Y5.4095
G01 X3.8024 Y5.3871
G01 X3.7894 Y5.2997
G01 X3.7866 Y5.2771
G01 X3.7856 Y5.2658
G01 X3.7806 Y5.1662
G01 X3.7801 Y5.1435
G01 X3.7806 Y5.1208
G01 X3.7849 Y5.0325
G01 X3.7866 Y5.0099
G01 X3.7894 Y4.9873
G01 X3.8024 Y4.8999
G01 X3.8063 Y4.8775
G01 X3.8112 Y4.8553
G01 X3.8327 Y4.7696
G01 X3.8388 Y4.7477
G01 X3.8459 Y4.7261
G01 X3.8757 Y4.6430
G01 X3.8838 Y4.6217
G01 X3.8931 Y4.6009
G01 X3.9308 Y4.5211
G01 X3.9410 Y4.5008
G01 X3.9523 Y4.4810
G01 X3.9977 Y4.4052
G01 X4.0098 Y4.3860
G01 X4.0229 Y4.3674
G01 X4.0755 Y4.2965
G01 X4.0895 Y4.2785
G01 X4.1044 Y4.2613
G01 X4.1637 Y4.1959
G01 X4.1794 Y4.1794
G01 X4.1959 Y4.1637
G01 X4.2613 Y4.1044
G01 X4.2785 Y4.0895
G01 X4.2965 Y4.0755
G01 X4.3674 Y4.0229
G01 X4.3860 Y4.0098
G01 X4.4052 Y3.9977
G01 X4.4810 Y3.9523
G01 X4.5008 Y3.9410
G01 X4.5211 Y3.9308
G01 X4.6009 Y3.8931
G01 X4.6217 Y3.8838
G01 X4.6430 Y3.8757
G01 X4.7261 Y3.8459
G01 X4.7477 Y3.8388
G01 X4.7696 Y3.8327
G01 X4.8553 Y3.8112
G01 X4.8775 Y3.8063
G01 X4.8999 Y3.8024
G01 X4.9873 Y3.7894
G01 X5.0099 Y3.7866
G01 X5.0325 Y3.7849
G01 X5.1208 Y3.7806
G01 X5.1435 Y3.7801
G01 X5.1662 Y3.7806
G01 X5.2545 Y3.7849
G01 X5.2771 Y3.7866
G01 X5.2997 Y3.7894
G01 X5.3871 Y3.8024
G01 X5.4095 Y3.8063
G01 X5.4317 Y3.8112
G01 X5.5174 Y3.8327
G01 X5.5284 Y3.8356
G01 X5.5501 Y3.8422
G01 X5.6440 Y3.8757
G01 X5.6653 Y3.8838
G01 X5.6861 Y3.8931
G01 X5.7659 Y3.9308
G01 X5.7862 Y3.9410
G01 X5.8060 Y3.9523
G01 X5.8818 Y3.9977
G01 X5.9010 Y4.0098
G01 X5.9196 Y4.0229
G01 X5.9905 Y4.0755
G01 X6.0085 Y4.0895
G01 X6.0257 Y4.1044
G01 X6.0911 Y4.1637
G01 X6.1080 Y4.1799
G01 X16.8790 Y4.1799
G01 X16.8959 Y4.1637
G01 X16.9613 Y4.1044
G01 X16.9785 Y4.0895
G01 X16.9965 Y4.0755
G01 X17.0674 Y4.0229
G01 X17.0860 Y4.0098
G01 X17.1052 Y3.9977
G01 X17.1810 Y3.9523
G01 X17.2008 Y3.9410
G01 X17.2211 Y3.9308
G01 X17.3009 Y3.8931
G01 X17.3217 Y3.8838
G01 X17.3430 Y3.8757
G01 X17.4369 Y3.8422
G01 X17.4586 Y3.8356
G01 X17.4696 Y3.8327
G01 X17.5553 Y3.8112
G01 X17.5775 Y3.8063
G01 X17.5999 Y3.8024
G01 X17.6873 Y3.7894
G01 X17.7099 Y3.7866
G01 X17.7212 Y3.7856
G01 X17.8321 Y3.7802
G01 X17.8435 Y3.7801
G01 X17.8662 Y3.7806
G01 X17.9545 Y3.7849
G01 X17.9771 Y3.7866
G01 X17.9997 Y3.7894
G01 X18.0871 Y3.8024
G01 X18.1095 Y3.8063
G01 X18.1317 Y3.8112
G01 X18.2174 Y3.8327
G01 X18.2393 Y3.8388
G01 X18.2609 Y3.8459
G01 X18.3440 Y3.8757
G01 X18.3653 Y3.8838
G01 X18.3861 Y3.8931
G01 X18.4761 Y3.9358
G01 X18.4862 Y3.9410
G01 X18.5060 Y3.9523
G01 X18.5818 Y3.9977
G01 X18.6010 Y4.0098
G01 X18.6196 Y4.0229
G01 X18.6905 Y4.0755
G01 X18.7085 Y4.0895
G01 X18.7257 Y4.1044
G01 X18.7911 Y4.1637
G01 X18.8076 Y4.1794
G01 X18.8233 Y4.1959
G01 X18.8826 Y4.2613
G01 X18.8901 Y4.2698
G01 X18.9046 Y4.2874
G01 X18.9641 Y4.3674
G01 X18.9772 Y4.3860
G01 X18.9893 Y4.4052
G01 X19.0405 Y4.4908
G01 X19.0512 Y4.5109
G01 X19.0562 Y4.5211
G01 X19.0939 Y4.6009
G01 X19.1032 Y4.6217
G01 X19.1113 Y4.6430
G01 X19.1411 Y4.7261
G01 X19.1482 Y4.7477
G01 X19.1543 Y4.7696
G01 X19.1758 Y4.8553
G01 X19.1807 Y4.8775
G01 X19.1828 Y4.8887
G01 X19.1991 Y4.9986
G01 X19.2014 Y5.0212
G01 X19.2021 Y5.0325
G01 X19.2064 Y5.1208
G01 X19.2069 Y5.1435
G01 X19.2064 Y5.1662
G01 X19.2021 Y5.2545
G01 X19.2004 Y5.2771
G01 X19.1976 Y5.2997
G01 X19.1846 Y5.3871
G01 X19.1807 Y5.4095
G01 X19.1758 Y5.4317
G01 X19.1543 Y5.5174
G01 X19.1482 Y5.5393
G01 X19.1411 Y5.5609
G01 X19.1113 Y5.6440
G01 X19.1032 Y5.6653
G01 X19.0939 Y5.6861
G01 X19.0562 Y5.7659
G01 X19.0512 Y5.7761
G01 X19.0405 Y5.7962
G01 X18.9893 Y5.8818
G01 X18.9772 Y5.9010
G01 X18.9641 Y5.9196
G01 X18.9115 Y5.9905
G01 X18.8975 Y6.0085
G01 X18.8826 Y6.0257
G01 X18.8233 Y6.0911
G01 X18.8071 Y6.1080
G01 X18.8071 Y6.7190
G01 X18.8233 Y6.7359
G01 X18.8826 Y6.8013
G01 X18.8975 Y6.8185
G01 X18.9115 Y6.8365
G01 X18.9641 Y6.9074
G01 X18.9772 Y6.9260
G01 X18.9893 Y6.9452
G01 X19.0347 Y7.0210
G01 X19.0460 Y7.0408
G01 X19.0562 Y7.0611
G01 X19.0939 Y7.1409
G01 X19.1032 Y7.1617
G01 X19.1113 Y7.1830
G01 X19.1411 Y7.2661
G01 X19.1482 Y7.2877
G01 X19.1543 Y7.3096
G01 X19.1758 Y7.3953
G01 X19.1807 Y7.4175
G01 X19.1846 Y7.4399
G01 X19.1976 Y7.5273
G01 X19.2004 Y7.5499
G01 X19.2021 Y7.5725
G01 X19.2064 Y7.6608
G01 X19.2069 Y7.6835
G01 X19.2064 Y7.7062
G01 X19.2021 Y7.7945
G01 X19.2014 Y7.8058
G01 X19.1991 Y7.8284
G01 X19.1828 Y7.9383
G01 X19.1784 Y7.9606
G01 X19.1758 Y7.9717
G01 X19.1543 Y8.0574
G01 X19.1482 Y8.0793
G01 X19.1411 Y8.1009
G01 X19.1113 Y8.1840
G01 X19.1032 Y8.2053
G01 X19.0939 Y8.2261
G01 X19.0562 Y8.3059
G01 X19.0460 Y8.3262
G01 X19.0347 Y8.3460
G01 X18.9893 Y8.4218
G01 X18.9772 Y8.4410
G01 X18.9641 Y8.4596
G01 X18.9115 Y8.5305
G01 X18.8975 Y8.5485
G01 X18.8826 Y8.5657
G01 X18.8233 Y8.6311
G01 X18.8076 Y8.6476
G01 X18.7911 Y8.6633
G01 X18.7257 Y8.7226
G01 X18.7085 Y8.7375
G01 X18.6905 Y8.7515
G01 X18.6196 Y8.8041
G01 X18.6010 Y8.8172
G01 X18.5818 Y8.8293
G01 X18.5060 Y8.8747
G01 X18.4862 Y8.8860
G01 X18.4659 Y8.8962
G01 X18.3757 Y8.9387
G01 X18.3547 Y8.9474
G01 X18.3380 Y8.9535
G01 X18.3653 Y8.9638
G01 X18.3861 Y8.9731
G01 X18.4761 Y9.0158
G01 X18.4862 Y9.0210
G01 X18.5060 Y9.0323
G01 X18.5818 Y9.0777
G01 X18.6010 Y9.0898
G01 X18.6196 Y9.1029
G01 X18.6905 Y9.1555
G01 X18.7085 Y9.1695
G01 X18.7257 Y9.1844
G01 X18.7911 Y9.2437
G01 X18.8076 Y9.2594
G01 X18.8233 Y9.2759
G01 X18.8826 Y9.3413
G01 X18.8901 Y9.3498
G01 X18.9046 Y9.3674
G01 X18.9641 Y9.4474
G01 X18.9772 Y9.4660
G01 X18.9893 Y9.4852
G01 X19.0347 Y9.5610
G01 X19.0460 Y9.5808
G01 X19.0562 Y9.6011
G01 X19.0939 Y9.6809
G01 X19.1032 Y9.7017
G01 X19.1113 Y9.7230
G01 X19.1411 Y9.8061
G01 X19.1482 Y9.8277
G01 X19.1543 Y9.8496
G01 X19.1758 Y9.9353
G01 X19.1807 Y9.9575
G01 X19.1846 Y9.9799
G01 X19.1991 Y10.0786
G01 X19.2014 Y10.1012
G01 X19.2021 Y10.1125
G01 X19.2064 Y10.2008
G01 X19.2069 Y10.2235
G01 X19.2064 Y10.2462
G01 X19.2021 Y10.3345
G01 X19.2004 Y10.3571
G01 X19.1991 Y10.3684
G01 X19.1846 Y10.4671
G01 X19.1807 Y10.4895
G01 X19.1758 Y10.5117
G01 X19.1543 Y10.5974
G01 X19.1482 Y10.6193
G01 X19.1411 Y10.6409
G01 X19.1113 Y10.7240
G01 X19.1032 Y10.7453
G01 X19.0939 Y10.7661
G01 X19.0562 Y10.8459
G01 X19.0460 Y10.8662
G01 X19.0347 Y10.8860
G01 X18.9893 Y10.9618
G01 X18.9772 Y10.9810
G01 X18.9641 Y10.9996
G01 X18.9046 Y11.0796
G01 X18.8901 Y11.0972
G01 X18.8826 Y11.1057
G01 X18.8233 Y11.1711
G01 X18.8076 Y11.1876
G01 X18.7911 Y11.2033
G01 X18.7257 Y11.2626
G01 X18.7085 Y11.2775
G01 X18.6905 Y11.2915
G01 X18.6196 Y11.3441
G01 X18.6010 Y11.3572
G01 X18.5818 Y11.3693
G01 X18.5060 Y11.4147
G01 X18.4862 Y11.4260
G01 X18.4659 Y11.4362
G01 X18.3757 Y11.4787
G01 X18.3547 Y11.4874
G01 X18.3380 Y11.4935
G01 X18.3653 Y11.5038
G01 X18.3861 Y11.5131
G01 X18.4761 Y11.5558
G01 X18.4862 Y11.5610
G01 X18.5060 Y11.5723
G01 X18.5818 Y11.6177
G01 X18.6010 Y11.6298
G01 X18.6196 Y11.6429
G01 X18.6905 Y11.6955
G01 X18.7085 Y11.7095
G01 X18.7257 Y11.7244
G01 X18.7911 Y11.7837
G01 X18.8076 Y11.7994
G01 X18.8233 Y11.8159
G01 X18.8826 Y11.8813
G01 X18.8975 Y11.8985
G01 X18.9115 Y11.9165
G01 X18.9641 Y11.9874
G01 X18.9707 Y11.9966
G01 X18.9834 Y12.0155
G01 X19.0347 Y12.1010
G01 X19.0460 Y12.1208
G01 X19.0562 Y12.1411
G01 X19.0987 Y12.2313
G01 X19.1032 Y12.2417
G01 X19.1113 Y12.2630
G01 X19.1411 Y12.3461
G01 X19.1482 Y12.3677
G01 X19.1543 Y12.3896
G01 X19.1758 Y12.4753
G01 X19.1807 Y12.4975
G01 X19.1846 Y12.5199
G01 X19.1976 Y12.6073
G01 X19.2004 Y12.6299
G01 X19.2021 Y12.6525
G01 X19.2064 Y12.7408
G01 X19.2069 Y12.7635
G01 X19.2064 Y12.7862
G01 X19.2014 Y12.8858
G01 X19.2004 Y12.8971
G01 X19.1976 Y12.9197
G01 X19.1846 Y13.0071
G01 X19.1807 Y13.0295
G01 X19.1758 Y13.0517
G01 X19.1543 Y13.1374
G01 X19.1482 Y13.1593
G01 X19.1411 Y13.1809
G01 X19.1113 Y13.2640
G01 X19.1032 Y13.2853
G01 X19.0939 Y13.3061
G01 X19.0562 Y13.3859
G01 X19.0460 Y13.4062
G01 X19.0347 Y13.4260
G01 X18.9893 Y13.5018
G01 X18.9772 Y13.5210
G01 X18.9641 Y13.5396
G01 X18.9115 Y13.6105
G01 X18.8975 Y13.6285
G01 X18.8826 Y13.6457
G01 X18.8233 Y13.7111
G01 X18.8076 Y13.7276
G01 X18.7995 Y13.7355
G01 X18.7257 Y13.8026
G01 X18.7085 Y13.8175
G01 X18.6905 Y13.8315
G01 X18.6196 Y13.8841
G01 X18.6010 Y13.8972
G01 X18.5818 Y13.9093
G01 X18.5060 Y13.9547
G01 X18.4862 Y13.9660
G01 X18.4659 Y13.9762
G01 X18.3757 Y14.0187
G01 X18.3547 Y14.0274
G01 X18.3380 Y14.0335
G01 X18.3653 Y14.0438
G01 X18.3861 Y14.0531
G01 X18.4761 Y14.0958
G01 X18.4862 Y14.1010
G01 X18.5060 Y14.1123
G01 X18.5818 Y14.1577
G01 X18.6010 Y14.1698
G01 X18.6196 Y14.1829
G01 X18.6905 Y14.2355
G01 X18.7085 Y14.2495
G01 X18.7257 Y14.2644
G01 X18.7911 Y14.3237
G01 X18.8076 Y14.3394
G01 X18.8233 Y14.3559
G01 X18.8826 Y14.4213
G01 X18.8975 Y14.4385
G01 X18.9115 Y14.4565
G01 X18.9641 Y14.5274
G01 X18.9772 Y14.5460
G01 X18.9834 Y14.5555
G01 X19.0347 Y14.6410
G01 X19.0460 Y14.6608
G01 X19.0562 Y14.6811
G01 X19.0987 Y14.7713
G01 X19.1032 Y14.7817
G01 X19.1113 Y14.8030
G01 X19.1411 Y14.8861
G01 X19.1482 Y14.9077
G01 X19.1543 Y14.9296
G01 X19.1758 Y15.0153
G01 X19.1807 Y15.0375
G01 X19.1846 Y15.0599
G01 X19.1976 Y15.1473
G01 X19.2004 Y15.1699
G01 X19.2021 Y15.1925
G01 X19.2064 Y15.2808
G01 X19.2069 Y15.3035
G01 X19.2064 Y15.3262
G01 X19.2014 Y15.4258
G01 X19.1991 Y15.4484
G01 X19.1976 Y15.4597
G01 X19.1846 Y15.5471
G01 X19.1807 Y15.5695
G01 X19.1758 Y15.5917
G01 X19.1543 Y15.6774
G01 X19.1482 Y15.6993
G01 X19.1411 Y15.7209
G01 X19.1113 Y15.8040
G01 X19.1032 Y15.8253
G01 X19.0939 Y15.8461
G01 X19.0562 Y15.9259
G01 X19.0460 Y15.9462
G01 X19.0347 Y15.9660
G01 X18.9893 Y16.0418
G01 X18.9772 Y16.0610
G01 X18.9641 Y16.0796
G01 X18.9115 Y16.1505
G01 X18.8975 Y16.1685
G01 X18.8826 Y16.1857
G01 X18.8233 Y16.2511
G01 X18.8076 Y16.2676
G01 X18.7995 Y16.2755
G01 X18.7257 Y16.3426
G01 X18.7085 Y16.3575
G01 X18.6905 Y16.3715
G01 X18.6196 Y16.4241
G01 X18.6010 Y16.4372
G01 X18.5818 Y16.4493
G01 X18.5060 Y16.4947
G01 X18.4862 Y16.5060
G01 X18.4659 Y16.5162
G01 X18.3757 Y16.5587
G01 X18.3547 Y16.5674
G01 X18.3380 Y16.5735
G01 X18.3653 Y16.5838
G01 X18.3861 Y16.5931
G01 X18.4761 Y16.6358
G01 X18.4862 Y16.6410
G01 X18.5060 Y16.6523
G01 X18.5818 Y16.6977
G01 X18.6010 Y16.7098
G01 X18.6196 Y16.7229
G01 X18.6905 Y16.7755
G01 X18.7085 Y16.7895
G01 X18.7257 Y16.8044
G01 X18.7911 Y16.8637
G01 X18.8076 Y16.8794
G01 X18.8233 Y16.8959
G01 X18.8826 Y16.9613
G01 X18.8975 Y16.9785
G01 X18.9115 Y16.9965
G01 X18.9641 Y17.0674
G01 X18.9707 Y17.0766
G01 X18.9834 Y17.0955
G01 X19.0347 Y17.1810
G01 X19.0460 Y17.2008
G01 X19.0562 Y17.2211
G01 X19.0987 Y17.3113
G01 X19.1074 Y17.3323
G01 X19.1113 Y17.3430
G01 X19.1411 Y17.4261
G01 X19.1482 Y17.4477
G01 X19.1543 Y17.4696
G01 X19.1758 Y17.5553
G01 X19.1807 Y17.5775
G01 X19.1846 Y17.5999
G01 X19.1976 Y17.6873
G01 X19.2004 Y17.7099
G01 X19.2021 Y17.7325
G01 X19.2064 Y17.8208
G01 X19.2069 Y17.8435
G01 X19.2064 Y17.8662
G01 X19.2021 Y17.9545
G01 X19.2004 Y17.9771
G01 X19.1976 Y17.9997
G01 X19.1846 Y18.0871
G01 X19.1807 Y18.1095
G01 X19.1784 Y18.1206
G01 X19.1543 Y18.2174
G01 X19.1482 Y18.2393
G01 X19.1411 Y18.2609
G01 X19.1074 Y18.3547
G01 X19.1032 Y18.3653
G01 X19.0939 Y18.3861
G01 X19.0562 Y18.4659
G01 X19.0460 Y18.4862
G01 X19.0347 Y18.5060
G01 X18.9893 Y18.5818
G01 X18.9772 Y18.6010
G01 X18.9641 Y18.6196
G01 X18.9115 Y18.6905
G01 X18.8975 Y18.7085
G01 X18.8826 Y18.7257
G01 X18.8233 Y18.7911
G01 X18.8155 Y18.7995
G01 X18.7995 Y18.8155
G01 X18.7257 Y18.8826
G01 X18.7085 Y18.8975
G01 X18.6905 Y18.9115
G01 X18.6196 Y18.9641
G01 X18.6010 Y18.9772
G01 X18.5818 Y18.9893
G01 X18.5060 Y19.0347
G01 X18.4862 Y19.0460
G01 X18.4659 Y19.0562
G01 X18.3757 Y19.0987
G01 X18.3547 Y19.1074
G01 X18.3380 Y19.1135
G01 X18.3653 Y19.1238
G01 X18.3861 Y19.1331
G01 X18.4761 Y19.1758
G01 X18.4862 Y19.1810
G01 X18.5060 Y19.1923
G01 X18.5818 Y19.2377
G01 X18.6010 Y19.2498
G01 X18.6196 Y19.2629
G01 X18.6905 Y19.3155
G01 X18.7085 Y19.3295
G01 X18.7257 Y19.3444
G01 X18.7911 Y19.4037
G01 X18.8076 Y19.4194
G01 X18.8233 Y19.4359
G01 X18.8826 Y19.5013
G01 X18.8975 Y19.5185
G01 X18.9115 Y19.5365
G01 X18.9641 Y19.6074
G01 X18.9772 Y19.6260
G01 X18.9893 Y19.6452
G01 X19.0347 Y19.7210
G01 X19.0460 Y19.7408
G01 X19.0562 Y19.7611
G01 X19.0939 Y19.8409
G01 X19.1032 Y19.8617
G01 X19.1113 Y19.8830
G01 X19.1411 Y19.9661
G01 X19.1482 Y19.9877
G01 X19.1543 Y20.0096
G01 X19.1758 Y20.0953
G01 X19.1807 Y20.1175
G01 X19.1846 Y20.1399
G01 X19.1976 Y20.2273
G01 X19.2004 Y20.2499
G01 X19.2021 Y20.2725
G01 X19.2068 Y20.3721
G01 X19.2069 Y20.3835
G01 X19.2064 Y20.4062
G01 X19.2021 Y20.4945
G01 X19.2004 Y20.5171
G01 X19.1976 Y20.5397
G01 X19.1846 Y20.6271
G01 X19.1807 Y20.6495
G01 X19.1758 Y20.6717
G01 X19.1543 Y20.7574
G01 X19.1482 Y20.7793
G01 X19.1411 Y20.8009
G01 X19.1113 Y20.8840
G01 X19.1032 Y20.9053
G01 X19.0939 Y20.9261
G01 X19.0562 Y21.0059
G01 X19.0460 Y21.0262
G01 X19.0347 Y21.0460
G01 X18.9893 Y21.1218
G01 X18.9772 Y21.1410
G01 X18.9707 Y21.1504
G01 X18.9115 Y21.2305
G01 X18.8975 Y21.2485
G01 X18.8826 Y21.2657
G01 X18.8233 Y21.3311
G01 X18.8076 Y21.3476
G01 X18.7911 Y21.3633
G01 X18.7257 Y21.4226
G01 X18.7085 Y21.4375
G01 X18.6996 Y21.4446
G01 X18.6196 Y21.5041
G01 X18.6010 Y21.5172
G01 X18.5818 Y21.5293
G01 X18.4962 Y21.5805
G01 X18.4862 Y21.5860
G01 X18.4659 Y21.5962
G01 X18.3861 Y21.6339
G01 X18.3653 Y21.6432
G01 X18.3380 Y21.6535
G01 X18.3653 Y21.6638
G01 X18.3861 Y21.6731
G01 X18.4761 Y21.7158
G01 X18.4862 Y21.7210
G01 X18.5060 Y21.7323
G01 X18.5818 Y21.7777
G01 X18.6010 Y21.7898
G01 X18.6196 Y21.8029
G01 X18.6905 Y21.8555
G01 X18.7085 Y21.8695
G01 X18.7257 Y21.8844
G01 X18.7911 Y21.9437
G01 X18.8076 Y21.9594
G01 X18.8233 Y21.9759
G01 X18.8826 Y22.0413
G01 X18.8975 Y22.0585
G01 X18.9115 Y22.0765
G01 X18.9641 Y22.1474
G01 X18.9772 Y22.1660
G01 X18.9893 Y22.1852
G01 X19.0347 Y22.2610
G01 X19.0460 Y22.2808
G01 X19.0562 Y22.3011
G01 X19.0939 Y22.3809
G01 X19.1032 Y22.4017
G01 X19.1113 Y22.4230
G01 X19.1411 Y22.5061
G01 X19.1482 Y22.5277
G01 X19.1543 Y22.5496
G01 X19.1758 Y22.6353
G01 X19.1807 Y22.6575
G01 X19.1846 Y22.6799
G01 X19.1976 Y22.7673
G01 X19.2004 Y22.7899
G01 X19.2021 Y22.8125
G01 X19.2068 Y22.9121
G01 X19.2069 Y22.9235
G01 X19.2064 Y22.9462
G01 X19.2021 Y23.0345
G01 X19.2004 Y23.0571
G01 X19.1976 Y23.0797
G01 X19.1846 Y23.1671
G01 X19.1807 Y23.1895
G01 X19.1758 Y23.2117
G01 X19.1543 Y23.2974
G01 X19.1482 Y23.3193
G01 X19.1411 Y23.3409
G01 X19.1113 Y23.4240
G01 X19.1032 Y23.4453
G01 X19.0939 Y23.4661
G01 X19.0562 Y23.5459
G01 X19.0460 Y23.5662
G01 X19.0347 Y23.5860
G01 X18.9893 Y23.6618
G01 X18.9834 Y23.6715
G01 X18.9707 Y23.6904
G01 X18.9115 Y23.7705
G01 X18.8975 Y23.7885
G01 X18.8826 Y23.8057
G01 X18.8233 Y23.8711
G01 X18.8076 Y23.8876
G01 X18.7911 Y23.9033
G01 X18.7257 Y23.9626
G01 X18.7085 Y23.9775
G01 X18.6996 Y23.9846
G01 X18.6196 Y24.0441
G01 X18.6010 Y24.0572
G01 X18.5818 Y24.0693
G01 X18.4962 Y24.1205
G01 X18.4862 Y24.1260
G01 X18.4659 Y24.1362
G01 X18.3861 Y24.1739
G01 X18.3653 Y24.1832
G01 X18.3380 Y24.1935
G01 X18.3653 Y24.2038
G01 X18.3861 Y24.2131
G01 X18.4761 Y24.2558
G01 X18.4962 Y24.2665
G01 X18.5060 Y24.2723
G01 X18.5818 Y24.3177
G01 X18.6010 Y24.3298
G01 X18.6196 Y24.3429
G01 X18.6905 Y24.3955
G01 X18.7085 Y24.4095
G01 X18.7257 Y24.4244
G01 X18.7911 Y24.4837
G01 X18.8076 Y24.4994
G01 X18.8233 Y24.5159
G01 X18.8826 Y24.5813
G01 X18.8975 Y24.5985
G01 X18.9115 Y24.6165
G01 X18.9641 Y24.6874
G01 X18.9772 Y24.7060
G01 X18.9893 Y24.7252
G01 X19.0347 Y24.8010
G01 X19.0460 Y24.8208
G01 X19.0562 Y24.8411
G01 X19.0939 Y24.9209
G01 X19.1032 Y24.9417
G01 X19.1113 Y24.9630
G01 X19.1411 Y25.0461
G01 X19.1482 Y25.0677
G01 X19.1543 Y25.0896
G01 X19.1758 Y25.1753
G01 X19.1807 Y25.1975
G01 X19.1846 Y25.2199
G01 X19.1976 Y25.3073
G01 X19.2004 Y25.3299
G01 X19.2021 Y25.3525
G01 X19.2064 Y25.4408
G01 X19.2068 Y25.4521
G01 X19.2068 Y25.4749
G01 X19.2021 Y25.5745
G01 X19.2004 Y25.5971
G01 X19.1976 Y25.6197
G01 X19.1846 Y25.7071
G01 X19.1807 Y25.7295
G01 X19.1758 Y25.7517
G01 X19.1543 Y25.8374
G01 X19.1482 Y25.8593
G01 X19.1411 Y25.8809
G01 X19.1113 Y25.9640
G01 X19.1032 Y25.9853
G01 X19.0939 Y26.0061
G01 X19.0562 Y26.0859
G01 X19.0460 Y26.1062
G01 X19.0347 Y26.1260
G01 X18.9893 Y26.2018
G01 X18.9772 Y26.2210
G01 X18.9707 Y26.2304
G01 X18.9115 Y26.3105
G01 X18.8975 Y26.3285
G01 X18.8826 Y26.3457
G01 X18.8233 Y26.4111
G01 X18.8076 Y26.4276
G01 X18.7911 Y26.4433
G01 X18.7257 Y26.5026
G01 X18.7085 Y26.5175
G01 X18.6996 Y26.5246
G01 X18.6196 Y26.5841
G01 X18.6010 Y26.5972
G01 X18.5818 Y26.6093
G01 X18.4962 Y26.6605
G01 X18.4761 Y26.6712
G01 X18.4659 Y26.6762
G01 X18.3861 Y26.7139
G01 X18.3653 Y26.7232
G01 X18.3380 Y26.7335
G01 X18.3653 Y26.7438
G01 X18.3861 Y26.7531
G01 X18.4761 Y26.7958
G01 X18.4962 Y26.8065
G01 X18.5060 Y26.8123
G01 X18.5818 Y26.8577
G01 X18.6010 Y26.8698
G01 X18.6196 Y26.8829
G01 X18.6905 Y26.9355
G01 X18.7085 Y26.9495
G01 X18.7257 Y26.9644
G01 X18.7911 Y27.0237
G01 X18.8076 Y27.0394
G01 X18.8233 Y27.0559
G01 X18.8826 Y27.1213
G01 X18.8975 Y27.1385
G01 X18.9115 Y27.1565
G01 X18.9641 Y27.2274
G01 X18.9772 Y27.2460
G01 X18.9893 Y27.2652
G01 X19.0347 Y27.3410
G01 X19.0460 Y27.3608
G01 X19.0562 Y27.3811
G01 X19.0939 Y27.4609
G01 X19.1032 Y27.4817
G01 X19.1113 Y27.5030
G01 X19.1411 Y27.5861
G01 X19.1482 Y27.6077
G01 X19.1543 Y27.6296
G01 X19.1758 Y27.7153
G01 X19.1807 Y27.7375
G01 X19.1846 Y27.7599
G01 X19.1976 Y27.8473
G01 X19.2004 Y27.8699
G01 X19.2021 Y27.8925
G01 X19.2064 Y27.9808
G01 X19.2068 Y27.9921
G01 X19.2068 Y28.0149
G01 X19.2021 Y28.1145
G01 X19.2004 Y28.1371
G01 X19.1976 Y28.1597
G01 X19.1846 Y28.2471
G01 X19.1807 Y28.2695
G01 X19.1758 Y28.2917
G01 X19.1543 Y28.3774
G01 X19.1482 Y28.3993
G01 X19.1411 Y28.4209
G01 X19.1113 Y28.5040
G01 X19.1032 Y28.5253
G01 X19.0939 Y28.5461
G01 X19.0562 Y28.6259
G01 X19.0460 Y28.6462
G01 X19.0347 Y28.6660
G01 X18.9893 Y28.7418
G01 X18.9834 Y28.7515
G01 X18.9707 Y28.7704
G01 X18.9115 Y28.8505
G01 X18.8975 Y28.8685
G01 X18.8826 Y28.8857
G01 X18.8233 Y28.9511
G01 X18.8076 Y28.9676
G01 X18.7911 Y28.9833
G01 X18.7257 Y29.0426
G01 X18.7172 Y29.0501
G01 X18.6996 Y29.0646
G01 X18.6196 Y29.1241
G01 X18.6010 Y29.1372
G01 X18.5818 Y29.1493
G01 X18.4962 Y29.2005
G01 X18.4862 Y29.2060
G01 X18.4659 Y29.2162
G01 X18.3861 Y29.2539
G01 X18.3653 Y29.2632
G01 X18.3380 Y29.2735
G01 X18.3653 Y29.2838
G01 X18.3861 Y29.2931
G01 X18.4761 Y29.3358
G01 X18.4962 Y29.3465
G01 X18.5060 Y29.3523
G01 X18.5818 Y29.3977
G01 X18.6010 Y29.4098
G01 X18.6196 Y29.4229
G01 X18.6905 Y29.4755
G01 X18.7085 Y29.4895
G01 X18.7257 Y29.5044
G01 X18.7911 Y29.5637
G01 X18.8076 Y29.5794
G01 X18.8233 Y29.5959
G01 X18.8826 Y29.6613
G01 X18.8975 Y29.6785
G01 X18.9115 Y29.6965
G01 X18.9641 Y29.7674
G01 X18.9772 Y29.7860
G01 X18.9893 Y29.8052
G01 X19.0347 Y29.8810
G01 X19.0460 Y29.9008
G01 X19.0562 Y29.9211
G01 X19.0939 Y30.0009
G01 X19.1032 Y30.0217
G01 X19.1113 Y30.0430
G01 X19.1411 Y30.1261
G01 X19.1482 Y30.1477
G01 X19.1543 Y30.1696
G01 X19.1758 Y30.2553
G01 X19.1807 Y30.2775
G01 X19.1846 Y30.2999
G01 X19.1976 Y30.3873
G01 X19.2004 Y30.4099
G01 X19.2021 Y30.4325
G01 X19.2064 Y30.5208
G01 X19.2068 Y30.5321
G01 X19.2068 Y30.5549
G01 X19.2021 Y30.6545
G01 X19.2004 Y30.6771
G01 X19.1976 Y30.6997
G01 X19.1846 Y30.7871
G01 X19.1807 Y30.8095
G01 X19.1758 Y30.8317
G01 X19.1543 Y30.9174
G01 X19.1482 Y30.9393
G01 X19.1411 Y30.9609
G01 X19.1113 Y31.0440
G01 X19.1032 Y31.0653
G01 X19.0939 Y31.0861
G01 X19.0562 Y31.1659
G01 X19.0460 Y31.1862
G01 X19.0347 Y31.2060
G01 X18.9893 Y31.2818
G01 X18.9772 Y31.3010
G01 X18.9707 Y31.3104
G01 X18.9115 Y31.3905
G01 X18.8975 Y31.4085
G01 X18.8826 Y31.4257
G01 X18.8233 Y31.4911
G01 X18.8076 Y31.5076
G01 X18.7911 Y31.5233
G01 X18.7257 Y31.5826
G01 X18.7085 Y31.5975
G01 X18.6996 Y31.6046
G01 X18.6196 Y31.6641
G01 X18.6010 Y31.6772
G01 X18.5818 Y31.6893
G01 X18.4962 Y31.7405
G01 X18.4761 Y31.7512
G01 X18.4659 Y31.7562
G01 X18.3861 Y31.7939
G01 X18.3653 Y31.8032
G01 X18.3380 Y31.8135
G01 X18.3653 Y31.8238
G01 X18.3861 Y31.8331
G01 X18.4761 Y31.8758
G01 X18.4862 Y31.8810
G01 X18.5060 Y31.8923
G01 X18.5818 Y31.9377
G01 X18.6010 Y31.9498
G01 X18.6196 Y31.9629
G01 X18.6905 Y32.0155
G01 X18.7085 Y32.0295
G01 X18.7257 Y32.0444
G01 X18.7911 Y32.1037
G01 X18.8076 Y32.1194
G01 X18.8233 Y32.1359
G01 X18.8826 Y32.2013
G01 X18.8975 Y32.2185
G01 X18.9115 Y32.2365
G01 X18.9641 Y32.3074
G01 X18.9772 Y32.3260
G01 X18.9893 Y32.3452
G01 X19.0347 Y32.4210
G01 X19.0460 Y32.4408
G01 X19.0562 Y32.4611
G01 X19.0939 Y32.5409
G01 X19.1032 Y32.5617
G01 X19.1113 Y32.5830
G01 X19.1411 Y32.6661
G01 X19.1482 Y32.6877
G01 X19.1543 Y32.7096
G01 X19.1758 Y32.7953
G01 X19.1807 Y32.8175
G01 X19.1846 Y32.8399
G01 X19.1976 Y32.9273
G01 X19.2004 Y32.9499
G01 X19.2021 Y32.9725
G01 X19.2064 Y33.0608
G01 X19.2068 Y33.0721
G01 X19.2068 Y33.0949
G01 X19.2021 Y33.1945
G01 X19.2004 Y33.2171
G01 X19.1976 Y33.2397
G01 X19.1846 Y33.3271
G01 X19.1807 Y33.3495
G01 X19.1758 Y33.3717
G01 X19.1543 Y33.4574
G01 X19.1482 Y33.4793
G01 X19.1411 Y33.5009
G01 X19.1113 Y33.5840
G01 X19.1032 Y33.6053
G01 X19.0939 Y33.6261
G01 X19.0562 Y33.7059
G01 X19.0460 Y33.7262
G01 X19.0347 Y33.7460
G01 X18.9893 Y33.8218
G01 X18.9834 Y33.8315
G01 X18.9707 Y33.8504
G01 X18.9115 Y33.9305
G01 X18.8975 Y33.9485
G01 X18.8826 Y33.9657
G01 X18.8233 Y34.0311
G01 X18.8076 Y34.0476
G01 X18.7911 Y34.0633
G01 X18.7257 Y34.1226
G01 X18.7172 Y34.1301
G01 X18.6996 Y34.1446
G01 X18.6196 Y34.2041
G01 X18.6010 Y34.2172
G01 X18.5818 Y34.2293
G01 X18.4962 Y34.2805
G01 X18.4862 Y34.2860
G01 X18.4659 Y34.2962
G01 X18.3861 Y34.3339
G01 X18.3653 Y34.3432
G01 X18.3380 Y34.3535
G01 X18.3653 Y34.3638
G01 X18.3861 Y34.3731
G01 X18.4761 Y34.4158
G01 X18.4862 Y34.4210
G01 X18.5060 Y34.4323
G01 X18.5818 Y34.4777
G01 X18.6010 Y34.4898
G01 X18.6196 Y34.5029
G01 X18.6905 Y34.5555
G01 X18.7085 Y34.5695
G01 X18.7257 Y34.5844
G01 X18.7911 Y34.6437
G01 X18.8076 Y34.6594
G01 X18.8233 Y34.6759
G01 X18.8826 Y34.7413
G01 X18.8975 Y34.7585
G01 X18.9115 Y34.7765
G01 X18.9641 Y34.8474
G01 X18.9772 Y34.8660
G01 X18.9893 Y34.8852
G01 X19.0347 Y34.9610
G01 X19.0460 Y34.9808
G01 X19.0562 Y35.0011
G01 X19.0939 Y35.0809
G01 X19.1032 Y35.1017
G01 X19.1113 Y35.1230
G01 X19.1411 Y35.2061
G01 X19.1482 Y35.2277
G01 X19.1543 Y35.2496
G01 X19.1758 Y35.3353
G01 X19.1807 Y35.3575
G01 X19.1846 Y35.3799
G01 X19.1976 Y35.4673
G01 X19.2004 Y35.4899
G01 X19.2021 Y35.5125
G01 X19.2064 Y35.6008
G01 X19.2069 Y35.6235
G01 X19.2068 Y35.6349
G01 X19.2021 Y35.7345
G01 X19.2004 Y35.7571
G01 X19.1976 Y35.7797
G01 X19.1846 Y35.8671
G01 X19.1807 Y35.8895
G01 X19.1758 Y35.9117
G01 X19.1543 Y35.9974
G01 X19.1482 Y36.0193
G01 X19.1411 Y36.0409
G01 X19.1113 Y36.1240
G01 X19.1032 Y36.1453
G01 X19.0939 Y36.1661
G01 X19.0562 Y36.2459
G01 X19.0460 Y36.2662
G01 X19.0347 Y36.2860
G01 X18.9893 Y36.3618
G01 X18.9834 Y36.3715
G01 X18.9707 Y36.3904
G01 X18.9115 Y36.4705
G01 X18.8975 Y36.4885
G01 X18.8826 Y36.5057
G01 X18.8233 Y36.5711
G01 X18.8076 Y36.5876
G01 X18.7911 Y36.6033
G01 X18.7257 Y36.6626
G01 X18.7172 Y36.6701
G01 X18.6996 Y36.6846
G01 X18.6196 Y36.7441
G01 X18.6010 Y36.7572
G01 X18.5818 Y36.7693
G01 X18.4962 Y36.8205
G01 X18.4862 Y36.8260
G01 X18.4659 Y36.8362
G01 X18.3861 Y36.8739
G01 X18.3653 Y36.8832
G01 X18.3380 Y36.8935
G01 X18.3653 Y36.9038
G01 X18.3861 Y36.9131
G01 X18.4761 Y36.9558
G01 X18.4962 Y36.9665
G01 X18.5060 Y36.9723
G01 X18.5818 Y37.0177
G01 X18.6010 Y37.0298
G01 X18.6196 Y37.0429
G01 X18.6905 Y37.0955
G01 X18.7085 Y37.1095
G01 X18.7257 Y37.1244
G01 X18.7911 Y37.1837
G01 X18.8076 Y37.1994
G01 X18.8233 Y37.2159
G01 X18.8826 Y37.2813
G01 X18.8975 Y37.2985
G01 X18.9115 Y37.3165
G01 X18.9641 Y37.3874
G01 X18.9772 Y37.4060
G01 X18.9893 Y37.4252
G01 X19.0347 Y37.5010
G01 X19.0460 Y37.5208
G01 X19.0562 Y37.5411
G01 X19.0939 Y37.6209
G01 X19.1032 Y37.6417
G01 X19.1113 Y37.6630
G01 X19.1411 Y37.7461
G01 X19.1482 Y37.7677
G01 X19.1543 Y37.7896
G01 X19.1758 Y37.8753
G01 X19.1807 Y37.8975
G01 X19.1846 Y37.9199
G01 X19.1976 Y38.0073
G01 X19.2004 Y38.0299
G01 X19.2021 Y38.0525
G01 X19.2064 Y38.1408
G01 X19.2069 Y38.1635
G01 X19.2068 Y38.1749
G01 X19.2021 Y38.2745
G01 X19.2004 Y38.2971
G01 X19.1976 Y38.3197
G01 X19.1846 Y38.4071
G01 X19.1807 Y38.4295
G01 X19.1758 Y38.4517
G01 X19.1543 Y38.5374
G01 X19.1482 Y38.5593
G01 X19.1411 Y38.5809
G01 X19.1113 Y38.6640
G01 X19.1032 Y38.6853
G01 X19.0939 Y38.7061
G01 X19.0562 Y38.7859
G01 X19.0460 Y38.8062
G01 X19.0347 Y38.8260
G01 X18.9893 Y38.9018
G01 X18.9834 Y38.9115
G01 X18.9707 Y38.9304
G01 X18.9115 Y39.0105
G01 X18.8975 Y39.0285
G01 X18.8826 Y39.0457
G01 X18.8233 Y39.1111
G01 X18.8076 Y39.1276
G01 X18.7911 Y39.1433
G01 X18.7257 Y39.2026
G01 X18.7172 Y39.2101
G01 X18.6996 Y39.2246
G01 X18.6196 Y39.2841
G01 X18.6010 Y39.2972
G01 X18.5818 Y39.3093
G01 X18.4962 Y39.3605
G01 X18.4862 Y39.3660
G01 X18.4659 Y39.3762
G01 X18.3861 Y39.4139
G01 X18.3653 Y39.4232
G01 X18.3380 Y39.4335
G01 X18.3653 Y39.4438
G01 X18.3861 Y39.4531
G01 X18.4761 Y39.4958
G01 X18.4962 Y39.5065
G01 X18.5060 Y39.5123
G01 X18.5818 Y39.5577
G01 X18.6010 Y39.5698
G01 X18.6196 Y39.5829
G01 X18.6905 Y39.6355
G01 X18.7085 Y39.6495
G01 X18.7257 Y39.6644
G01 X18.7911 Y39.7237
G01 X18.8076 Y39.7394
G01 X18.8233 Y39.7559
G01 X18.8826 Y39.8213
G01 X18.8975 Y39.8385
G01 X18.9115 Y39.8565
G01 X18.9641 Y39.9274
G01 X18.9772 Y39.9460
G01 X18.9893 Y39.9652
G01 X19.0347 Y40.0410
G01 X19.0460 Y40.0608
G01 X19.0562 Y40.0811
G01 X19.0939 Y40.1609
G01 X19.1032 Y40.1817
G01 X19.1113 Y40.2030
G01 X19.1411 Y40.2861
G01 X19.1482 Y40.3077
G01 X19.1543 Y40.3296
G01 X19.1758 Y40.4153
G01 X19.1807 Y40.4375
G01 X19.1846 Y40.4599
G01 X19.1976 Y40.5473
G01 X19.2004 Y40.5699
G01 X19.2021 Y40.5925
G01 X19.2064 Y40.6808
G01 X19.2069 Y40.7035
G01 X19.2068 Y40.7149
G01 X19.2021 Y40.8145
G01 X19.2004 Y40.8371
G01 X19.1976 Y40.8597
G01 X19.1846 Y40.9471
G01 X19.1807 Y40.9695
G01 X19.1758 Y40.9917
G01 X19.1543 Y41.0774
G01 X19.1482 Y41.0993
G01 X19.1411 Y41.1209
G01 X19.1113 Y41.2040
G01 X19.1032 Y41.2253
G01 X19.0939 Y41.2461
G01 X19.0562 Y41.3259
G01 X19.0460 Y41.3462
G01 X19.0347 Y41.3660
G01 X18.9893 Y41.4418
G01 X18.9834 Y41.4515
G01 X18.9707 Y41.4704
G01 X18.9115 Y41.5505
G01 X18.8975 Y41.5685
G01 X18.8826 Y41.5857
G01 X18.8233 Y41.6511
G01 X18.8076 Y41.6676
G01 X18.7911 Y41.6833
G01 X18.7257 Y41.7426
G01 X18.7172 Y41.7501
G01 X18.6996 Y41.7646
G01 X18.6196 Y41.8241
G01 X18.6010 Y41.8372
G01 X18.5818 Y41.8493
G01 X18.4962 Y41.9005
G01 X18.4862 Y41.9060
G01 X18.4659 Y41.9162
G01 X18.3861 Y41.9539
G01 X18.3653 Y41.9632
G01 X18.3380 Y41.9735
G01 X18.3653 Y41.9838
G01 X18.3861 Y41.9931
G01 X18.4761 Y42.0358
G01 X18.4862 Y42.0410
G01 X18.5060 Y42.0523
G01 X18.5818 Y42.0977
G01 X18.6010 Y42.1098
G01 X18.6196 Y42.1229
G01 X18.6905 Y42.1755
G01 X18.7085 Y42.1895
G01 X18.7257 Y42.2044
G01 X18.7911 Y42.2637
G01 X18.8076 Y42.2794
G01 X18.8233 Y42.2959
G01 X18.8826 Y42.3613
G01 X18.8975 Y42.3785
G01 X18.9115 Y42.3965
G01 X18.9641 Y42.4674
G01 X18.9772 Y42.4860
G01 X18.9893 Y42.5052
G01 X19.0347 Y42.5810
G01 X19.0460 Y42.6008
G01 X19.0562 Y42.6211
G01 X19.0939 Y42.7009
G01 X19.1032 Y42.7217
G01 X19.1113 Y42.7430
G01 X19.1411 Y42.8261
G01 X19.1482 Y42.8477
G01 X19.1543 Y42.8696
G01 X19.1758 Y42.9553
G01 X19.1807 Y42.9775
G01 X19.1846 Y42.9999
G01 X19.1976 Y43.0873
G01 X19.2004 Y43.1099
G01 X19.2021 Y43.1325
G01 X19.2064 Y43.2208
G01 X19.2069 Y43.2435
G01 X19.2068 Y43.2549
G01 X19.2021 Y43.3545
G01 X19.2004 Y43.3771
G01 X19.1976 Y43.3997
G01 X19.1846 Y43.4871
G01 X19.1807 Y43.5095
G01 X19.1758 Y43.5317
G01 X19.1543 Y43.6174
G01 X19.1482 Y43.6393
G01 X19.1411 Y43.6609
G01 X19.1113 Y43.7440
G01 X19.1032 Y43.7653
G01 X19.0939 Y43.7861
G01 X19.0562 Y43.8659
G01 X19.0460 Y43.8862
G01 X19.0347 Y43.9060
G01 X18.9893 Y43.9818
G01 X18.9834 Y43.9915
G01 X18.9707 Y44.0104
G01 X18.9115 Y44.0905
G01 X18.8975 Y44.1085
G01 X18.8826 Y44.1257
G01 X18.8233 Y44.1911
G01 X18.8076 Y44.2076
G01 X18.7911 Y44.2233
G01 X18.7257 Y44.2826
G01 X18.7085 Y44.2975
G01 X18.6996 Y44.3046
G01 X18.6196 Y44.3641
G01 X18.6010 Y44.3772
G01 X18.5818 Y44.3893
G01 X18.4962 Y44.4405
G01 X18.4761 Y44.4512
G01 X18.4659 Y44.4562
G01 X18.3861 Y44.4939
G01 X18.3653 Y44.5032
G01 X18.3440 Y44.5113
G01 X18.2609 Y44.5411
G01 X18.2393 Y44.5482
G01 X18.2174 Y44.5543
G01 X18.1317 Y44.5758
G01 X18.1095 Y44.5807
G01 X18.0871 Y44.5846
G01 X17.9997 Y44.5976
G01 X17.9771 Y44.6004
G01 X17.9545 Y44.6021
G01 X17.8662 Y44.6064
G01 X17.8435 Y44.6069
G01 X17.8208 Y44.6064
G01 X17.7325 Y44.6021
G01 X17.7099 Y44.6004
G01 X17.6873 Y44.5976
G01 X17.5999 Y44.5846
G01 X17.5775 Y44.5807
G01 X17.5553 Y44.5758
G01 X17.4696 Y44.5543
G01 X17.4477 Y44.5482
G01 X17.4261 Y44.5411
G01 X17.3430 Y44.5113
G01 X17.3217 Y44.5032
G01 X17.3009 Y44.4939
G01 X17.2211 Y44.4562
G01 X17.2008 Y44.4460
G01 X17.1810 Y44.4347
G01 X17.1052 Y44.3893
G01 X17.0860 Y44.3772
G01 X17.0674 Y44.3641
G01 X16.9965 Y44.3115
G01 X16.9785 Y44.2975
G01 X16.9613 Y44.2826
G01 X16.8959 Y44.2233
G01 X16.8790 Y44.2071
G01 X6.1080 Y44.2071
G01 X6.0911 Y44.2233
G01 X6.0257 Y44.2826
G01 X6.0085 Y44.2975
G01 X5.9905 Y44.3115
G01 X5.9196 Y44.3641
G01 X5.9010 Y44.3772
G01 X5.8818 Y44.3893
G01 X5.8060 Y44.4347
G01 X5.7862 Y44.4460
G01 X5.7659 Y44.4562
G01 X5.6861 Y44.4939
G01 X5.6653 Y44.5032
G01 X5.6440 Y44.5113
G01 X5.5501 Y44.5448
G01 X5.5393 Y44.5482
G01 X5.5174 Y44.5543
G01 X5.4317 Y44.5758
G01 X5.4095 Y44.5807
G01 X5.3871 Y44.5846
G01 X5.2997 Y44.5976
G01 X5.2884 Y44.5991
G01 X5.2658 Y44.6014
G01 X5.1549 Y44.6068
G01 X5.1321 Y44.6068
G01 X5.1208 Y44.6064
G01 X5.0325 Y44.6021
G01 X5.0099 Y44.6004
G01 X4.9873 Y44.5976
G01 X4.8999 Y44.5846
G01 X4.8775 Y44.5807
G01 X4.8553 Y44.5758
G01 X4.7696 Y44.5543
G01 X4.7477 Y44.5482
G01 X4.7261 Y44.5411
G01 X4.6430 Y44.5113
G01 X4.6217 Y44.5032
G01 X4.6009 Y44.4939
G01 X4.5109 Y44.4512
G01 X4.4908 Y44.4405
G01 X4.4810 Y44.4347
G01 X4.4052 Y44.3893
G01 X4.3860 Y44.3772
G01 X4.3674 Y44.3641
G01 X4.2965 Y44.3115
G01 X4.2785 Y44.2975
G01 X4.2613 Y44.2826
G01 X4.1959 Y44.2233
G01 X4.1794 Y44.2076
G01 X4.1637 Y44.1911
G01 X4.1044 Y44.1257
G01 X4.0969 Y44.1172
G01 X4.0824 Y44.0996
G01 X4.0229 Y44.0196
G01 X4.0098 Y44.0010
G01 X3.9977 Y43.9818
G01 X3.9465 Y43.8962
G01 X3.9358 Y43.8761
G01 X3.9308 Y43.8659
G01 X3.8931 Y43.7861
G01 X3.8838 Y43.7653
G01 X3.8757 Y43.7440
G01 X3.8459 Y43.6609
G01 X3.8388 Y43.6393
G01 X3.8327 Y43.6174
G01 X3.8112 Y43.5317
G01 X3.8063 Y43.5095
G01 X3.8024 Y43.4871
G01 X3.7894 Y43.3997
G01 X3.7866 Y43.3771
G01 X3.7849 Y43.3545
G01 X3.7806 Y43.2662
G01 X3.7801 Y43.2435
G01 X3.7806 Y43.2208
G01 X3.7849 Y43.1325
G01 X3.7866 Y43.1099
G01 X3.7894 Y43.0873
G01 X3.8024 Y42.9999
G01 X3.8063 Y42.9775
G01 X3.8112 Y42.9553
G01 X3.8327 Y42.8696
G01 X3.8388 Y42.8477
G01 X3.8459 Y42.8261
G01 X3.8757 Y42.7430
G01 X3.8796 Y42.7323
G01 X3.8883 Y42.7113
G01 X3.9308 Y42.6211
G01 X3.9410 Y42.6008
G01 X3.9523 Y42.5810
G01 X3.9977 Y42.5052
G01 X4.0098 Y42.4860
G01 X4.0229 Y42.4674
G01 X4.0755 Y42.3965
G01 X4.0895 Y42.3785
G01 X4.1044 Y42.3613
G01 X4.1637 Y42.2959
G01 X4.1794 Y42.2794
G01 X4.1875 Y42.2715
G01 X4.2613 Y42.2044
G01 X4.2785 Y42.1895
G01 X4.2965 Y42.1755
G01 X4.3674 Y42.1229
G01 X4.3766 Y42.1163
G01 X4.3955 Y42.1036
G01 X4.4810 Y42.0523
G01 X4.4908 Y42.0465
G01 X4.5109 Y42.0358
G01 X4.6113 Y41.9883
G01 X4.6323 Y41.9796
G01 X4.6490 Y41.9735
G01 X4.6217 Y41.9632
G01 X4.6009 Y41.9539
G01 X4.5211 Y41.9162
G01 X4.5109 Y41.9112
G01 X4.4908 Y41.9005
G01 X4.4052 Y41.8493
G01 X4.3860 Y41.8372
G01 X4.3674 Y41.8241
G01 X4.2874 Y41.7646
G01 X4.2698 Y41.7501
G01 X4.2613 Y41.7426
G01 X4.1959 Y41.6833
G01 X4.1794 Y41.6676
G01 X4.1637 Y41.6511
G01 X4.1044 Y41.5857
G01 X4.0895 Y41.5685
G01 X4.0755 Y41.5505
G01 X4.0163 Y41.4704
G01 X4.0098 Y41.4610
G01 X3.9977 Y41.4418
G01 X3.9523 Y41.3660
G01 X3.9410 Y41.3462
G01 X3.9308 Y41.3259
G01 X3.8931 Y41.2461
G01 X3.8838 Y41.2253
G01 X3.8757 Y41.2040
G01 X3.8459 Y41.1209
G01 X3.8388 Y41.0993
G01 X3.8327 Y41.0774
G01 X3.8112 Y40.9917
G01 X3.8063 Y40.9695
G01 X3.8024 Y40.9471
G01 X3.7894 Y40.8597
G01 X3.7866 Y40.8371
G01 X3.7849 Y40.8145
G01 X3.7802 Y40.7149
G01 X3.7802 Y40.6921
G01 X3.7806 Y40.6808
G01 X3.7849 Y40.5925
G01 X3.7866 Y40.5699
G01 X3.7894 Y40.5473
G01 X3.8024 Y40.4599
G01 X3.8063 Y40.4375
G01 X3.8112 Y40.4153
G01 X3.8327 Y40.3296
G01 X3.8388 Y40.3077
G01 X3.8459 Y40.2861
G01 X3.8757 Y40.2030
G01 X3.8838 Y40.1817
G01 X3.8931 Y40.1609
G01 X3.9308 Y40.0811
G01 X3.9410 Y40.0608
G01 X3.9523 Y40.0410
G01 X3.9977 Y39.9652
G01 X4.0098 Y39.9460
G01 X4.0229 Y39.9274
G01 X4.0755 Y39.8565
G01 X4.0895 Y39.8385
G01 X4.1044 Y39.8213
G01 X4.1637 Y39.7559
G01 X4.1794 Y39.7394
G01 X4.1959 Y39.7237
G01 X4.2613 Y39.6644
G01 X4.2785 Y39.6495
G01 X4.2965 Y39.6355
G01 X4.3674 Y39.5829
G01 X4.3860 Y39.5698
G01 X4.4052 Y39.5577
G01 X4.4810 Y39.5123
G01 X4.4908 Y39.5065
G01 X4.5109 Y39.4958
G01 X4.6009 Y39.4531
G01 X4.6217 Y39.4438
G01 X4.6490 Y39.4335
G01 X4.6217 Y39.4232
G01 X4.6009 Y39.4139
G01 X4.5211 Y39.3762
G01 X4.5109 Y39.3712
G01 X4.4908 Y39.3605
G01 X4.4052 Y39.3093
G01 X4.3860 Y39.2972
G01 X4.3674 Y39.2841
G01 X4.2874 Y39.2246
G01 X4.2785 Y39.2175
G01 X4.2613 Y39.2026
G01 X4.1959 Y39.1433
G01 X4.1794 Y39.1276
G01 X4.1637 Y39.1111
G01 X4.1044 Y39.0457
G01 X4.0895 Y39.0285
G01 X4.0755 Y39.0105
G01 X4.0163 Y38.9304
G01 X4.0098 Y38.9210
G01 X3.9977 Y38.9018
G01 X3.9523 Y38.8260
G01 X3.9410 Y38.8062
G01 X3.9308 Y38.7859
G01 X3.8931 Y38.7061
G01 X3.8838 Y38.6853
G01 X3.8757 Y38.6640
G01 X3.8459 Y38.5809
G01 X3.8388 Y38.5593
G01 X3.8327 Y38.5374
G01 X3.8112 Y38.4517
G01 X3.8063 Y38.4295
G01 X3.8024 Y38.4071
G01 X3.7894 Y38.3197
G01 X3.7866 Y38.2971
G01 X3.7849 Y38.2745
G01 X3.7802 Y38.1749
G01 X3.7802 Y38.1521
G01 X3.7806 Y38.1408
G01 X3.7849 Y38.0525
G01 X3.7866 Y38.0299
G01 X3.7894 Y38.0073
G01 X3.8024 Y37.9199
G01 X3.8063 Y37.8975
G01 X3.8112 Y37.8753
G01 X3.8327 Y37.7896
G01 X3.8388 Y37.7677
G01 X3.8459 Y37.7461
G01 X3.8757 Y37.6630
G01 X3.8838 Y37.6417
G01 X3.8931 Y37.6209
G01 X3.9308 Y37.5411
G01 X3.9410 Y37.5208
G01 X3.9523 Y37.5010
G01 X3.9977 Y37.4252
G01 X4.0098 Y37.4060
G01 X4.0229 Y37.3874
G01 X4.0755 Y37.3165
G01 X4.0895 Y37.2985
G01 X4.1044 Y37.2813
G01 X4.1637 Y37.2159
G01 X4.1794 Y37.1994
G01 X4.1959 Y37.1837
G01 X4.2613 Y37.1244
G01 X4.2785 Y37.1095
G01 X4.2965 Y37.0955
G01 X4.3674 Y37.0429
G01 X4.3860 Y37.0298
G01 X4.4052 Y37.0177
G01 X4.4810 Y36.9723
G01 X4.4908 Y36.9665
G01 X4.5109 Y36.9558
G01 X4.6009 Y36.9131
G01 X4.6217 Y36.9038
G01 X4.6490 Y36.8935
G01 X4.6217 Y36.8832
G01 X4.6009 Y36.8739
G01 X4.5211 Y36.8362
G01 X4.5008 Y36.8260
G01 X4.4908 Y36.8205
G01 X4.4052 Y36.7693
G01 X4.3860 Y36.7572
G01 X4.3674 Y36.7441
G01 X4.2874 Y36.6846
G01 X4.2698 Y36.6701
G01 X4.2613 Y36.6626
G01 X4.1959 Y36.6033
G01 X4.1794 Y36.5876
G01 X4.1637 Y36.5711
G01 X4.1044 Y36.5057
G01 X4.0895 Y36.4885
G01 X4.0755 Y36.4705
G01 X4.0163 Y36.3904
G01 X4.0098 Y36.3810
G01 X3.9977 Y36.3618
G01 X3.9523 Y36.2860
G01 X3.9410 Y36.2662
G01 X3.9308 Y36.2459
G01 X3.8931 Y36.1661
G01 X3.8838 Y36.1453
G01 X3.8757 Y36.1240
G01 X3.8459 Y36.0409
G01 X3.8388 Y36.0193
G01 X3.8327 Y35.9974
G01 X3.8112 Y35.9117
G01 X3.8063 Y35.8895
G01 X3.8024 Y35.8671
G01 X3.7894 Y35.7797
G01 X3.7866 Y35.7571
G01 X3.7849 Y35.7345
G01 X3.7802 Y35.6349
G01 X3.7802 Y35.6121
G01 X3.7806 Y35.6008
G01 X3.7849 Y35.5125
G01 X3.7866 Y35.4899
G01 X3.7894 Y35.4673
G01 X3.8024 Y35.3799
G01 X3.8063 Y35.3575
G01 X3.8112 Y35.3353
G01 X3.8327 Y35.2496
G01 X3.8388 Y35.2277
G01 X3.8459 Y35.2061
G01 X3.8757 Y35.1230
G01 X3.8838 Y35.1017
G01 X3.8931 Y35.0809
G01 X3.9308 Y35.0011
G01 X3.9410 Y34.9808
G01 X3.9523 Y34.9610
G01 X3.9977 Y34.8852
G01 X4.0098 Y34.8660
G01 X4.0229 Y34.8474
G01 X4.0755 Y34.7765
G01 X4.0895 Y34.7585
G01 X4.1044 Y34.7413
G01 X4.1637 Y34.6759
G01 X4.1794 Y34.6594
G01 X4.1959 Y34.6437
G01 X4.2613 Y34.5844
G01 X4.2785 Y34.5695
G01 X4.2965 Y34.5555
G01 X4.3674 Y34.5029
G01 X4.3860 Y34.4898
G01 X4.4052 Y34.4777
G01 X4.4810 Y34.4323
G01 X4.4908 Y34.4265
G01 X4.5109 Y34.4158
G01 X4.6009 Y34.3731
G01 X4.6217 Y34.3638
G01 X4.6490 Y34.3535
G01 X4.6217 Y34.3432
G01 X4.6009 Y34.3339
G01 X4.5211 Y34.2962
G01 X4.5008 Y34.2860
G01 X4.4908 Y34.2805
G01 X4.4052 Y34.2293
G01 X4.3860 Y34.2172
G01 X4.3674 Y34.2041
G01 X4.2874 Y34.1446
G01 X4.2698 Y34.1301
G01 X4.2613 Y34.1226
G01 X4.1959 Y34.0633
G01 X4.1794 Y34.0476
G01 X4.1637 Y34.0311
G01 X4.1044 Y33.9657
G01 X4.0895 Y33.9485
G01 X4.0755 Y33.9305
G01 X4.0163 Y33.8504
G01 X4.0098 Y33.8410
G01 X3.9977 Y33.8218
G01 X3.9523 Y33.7460
G01 X3.9410 Y33.7262
G01 X3.9308 Y33.7059
G01 X3.8931 Y33.6261
G01 X3.8838 Y33.6053
G01 X3.8757 Y33.5840
G01 X3.8459 Y33.5009
G01 X3.8388 Y33.4793
G01 X3.8327 Y33.4574
G01 X3.8112 Y33.3717
G01 X3.8063 Y33.3495
G01 X3.8024 Y33.3271
G01 X3.7894 Y33.2397
G01 X3.7866 Y33.2171
G01 X3.7849 Y33.1945
G01 X3.7802 Y33.0949
G01 X3.7802 Y33.0721
G01 X3.7806 Y33.0608
G01 X3.7849 Y32.9725
G01 X3.7866 Y32.9499
G01 X3.7894 Y32.9273
G01 X3.8024 Y32.8399
G01 X3.8063 Y32.8175
G01 X3.8112 Y32.7953
G01 X3.8327 Y32.7096
G01 X3.8388 Y32.6877
G01 X3.8459 Y32.6661
G01 X3.8757 Y32.5830
G01 X3.8838 Y32.5617
G01 X3.8931 Y32.5409
G01 X3.9308 Y32.4611
G01 X3.9410 Y32.4408
G01 X3.9523 Y32.4210
G01 X3.9977 Y32.3452
G01 X4.0098 Y32.3260
G01 X4.0229 Y32.3074
G01 X4.0755 Y32.2365
G01 X4.0895 Y32.2185
G01 X4.1044 Y32.2013
G01 X4.1637 Y32.1359
G01 X4.1794 Y32.1194
G01 X4.1959 Y32.1037
G01 X4.2613 Y32.0444
G01 X4.2785 Y32.0295
G01 X4.2965 Y32.0155
G01 X4.3674 Y31.9629
G01 X4.3860 Y31.9498
G01 X4.4052 Y31.9377
G01 X4.4810 Y31.8923
G01 X4.5008 Y31.8810
G01 X4.5109 Y31.8758
G01 X4.6009 Y31.8331
G01 X4.6217 Y31.8238
G01 X4.6490 Y31.8135
G01 X4.6217 Y31.8032
G01 X4.6009 Y31.7939
G01 X4.5211 Y31.7562
G01 X4.5109 Y31.7512
G01 X4.4908 Y31.7405
G01 X4.4052 Y31.6893
G01 X4.3860 Y31.6772
G01 X4.3674 Y31.6641
G01 X4.2874 Y31.6046
G01 X4.2698 Y31.5901
G01 X4.2613 Y31.5826
G01 X4.1959 Y31.5233
G01 X4.1794 Y31.5076
G01 X4.1637 Y31.4911
G01 X4.1044 Y31.4257
G01 X4.0895 Y31.4085
G01 X4.0755 Y31.3905
G01 X4.0163 Y31.3104
G01 X4.0098 Y31.3010
G01 X3.9977 Y31.2818
G01 X3.9523 Y31.2060
G01 X3.9410 Y31.1862
G01 X3.9308 Y31.1659
G01 X3.8931 Y31.0861
G01 X3.8838 Y31.0653
G01 X3.8757 Y31.0440
G01 X3.8459 Y30.9609
G01 X3.8388 Y30.9393
G01 X3.8327 Y30.9174
G01 X3.8112 Y30.8317
G01 X3.8063 Y30.8095
G01 X3.8024 Y30.7871
G01 X3.7894 Y30.6997
G01 X3.7866 Y30.6771
G01 X3.7849 Y30.6545
G01 X3.7802 Y30.5549
G01 X3.7801 Y30.5435
G01 X3.7806 Y30.5208
G01 X3.7849 Y30.4325
G01 X3.7866 Y30.4099
G01 X3.7894 Y30.3873
G01 X3.8024 Y30.2999
G01 X3.8063 Y30.2775
G01 X3.8112 Y30.2553
G01 X3.8327 Y30.1696
G01 X3.8388 Y30.1477
G01 X3.8459 Y30.1261
G01 X3.8757 Y30.0430
G01 X3.8838 Y30.0217
G01 X3.8931 Y30.0009
G01 X3.9308 Y29.9211
G01 X3.9410 Y29.9008
G01 X3.9523 Y29.8810
G01 X3.9977 Y29.8052
G01 X4.0098 Y29.7860
G01 X4.0229 Y29.7674
G01 X4.0755 Y29.6965
G01 X4.0895 Y29.6785
G01 X4.1044 Y29.6613
G01 X4.1637 Y29.5959
G01 X4.1794 Y29.5794
G01 X4.1959 Y29.5637
G01 X4.2613 Y29.5044
G01 X4.2785 Y29.4895
G01 X4.2965 Y29.4755
G01 X4.3674 Y29.4229
G01 X4.3860 Y29.4098
G01 X4.4052 Y29.3977
G01 X4.4810 Y29.3523
G01 X4.5008 Y29.3410
G01 X4.5109 Y29.3358
G01 X4.6009 Y29.2931
G01 X4.6217 Y29.2838
G01 X4.6490 Y29.2735
G01 X4.6217 Y29.2632
G01 X4.6009 Y29.2539
G01 X4.5211 Y29.2162
G01 X4.5109 Y29.2112
G01 X4.4908 Y29.2005
G01 X4.4052 Y29.1493
G01 X4.3860 Y29.1372
G01 X4.3674 Y29.1241
G01 X4.2874 Y29.0646
G01 X4.2698 Y29.0501
G01 X4.2613 Y29.0426
G01 X4.1959 Y28.9833
G01 X4.1794 Y28.9676
G01 X4.1637 Y28.9511
G01 X4.1044 Y28.8857
G01 X4.0895 Y28.8685
G01 X4.0755 Y28.8505
G01 X4.0163 Y28.7704
G01 X4.0098 Y28.7610
G01 X3.9977 Y28.7418
G01 X3.9523 Y28.6660
G01 X3.9410 Y28.6462
G01 X3.9308 Y28.6259
G01 X3.8931 Y28.5461
G01 X3.8838 Y28.5253
G01 X3.8757 Y28.5040
G01 X3.8459 Y28.4209
G01 X3.8388 Y28.3993
G01 X3.8327 Y28.3774
G01 X3.8112 Y28.2917
G01 X3.8063 Y28.2695
G01 X3.8024 Y28.2471
G01 X3.7894 Y28.1597
G01 X3.7866 Y28.1371
G01 X3.7849 Y28.1145
G01 X3.7802 Y28.0149
G01 X3.7801 Y28.0035
G01 X3.7806 Y27.9808
G01 X3.7849 Y27.8925
G01 X3.7866 Y27.8699
G01 X3.7894 Y27.8473
G01 X3.8024 Y27.7599
G01 X3.8063 Y27.7375
G01 X3.8112 Y27.7153
G01 X3.8327 Y27.6296
G01 X3.8388 Y27.6077
G01 X3.8459 Y27.5861
G01 X3.8757 Y27.5030
G01 X3.8838 Y27.4817
G01 X3.8931 Y27.4609
G01 X3.9308 Y27.3811
G01 X3.9410 Y27.3608
G01 X3.9523 Y27.3410
G01 X3.9977 Y27.2652
G01 X4.0098 Y27.2460
G01 X4.0229 Y27.2274
G01 X4.0755 Y27.1565
G01 X4.0895 Y27.1385
G01 X4.1044 Y27.1213
G01 X4.1637 Y27.0559
G01 X4.1794 Y27.0394
G01 X4.1959 Y27.0237
G01 X4.2613 Y26.9644
G01 X4.2785 Y26.9495
G01 X4.2965 Y26.9355
G01 X4.3674 Y26.8829
G01 X4.3860 Y26.8698
G01 X4.4052 Y26.8577
G01 X4.4810 Y26.8123
G01 X4.4908 Y26.8065
G01 X4.5109 Y26.7958
G01 X4.6009 Y26.7531
G01 X4.6217 Y26.7438
G01 X4.6490 Y26.7335
G01 X4.6217 Y26.7232
G01 X4.6009 Y26.7139
G01 X4.5211 Y26.6762
G01 X4.5008 Y26.6660
G01 X4.4908 Y26.6605
G01 X4.4052 Y26.6093
G01 X4.3860 Y26.5972
G01 X4.3674 Y26.5841
G01 X4.2874 Y26.5246
G01 X4.2785 Y26.5175
G01 X4.2613 Y26.5026
G01 X4.1959 Y26.4433
G01 X4.1794 Y26.4276
G01 X4.1637 Y26.4111
G01 X4.1044 Y26.3457
G01 X4.0895 Y26.3285
G01 X4.0755 Y26.3105
G01 X4.0163 Y26.2304
G01 X4.0036 Y26.2115
G01 X3.9977 Y26.2018
G01 X3.9523 Y26.1260
G01 X3.9410 Y26.1062
G01 X3.9308 Y26.0859
G01 X3.8931 Y26.0061
G01 X3.8838 Y25.9853
G01 X3.8757 Y25.9640
G01 X3.8459 Y25.8809
G01 X3.8388 Y25.8593
G01 X3.8327 Y25.8374
G01 X3.8112 Y25.7517
G01 X3.8063 Y25.7295
G01 X3.8024 Y25.7071
G01 X3.7894 Y25.6197
G01 X3.7866 Y25.5971
G01 X3.7849 Y25.5745
G01 X3.7802 Y25.4749
G01 X3.7801 Y25.4635
G01 X3.7806 Y25.4408
G01 X3.7849 Y25.3525
G01 X3.7866 Y25.3299
G01 X3.7894 Y25.3073
G01 X3.8024 Y25.2199
G01 X3.8063 Y25.1975
G01 X3.8112 Y25.1753
G01 X3.8327 Y25.0896
G01 X3.8388 Y25.0677
G01 X3.8459 Y25.0461
G01 X3.8757 Y24.9630
G01 X3.8838 Y24.9417
G01 X3.8931 Y24.9209
G01 X3.9308 Y24.8411
G01 X3.9410 Y24.8208
G01 X3.9523 Y24.8010
G01 X3.9977 Y24.7252
G01 X4.0098 Y24.7060
G01 X4.0229 Y24.6874
G01 X4.0755 Y24.6165
G01 X4.0895 Y24.5985
G01 X4.1044 Y24.5813
G01 X4.1637 Y24.5159
G01 X4.1794 Y24.4994
G01 X4.1959 Y24.4837
G01 X4.2613 Y24.4244
G01 X4.2785 Y24.4095
G01 X4.2965 Y24.3955
G01 X4.3674 Y24.3429
G01 X4.3860 Y24.3298
G01 X4.4052 Y24.3177
G01 X4.4810 Y24.2723
G01 X4.5008 Y24.2610
G01 X4.5109 Y24.2558
G01 X4.6009 Y24.2131
G01 X4.6217 Y24.2038
G01 X4.6490 Y24.1935
G01 X4.6217 Y24.1832
G01 X4.6009 Y24.1739
G01 X4.5211 Y24.1362
G01 X4.5008 Y24.1260
G01 X4.4908 Y24.1205
G01 X4.4052 Y24.0693
G01 X4.3860 Y24.0572
G01 X4.3674 Y24.0441
G01 X4.2874 Y23.9846
G01 X4.2785 Y23.9775
G01 X4.2613 Y23.9626
G01 X4.1959 Y23.9033
G01 X4.1794 Y23.8876
G01 X4.1637 Y23.8711
G01 X4.1044 Y23.8057
G01 X4.0895 Y23.7885
G01 X4.0755 Y23.7705
G01 X4.0163 Y23.6904
G01 X4.0036 Y23.6715
G01 X3.9977 Y23.6618
G01 X3.9523 Y23.5860
G01 X3.9410 Y23.5662
G01 X3.9308 Y23.5459
G01 X3.8931 Y23.4661
G01 X3.8838 Y23.4453
G01 X3.8757 Y23.4240
G01 X3.8459 Y23.3409
G01 X3.8388 Y23.3193
G01 X3.8327 Y23.2974
G01 X3.8112 Y23.2117
G01 X3.8063 Y23.1895
G01 X3.8024 Y23.1671
G01 X3.7894 Y23.0797
G01 X3.7866 Y23.0571
G01 X3.7849 Y23.0345
G01 X3.7802 Y22.9349
G01 X3.7801 Y22.9235
G01 X3.7806 Y22.9008
G01 X3.7849 Y22.8125
G01 X3.7866 Y22.7899
G01 X3.7894 Y22.7673
G01 X3.8024 Y22.6799
G01 X3.8063 Y22.6575
G01 X3.8112 Y22.6353
G01 X3.8327 Y22.5496
G01 X3.8388 Y22.5277
G01 X3.8459 Y22.5061
G01 X3.8757 Y22.4230
G01 X3.8838 Y22.4017
G01 X3.8931 Y22.3809
G01 X3.9308 Y22.3011
G01 X3.9410 Y22.2808
G01 X3.9523 Y22.2610
G01 X3.9977 Y22.1852
G01 X4.0098 Y22.1660
G01 X4.0229 Y22.1474
G01 X4.0755 Y22.0765
G01 X4.0895 Y22.0585
G01 X4.1044 Y22.0413
G01 X4.1637 Y21.9759
G01 X4.1794 Y21.9594
G01 X4.1959 Y21.9437
G01 X4.2613 Y21.8844
G01 X4.2785 Y21.8695
G01 X4.2965 Y21.8555
G01 X4.3674 Y21.8029
G01 X4.3860 Y21.7898
G01 X4.4052 Y21.7777
G01 X4.4810 Y21.7323
G01 X4.5008 Y21.7210
G01 X4.5109 Y21.7158
G01 X4.6009 Y21.6731
G01 X4.6217 Y21.6638
G01 X4.6490 Y21.6535
G01 X4.6217 Y21.6432
G01 X4.6009 Y21.6339
G01 X4.5211 Y21.5962
G01 X4.5008 Y21.5860
G01 X4.4908 Y21.5805
G01 X4.4052 Y21.5293
G01 X4.3860 Y21.5172
G01 X4.3674 Y21.5041
G01 X4.2874 Y21.4446
G01 X4.2698 Y21.4301
G01 X4.2613 Y21.4226
G01 X4.1959 Y21.3633
G01 X4.1794 Y21.3476
G01 X4.1637 Y21.3311
G01 X4.1044 Y21.2657
G01 X4.0895 Y21.2485
G01 X4.0755 Y21.2305
G01 X4.0163 Y21.1504
G01 X4.0098 Y21.1410
G01 X3.9977 Y21.1218
G01 X3.9523 Y21.0460
G01 X3.9410 Y21.0262
G01 X3.9308 Y21.0059
G01 X3.8931 Y20.9261
G01 X3.8838 Y20.9053
G01 X3.8757 Y20.8840
G01 X3.8459 Y20.8009
G01 X3.8388 Y20.7793
G01 X3.8327 Y20.7574
G01 X3.8112 Y20.6717
G01 X3.8063 Y20.6495
G01 X3.8024 Y20.6271
G01 X3.7894 Y20.5397
G01 X3.7866 Y20.5171
G01 X3.7849 Y20.4945
G01 X3.7802 Y20.3949
G01 X3.7801 Y20.3835
G01 X3.7806 Y20.3608
G01 X3.7849 Y20.2725
G01 X3.7866 Y20.2499
G01 X3.7894 Y20.2273
G01 X3.8024 Y20.1399
G01 X3.8063 Y20.1175
G01 X3.8112 Y20.0953
G01 X3.8327 Y20.0096
G01 X3.8388 Y19.9877
G01 X3.8459 Y19.9661
G01 X3.8757 Y19.8830
G01 X3.8838 Y19.8617
G01 X3.8931 Y19.8409
G01 X3.9308 Y19.7611
G01 X3.9410 Y19.7408
G01 X3.9523 Y19.7210
G01 X3.9977 Y19.6452
G01 X4.0098 Y19.6260
G01 X4.0229 Y19.6074
G01 X4.0755 Y19.5365
G01 X4.0895 Y19.5185
G01 X4.1044 Y19.5013
G01 X4.1637 Y19.4359
G01 X4.1794 Y19.4194
G01 X4.1959 Y19.4037
G01 X4.2613 Y19.3444
G01 X4.2785 Y19.3295
G01 X4.2965 Y19.3155
G01 X4.3674 Y19.2629
G01 X4.3860 Y19.2498
G01 X4.4052 Y19.2377
G01 X4.4810 Y19.1923
G01 X4.4908 Y19.1865
G01 X4.5109 Y19.1758
G01 X4.6009 Y19.1331
G01 X4.6217 Y19.1238
G01 X4.6490 Y19.1135
G01 X4.6217 Y19.1032
G01 X4.6009 Y19.0939
G01 X4.5211 Y19.0562
G01 X4.5109 Y19.0512
G01 X4.4908 Y19.0405
G01 X4.4052 Y18.9893
G01 X4.3860 Y18.9772
G01 X4.3674 Y18.9641
G01 X4.2874 Y18.9046
G01 X4.2698 Y18.8901
G01 X4.2613 Y18.8826
G01 X4.1959 Y18.8233
G01 X4.1794 Y18.8076
G01 X4.1637 Y18.7911
G01 X4.1044 Y18.7257
G01 X4.0895 Y18.7085
G01 X4.0755 Y18.6905
G01 X4.0163 Y18.6104
G01 X4.0098 Y18.6010
G01 X3.9977 Y18.5818
G01 X3.9523 Y18.5060
G01 X3.9410 Y18.4862
G01 X3.9308 Y18.4659
G01 X3.8931 Y18.3861
G01 X3.8838 Y18.3653
G01 X3.8757 Y18.3440
G01 X3.8459 Y18.2609
G01 X3.8388 Y18.2393
G01 X3.8327 Y18.2174
G01 X3.8112 Y18.1317
G01 X3.8063 Y18.1095
G01 X3.8024 Y18.0871
G01 X3.7894 Y17.9997
G01 X3.7866 Y17.9771
G01 X3.7849 Y17.9545
G01 X3.7802 Y17.8549
G01 X3.7802 Y17.8321
G01 X3.7806 Y17.8208
G01 X3.7849 Y17.7325
G01 X3.7866 Y17.7099
G01 X3.7894 Y17.6873
G01 X3.8024 Y17.5999
G01 X3.8063 Y17.5775
G01 X3.8112 Y17.5553
G01 X3.8327 Y17.4696
G01 X3.8388 Y17.4477
G01 X3.8459 Y17.4261
G01 X3.8757 Y17.3430
G01 X3.8838 Y17.3217
G01 X3.8931 Y17.3009
G01 X3.9308 Y17.2211
G01 X3.9410 Y17.2008
G01 X3.9523 Y17.1810
G01 X3.9977 Y17.1052
G01 X4.0098 Y17.0860
G01 X4.0229 Y17.0674
G01 X4.0755 Y16.9965
G01 X4.0895 Y16.9785
G01 X4.1044 Y16.9613
G01 X4.1637 Y16.8959
G01 X4.1794 Y16.8794
G01 X4.1959 Y16.8637
G01 X4.2613 Y16.8044
G01 X4.2785 Y16.7895
G01 X4.2965 Y16.7755
G01 X4.3674 Y16.7229
G01 X4.3860 Y16.7098
G01 X4.4052 Y16.6977
G01 X4.4810 Y16.6523
G01 X4.4908 Y16.6465
G01 X4.5109 Y16.6358
G01 X4.6009 Y16.5931
G01 X4.6217 Y16.5838
G01 X4.6490 Y16.5735
G01 X4.6217 Y16.5632
G01 X4.6009 Y16.5539
G01 X4.5211 Y16.5162
G01 X4.5109 Y16.5112
G01 X4.4908 Y16.5005
G01 X4.4052 Y16.4493
G01 X4.3860 Y16.4372
G01 X4.3674 Y16.4241
G01 X4.2874 Y16.3646
G01 X4.2698 Y16.3501
G01 X4.2613 Y16.3426
G01 X4.1959 Y16.2833
G01 X4.1794 Y16.2676
G01 X4.1637 Y16.2511
G01 X4.1044 Y16.1857
G01 X4.0895 Y16.1685
G01 X4.0755 Y16.1505
G01 X4.0163 Y16.0704
G01 X4.0098 Y16.0610
G01 X3.9977 Y16.0418
G01 X3.9523 Y15.9660
G01 X3.9410 Y15.9462
G01 X3.9308 Y15.9259
G01 X3.8931 Y15.8461
G01 X3.8838 Y15.8253
G01 X3.8757 Y15.8040
G01 X3.8459 Y15.7209
G01 X3.8388 Y15.6993
G01 X3.8327 Y15.6774
G01 X3.8112 Y15.5917
G01 X3.8063 Y15.5695
G01 X3.8024 Y15.5471
G01 X3.7894 Y15.4597
G01 X3.7866 Y15.4371
G01 X3.7849 Y15.4145
G01 X3.7806 Y15.3262
G01 X3.7801 Y15.3035
G01 X3.7806 Y15.2808
G01 X3.7856 Y15.1812
G01 X3.7879 Y15.1586
G01 X3.7894 Y15.1473
G01 X3.8024 Y15.0599
G01 X3.8063 Y15.0375
G01 X3.8112 Y15.0153
G01 X3.8327 Y14.9296
G01 X3.8388 Y14.9077
G01 X3.8459 Y14.8861
G01 X3.8757 Y14.8030
G01 X3.8838 Y14.7817
G01 X3.8931 Y14.7609
G01 X3.9308 Y14.6811
G01 X3.9410 Y14.6608
G01 X3.9523 Y14.6410
G01 X3.9977 Y14.5652
G01 X4.0098 Y14.5460
G01 X4.0229 Y14.5274
G01 X4.0755 Y14.4565
G01 X4.0895 Y14.4385
G01 X4.1044 Y14.4213
G01 X4.1637 Y14.3559
G01 X4.1794 Y14.3394
G01 X4.1959 Y14.3237
G01 X4.2613 Y14.2644
G01 X4.2785 Y14.2495
G01 X4.2965 Y14.2355
G01 X4.3674 Y14.1829
G01 X4.3860 Y14.1698
G01 X4.4052 Y14.1577
G01 X4.4810 Y14.1123
G01 X4.5008 Y14.1010
G01 X4.5109 Y14.0958
G01 X4.6009 Y14.0531
G01 X4.6217 Y14.0438
G01 X4.6490 Y14.0335
G01 X4.6323 Y14.0274
G01 X4.6113 Y14.0187
G01 X4.5211 Y13.9762
G01 X4.5008 Y13.9660
G01 X4.4810 Y13.9547
G01 X4.4052 Y13.9093
G01 X4.3860 Y13.8972
G01 X4.3674 Y13.8841
G01 X4.2965 Y13.8315
G01 X4.2785 Y13.8175
G01 X4.2613 Y13.8026
G01 X4.1875 Y13.7355
G01 X4.1715 Y13.7195
G01 X4.1637 Y13.7111
G01 X4.1044 Y13.6457
G01 X4.0895 Y13.6285
G01 X4.0755 Y13.6105
G01 X4.0229 Y13.5396
G01 X4.0098 Y13.5210
G01 X3.9977 Y13.5018
G01 X3.9523 Y13.4260
G01 X3.9410 Y13.4062
G01 X3.9308 Y13.3859
G01 X3.8931 Y13.3061
G01 X3.8883 Y13.2957
G01 X3.8796 Y13.2747
G01 X3.8459 Y13.1809
G01 X3.8388 Y13.1593
G01 X3.8327 Y13.1374
G01 X3.8086 Y13.0406
G01 X3.8042 Y13.0183
G01 X3.8024 Y13.0071
G01 X3.7894 Y12.9197
G01 X3.7866 Y12.8971
G01 X3.7849 Y12.8745
G01 X3.7806 Y12.7862
G01 X3.7801 Y12.7635
G01 X3.7806 Y12.7408
G01 X3.7849 Y12.6525
G01 X3.7866 Y12.6299
G01 X3.7894 Y12.6073
G01 X3.8024 Y12.5199
G01 X3.8063 Y12.4975
G01 X3.8112 Y12.4753
G01 X3.8327 Y12.3896
G01 X3.8388 Y12.3677
G01 X3.8459 Y12.3461
G01 X3.8757 Y12.2630
G01 X3.8838 Y12.2417
G01 X3.8883 Y12.2313
G01 X3.9308 Y12.1411
G01 X3.9410 Y12.1208
G01 X3.9523 Y12.1010
G01 X4.0036 Y12.0155
G01 X4.0163 Y11.9966
G01 X4.0229 Y11.9874
G01 X4.0755 Y11.9165
G01 X4.0895 Y11.8985
G01 X4.1044 Y11.8813
G01 X4.1637 Y11.8159
G01 X4.1794 Y11.7994
G01 X4.1959 Y11.7837
G01 X4.2613 Y11.7244
G01 X4.2785 Y11.7095
G01 X4.2965 Y11.6955
G01 X4.3674 Y11.6429
G01 X4.3860 Y11.6298
G01 X4.4052 Y11.6177
G01 X4.4810 Y11.5723
G01 X4.5008 Y11.5610
G01 X4.5109 Y11.5558
G01 X4.6009 Y11.5131
G01 X4.6217 Y11.5038
G01 X4.6490 Y11.4935
G01 X4.6323 Y11.4874
G01 X4.6113 Y11.4787
G01 X4.5211 Y11.4362
G01 X4.5008 Y11.4260
G01 X4.4810 Y11.4147
G01 X4.4052 Y11.3693
G01 X4.3860 Y11.3572
G01 X4.3674 Y11.3441
G01 X4.2965 Y11.2915
G01 X4.2785 Y11.2775
G01 X4.2613 Y11.2626
G01 X4.1875 Y11.1955
G01 X4.1794 Y11.1876
G01 X4.1637 Y11.1711
G01 X4.1044 Y11.1057
G01 X4.0895 Y11.0885
G01 X4.0755 Y11.0705
G01 X4.0229 Y10.9996
G01 X4.0098 Y10.9810
G01 X3.9977 Y10.9618
G01 X3.9523 Y10.8860
G01 X3.9410 Y10.8662
G01 X3.9308 Y10.8459
G01 X3.8931 Y10.7661
G01 X3.8838 Y10.7453
G01 X3.8757 Y10.7240
G01 X3.8459 Y10.6409
G01 X3.8388 Y10.6193
G01 X3.8327 Y10.5974
G01 X3.8112 Y10.5117
G01 X3.8063 Y10.4895
G01 X3.8024 Y10.4671
G01 X3.7894 Y10.3797
G01 X3.7866 Y10.3571
G01 X3.7849 Y10.3345
G01 X3.7806 Y10.2462
G01 X3.7801 Y10.2235
G01 X3.7806 Y10.2008
G01 X3.7849 Y10.1125
G01 X3.7866 Y10.0899
G01 X3.7894 Y10.0673
G01 X3.8042 Y9.9687
G01 X3.8063 Y9.9575
G01 X3.8112 Y9.9353
G01 X3.8327 Y9.8496
G01 X3.8388 Y9.8277
G01 X3.8459 Y9.8061
G01 X3.8757 Y9.7230
G01 X3.8838 Y9.7017
G01 X3.8931 Y9.6809
G01 X3.9308 Y9.6011
G01 X3.9410 Y9.5808
G01 X3.9523 Y9.5610
G01 X3.9977 Y9.4852
G01 X4.0098 Y9.4660
G01 X4.0229 Y9.4474
G01 X4.0824 Y9.3674
G01 X4.0969 Y9.3498
G01 X4.1044 Y9.3413
G01 X4.1637 Y9.2759
G01 X4.1794 Y9.2594
G01 X4.1959 Y9.2437
G01 X4.2613 Y9.1844
G01 X4.2785 Y9.1695
G01 X4.2965 Y9.1555
G01 X4.3674 Y9.1029
G01 X4.3860 Y9.0898
G01 X4.4052 Y9.0777
G01 X4.4810 Y9.0323
G01 X4.5008 Y9.0210
G01 X4.5109 Y9.0158
G01 X4.6009 Y8.9731
G01 X4.6217 Y8.9638
G01 X4.6490 Y8.9535
G01 X4.6323 Y8.9474
G01 X4.6113 Y8.9387
G01 X4.5211 Y8.8962
G01 X4.5008 Y8.8860
G01 X4.4810 Y8.8747
G01 X4.4052 Y8.8293
G01 X4.3860 Y8.8172
G01 X4.3674 Y8.8041
G01 X4.2965 Y8.7515
G01 X4.2785 Y8.7375
G01 X4.2613 Y8.7226
G01 X4.1959 Y8.6633
G01 X4.1794 Y8.6476
G01 X4.1637 Y8.6311
G01 X4.1044 Y8.5657
G01 X4.0895 Y8.5485
G01 X4.0755 Y8.5305
G01 X4.0229 Y8.4596
G01 X4.0098 Y8.4410
G01 X3.9977 Y8.4218
G01 X3.9523 Y8.3460
G01 X3.9410 Y8.3262
G01 X3.9308 Y8.3059
G01 X3.8931 Y8.2261
G01 X3.8838 Y8.2053
G01 X3.8757 Y8.1840
G01 X3.8459 Y8.1009
G01 X3.8388 Y8.0793
G01 X3.8327 Y8.0574
G01 X3.8112 Y7.9717
G01 X3.8086 Y7.9606
G01 X3.8042 Y7.9383
G01 X3.7879 Y7.8284
G01 X3.7856 Y7.8058
G01 X3.7849 Y7.7945
G01 X3.7806 Y7.7062
G01 X3.7801 Y7.6835
G01 X3.7806 Y7.6608
G01 X3.7849 Y7.5725
G01 X3.7866 Y7.5499
G01 X3.7894 Y7.5273
G01 X3.8024 Y7.4399
G01 X3.8063 Y7.4175
G01 X3.8112 Y7.3953
G01 X3.8327 Y7.3096
G01 X3.8388 Y7.2877
G01 X3.8459 Y7.2661
G01 X3.8757 Y7.1830
G01 X3.8838 Y7.1617
G01 X3.8931 Y7.1409
G01 X3.9308 Y7.0611
G01 X3.9410 Y7.0408
G01 X3.9523 Y7.0210
G01 X3.9977 Y6.9452
G01 X4.0098 Y6.9260
G01 X4.0229 Y6.9074
G01 X4.0755 Y6.8365
G01 X4.0895 Y6.8185
G01 X4.1044 Y6.8013
G01 X4.1637 Y6.7359
G01 X4.1799 Y6.7190
G01 X4.1799 Y6.1080
G00 Z2.0000
G00 X5.8092 Y5.9750
G01 F60.00
G01 Z-0.2001
G01 F320.00
G01 X5.8195 Y5.9672
G01 X5.8256 Y5.9619
G01 X5.8970 Y5.8970
G01 X5.9619 Y5.8256
G01 X5.9672 Y5.8195
G01 X5.9750 Y5.8092
G01 X17.0120 Y5.8092
G01 X17.0198 Y5.8195
G01 X17.0251 Y5.8256
G01 X17.0900 Y5.8970
G01 X17.1614 Y5.9619
G01 X17.1675 Y5.9672
G01 X17.1778 Y5.9750
G01 X17.1778 Y6.8520
G01 X17.1675 Y6.8598
G01 X17.1614 Y6.8651
G01 X17.0900 Y6.9300
G01 X17.0251 Y7.0014
G01 X17.0198 Y7.0075
G01 X17.0120 Y7.0178
G01 X5.9750 Y7.0178
G01 X5.9672 Y7.0075
G01 X5.9619 Y7.0014
G01 X5.8970 Y6.9300
G01 X5.8256 Y6.8651
G01 X5.8195 Y6.8598
G01 X5.8092 Y6.8520
G01 X5.8092 Y5.9750
G00 Z2.0000
G00 X6.4050 Y6.4050
G01 F60.00
G01 Z-0.2001
G01 F320.00
G01 X16.5820 Y6.4050
G01 X16.5820 Y6.4220
G01 X6.4050 Y6.4220
G01 X6.4050 Y6.4050
G00 Z2.0000
G00 X6.1080 Y6.7199
G01 F60.00
G01 Z-0.2001
G01 F320.00
G01 X6.1071 Y6.7190
G01 X6.1071 Y6.1080
G01 X6.1080 Y6.1071
G01 X16.8790 Y6.1071
G01 X16.8799 Y6.1080
G01 X16.8799 Y6.7190
G01 X16.8790 Y6.7199
G01 X6.1080 Y6.7199
G00 Z2.0000
G00 X5.9750 Y4.4778
G01 F60.00
G01 Z-0.2001
G01 F320.00
G01 X17.0120 Y4.4778
G01 X17.0198 Y4.4675
G01 X17.0251 Y4.4614
G01 X17.0844 Y4.3959
G01 X17.0959 Y4.3844
G01 X17.1675 Y4.3198
G01 X17.2515 Y4.2575
G01 X17.3341 Y4.2078
G01 X17.3485 Y4.2001
G01 X17.4357 Y4.1591
G01 X17.5342 Y4.1238
G01 X17.6356 Y4.0984
G01 X17.7310 Y4.0841
G01 X17.7472 Y4.0825
G01 X17.8435 Y4.0780
G01 X17.9398 Y4.0825
G01 X17.9560 Y4.0841
G01 X18.0514 Y4.0984
G01 X18.1489 Y4.1227
G01 X18.1605 Y4.1264
G01 X18.2437 Y4.1561
G01 X18.2587 Y4.1624
G01 X18.3458 Y4.2038
G01 X18.4286 Y4.2532
G01 X18.4421 Y4.2622
G01 X18.5195 Y4.3198
G01 X18.5911 Y4.3844
G01 X18.6026 Y4.3959
G01 X18.6672 Y4.4675
G01 X18.7248 Y4.5449
G01 X18.7338 Y4.5584
G01 X18.7832 Y4.6412
G01 X18.8279 Y4.7357
G01 X18.8606 Y4.8265
G01 X18.8653 Y4.8420
G01 X18.8868 Y4.9277
G01 X18.8893 Y4.9396
G01 X18.9039 Y5.0391
G01 X18.9088 Y5.1354
G01 X18.9088 Y5.1516
G01 X18.9039 Y5.2479
G01 X18.8900 Y5.3434
G01 X18.8868 Y5.3593
G01 X18.8632 Y5.4528
G01 X18.8309 Y5.5437
G01 X18.8246 Y5.5587
G01 X18.7869 Y5.6385
G01 X18.7792 Y5.6529
G01 X18.7295 Y5.7355
G01 X18.6722 Y5.8131
G01 X18.6619 Y5.8256
G01 X18.5970 Y5.8970
G01 X18.5256 Y5.9619
G01 X18.5195 Y5.9672
G01 X18.5092 Y5.9750
G01 X18.5092 Y6.8520
G01 X18.5195 Y6.8598
G01 X18.5256 Y6.8651
G01 X18.5911 Y6.9244
G01 X18.6026 Y6.9359
G01 X18.6672 Y7.0075
G01 X18.7295 Y7.0915
G01 X18.7792 Y7.1741
G01 X18.7869 Y7.1885
G01 X18.8279 Y7.2757
G01 X18.8632 Y7.3742
G01 X18.8886 Y7.4756
G01 X18.9029 Y7.5710
G01 X18.9045 Y7.5872
G01 X18.9090 Y7.6835
G01 X18.9045 Y7.7798
G01 X18.9029 Y7.7960
G01 X18.8886 Y7.8914
G01 X18.8643 Y7.9889
G01 X18.8606 Y8.0005
G01 X18.8309 Y8.0837
G01 X18.8246 Y8.0987
G01 X18.7832 Y8.1858
G01 X18.7295 Y8.2755
G01 X18.6672 Y8.3595
G01 X18.6026 Y8.4311
G01 X18.5911 Y8.4426
G01 X18.5195 Y8.5072
G01 X18.4421 Y8.5648
G01 X18.4286 Y8.5738
G01 X18.3458 Y8.6232
G01 X18.2513 Y8.6679
G01 X18.1528 Y8.7032
G01 X18.0593 Y8.7268
G01 X18.0434 Y8.7300
G01 X17.9560 Y8.7429
G01 X17.9398 Y8.7445
G01 X17.8435 Y8.7490
G01 X17.7472 Y8.7445
G01 X17.7310 Y8.7429
G01 X17.6436 Y8.7300
G01 X17.6277 Y8.7268
G01 X17.5342 Y8.7032
G01 X17.4357 Y8.6679
G01 X17.3485 Y8.6269
G01 X17.3341 Y8.6192
G01 X17.2515 Y8.5695
G01 X17.1739 Y8.5122
G01 X17.1614 Y8.5019
G01 X17.0900 Y8.4370
G01 X17.0251 Y8.3656
G01 X17.0198 Y8.3595
G01 X17.0120 Y8.3492
G01 X5.9750 Y8.3492
G01 X5.9672 Y8.3595
G01 X5.9619 Y8.3656
G01 X5.9026 Y8.4311
G01 X5.8911 Y8.4426
G01 X5.8195 Y8.5072
G01 X5.7355 Y8.5695
G01 X5.6529 Y8.6192
G01 X5.6385 Y8.6269
G01 X5.5513 Y8.6679
G01 X5.4528 Y8.7032
G01 X5.3514 Y8.7286
G01 X5.2560 Y8.7429
G01 X5.2398 Y8.7445
G01 X5.1435 Y8.7490
G01 X5.0472 Y8.7445
G01 X5.0310 Y8.7429
G01 X4.9356 Y8.7286
G01 X4.8381 Y8.7043
G01 X4.8265 Y8.7006
G01 X4.7433 Y8.6709
G01 X4.7283 Y8.6646
G01 X4.6412 Y8.6232
G01 X4.5584 Y8.5738
G01 X4.5449 Y8.5648
G01 X4.4675 Y8.5072
G01 X4.3959 Y8.4426
G01 X4.3844 Y8.4311
G01 X4.3198 Y8.3595
G01 X4.2622 Y8.2821
G01 X4.2532 Y8.2686
G01 X4.2038 Y8.1858
G01 X4.1591 Y8.0913
G01 X4.1264 Y8.0005
G01 X4.1217 Y7.9850
G01 X4.1002 Y7.8993
G01 X4.0977 Y7.8874
G01 X4.0831 Y7.7879
G01 X4.0782 Y7.6916
G01 X4.0782 Y7.6754
G01 X4.0831 Y7.5791
G01 X4.0970 Y7.4836
G01 X4.1002 Y7.4677
G01 X4.1238 Y7.3742
G01 X4.1561 Y7.2833
G01 X4.1624 Y7.2683
G01 X4.2001 Y7.1885
G01 X4.2078 Y7.1741
G01 X4.2575 Y7.0915
G01 X4.3148 Y7.0139
G01 X4.3251 Y7.0014
G01 X4.3900 Y6.9300
G01 X4.4614 Y6.8651
G01 X4.4675 Y6.8598
G01 X4.4778 Y6.8520
G01 X4.4778 Y5.9750
G01 X4.4675 Y5.9672
G01 X4.4614 Y5.9619
G01 X4.3959 Y5.9026
G01 X4.3844 Y5.8911
G01 X4.3198 Y5.8195
G01 X4.2575 Y5.7355
G01 X4.2078 Y5.6529
G01 X4.2001 Y5.6385
G01 X4.1591 Y5.5513
G01 X4.1238 Y5.4528
G01 X4.0984 Y5.3514
G01 X4.0841 Y5.2560
G01 X4.0825 Y5.2398
G01 X4.0780 Y5.1435
G01 X4.0825 Y5.0472
G01 X4.0841 Y5.0310
G01 X4.0984 Y4.9356
G01 X4.1227 Y4.8381
G01 X4.1264 Y4.8265
G01 X4.1561 Y4.7433
G01 X4.1624 Y4.7283
G01 X4.2038 Y4.6412
G01 X4.2532 Y4.5584
G01 X4.2622 Y4.5449
G01 X4.3198 Y4.4675
G01 X4.3844 Y4.3959
G01 X4.3959 Y4.3844
G01 X4.4675 Y4.3198
G01 X4.5449 Y4.2622
G01 X4.5584 Y4.2532
G01 X4.6412 Y4.2038
G01 X4.7357 Y4.1591
G01 X4.8265 Y4.1264
G01 X4.8420 Y4.1217
G01 X4.9356 Y4.0984
G01 X5.0310 Y4.0841
G01 X5.0472 Y4.0825
G01 X5.1435 Y4.0780
G01 X5.2479 Y4.0831
G01 X5.3434 Y4.0970
G01 X5.3593 Y4.1002
G01 X5.4528 Y4.1238
G01 X5.5437 Y4.1561
G01 X5.5587 Y4.1624
G01 X5.6385 Y4.2001
G01 X5.6529 Y4.2078
G01 X5.7355 Y4.2575
G01 X5.8131 Y4.3148
G01 X5.8256 Y4.3251
G01 X5.8970 Y4.3900
G01 X5.9619 Y4.4614
G01 X5.9672 Y4.4675
G01 X5.9750 Y4.4778
G00 Z2.0000
G00 X6.2088 Y10.2316
G01 F60.00
G01 Z-0.2001
G01 F320.00
G01 X6.2039 Y10.3279
G01 X6.1886 Y10.4314
G01 X6.1632 Y10.5328
G01 X6.1279 Y10.6313
G01 X6.0832 Y10.7258
G01 X6.0295 Y10.8155
G01 X5.9672 Y10.8995
G01 X5.8970 Y10.9770
G01 X5.8195 Y11.0472
G01 X5.7355 Y11.1095
G01 X5.6458 Y11.1632
G01 X5.5513 Y11.2079
G01 X5.4528 Y11.2432
G01 X5.3514 Y11.2686
G01 X5.2479 Y11.2839
G01 X5.1435 Y11.2890
G01 X5.0391 Y11.2839
G01 X4.9356 Y11.2686
G01 X4.8342 Y11.2432
G01 X4.7357 Y11.2079
G01 X4.6412 Y11.1632
G01 X4.5515 Y11.1095
G01 X4.4675 Y11.0472
G01 X4.3900 Y10.9770
G01 X4.3198 Y10.8995
G01 X4.2575 Y10.8155
G01 X4.2038 Y10.7258
G01 X4.1591 Y10.6313
G01 X4.1238 Y10.5328
G01 X4.0984 Y10.4314
G01 X4.0831 Y10.3279
G01 X4.0780 Y10.2235
G01 X4.0831 Y10.1191
G01 X4.0984 Y10.0156
G01 X4.1238 Y9.9142
G01 X4.1591 Y9.8157
G01 X4.2038 Y9.7212
G01 X4.2575 Y9.6315
G01 X4.3198 Y9.5475
G01 X4.3900 Y9.4700
G01 X4.4675 Y9.3998
G01 X4.5515 Y9.3375
G01 X4.6412 Y9.2838
G01 X4.7357 Y9.2391
G01 X4.8342 Y9.2038
G01 X4.9356 Y9.1784
G01 X5.0391 Y9.1631
G01 X5.1435 Y9.1580
G01 X5.2479 Y9.1631
G01 X5.3514 Y9.1784
G01 X5.4528 Y9.2038
G01 X5.5513 Y9.2391
G01 X5.6458 Y9.2838
G01 X5.7355 Y9.3375
G01 X5.8195 Y9.3998
G01 X5.8970 Y9.4700
G01 X5.9672 Y9.5475
G01 X6.0295 Y9.6315
G01 X6.0832 Y9.7212
G01 X6.1279 Y9.8157
G01 X6.1632 Y9.9142
G01 X6.1886 Y10.0156
G01 X6.2039 Y10.1191
G01 X6.2088 Y10.2154
G01 X6.2088 Y10.2316
G00 Z2.0000
G00 X6.2142 Y11.4935
G01 F60.00
G01 Z-0.2001
G01 F320.00
G01 X6.2912 Y11.4240
G01 X6.3049 Y11.4113
G01 X6.3313 Y11.3849
G01 X6.4157 Y11.2917
G01 X6.4394 Y11.2629
G01 X6.4507 Y11.2480
G01 X6.5143 Y11.1619
G01 X6.5249 Y11.1465
G01 X6.5449 Y11.1149
G01 X6.5903 Y11.0392
G01 X6.6087 Y11.0067
G01 X6.6255 Y10.9733
G01 X6.6632 Y10.8934
G01 X6.6784 Y10.8593
G01 X6.6853 Y10.8419
G01 X6.7277 Y10.7236
G01 X6.7333 Y10.7058
G01 X6.7433 Y10.6698
G01 X6.7647 Y10.5841
G01 X6.7729 Y10.5476
G01 X6.7793 Y10.5108
G01 X6.7923 Y10.4234
G01 X6.7968 Y10.3863
G01 X6.7996 Y10.3491
G01 X6.8039 Y10.2609
G01 X6.8048 Y10.2235
G01 X6.8039 Y10.1861
G01 X6.7996 Y10.0979
G01 X6.7968 Y10.0607
G01 X6.7923 Y10.0236
G01 X6.7793 Y9.9362
G01 X6.7729 Y9.8994
G01 X6.7647 Y9.8629
G01 X6.7433 Y9.7772
G01 X6.7333 Y9.7412
G01 X6.7216 Y9.7058
G01 X6.6918 Y9.6226
G01 X6.6784 Y9.5877
G01 X6.6710 Y9.5706
G01 X6.6255 Y9.4737
G01 X6.6087 Y9.4403
G01 X6.5903 Y9.4078
G01 X6.5449 Y9.3321
G01 X6.5249 Y9.3005
