(G-CODE GENERATED BY FLATCAM v8.994 - www.flatcam.org - Version Date: 2020/11/7)

(Name: Conn3 - NC Drill Data - [Through Hole].drl_cnc)
(Type: G-code from Geometry)
(Units: MM)

(Created on Tuesday, 10 December 2024 at 11:24)

(This preprocessor is the default preprocessor used by FlatCAM.)
(It is made to work with MACH3 compatible motion controllers.)


(TOOLS DIAMETER: )
(Tool: 1 -> Dia: 0.889)

(FEEDRATE Z: )
(Tool: 1 -> Feedrate: 300)

(FEEDRATE RAPIDS: )
(Tool: 1 -> Feedrate Rapids: 1500)

(Z_CUT: )
(Tool: 1 -> Z_Cut: -2.0)

(Tools Offset: )
(Tool: 1 -> Offset Z: 0.0)

(Z_MOVE: )
(Tool: 1 -> Z_Move: 2)

(Z Toolchange: 15 mm)
(X,Y Toolchange: 0.0000, 0.0000 mm)
(Z Start: None mm)
(Z End: 0.5 mm)
(X,Y End: None mm)
(Steps per circle: 64)
(Preprocessor Excellon: default)

(X range:    4.6990 ...   89.4080  mm)
(Y range:    4.6990 ...   58.9280  mm)

(Spindle Speed: 0 RPM)
G21
G90
G94

G01 F300.00
G00 Z15.0000

G01 F300.00
M03
G00 X5.1435 Y5.1435
G01 Z-2.0000
G01 Z0
G00 Z2.0000
G00 X5.1435 Y7.6835
G01 Z-2.0000
G01 Z0
G00 Z2.0000
G00 X5.1435 Y10.2235
G01 Z-2.0000
G01 Z0
G00 Z2.0000
G00 X5.1435 Y12.7635
G01 Z-2.0000
G01 Z0
G00 Z2.0000
G00 X5.1435 Y15.3035
G01 Z-2.0000
G01 Z0
G00 Z2.0000
G00 X5.1435 Y17.8435
G01 Z-2.0000
G01 Z0
G00 Z2.0000
G00 X5.1435 Y20.3835
G01 Z-2.0000
G01 Z0
G00 Z2.0000
G00 X5.1435 Y22.9235
G01 Z-2.0000
G01 Z0
G00 Z2.0000
G00 X5.1435 Y25.4635
G01 Z-2.0000
G01 Z0
G00 Z2.0000
G00 X5.1435 Y28.0035
G01 Z-2.0000
G01 Z0
G00 Z2.0000
G00 X5.1435 Y30.5435
G01 Z-2.0000
G01 Z0
G00 Z2.0000
G00 X5.1435 Y33.0835
G01 Z-2.0000
G01 Z0
G00 Z2.0000
G00 X5.1435 Y35.6235
G01 Z-2.0000
G01 Z0
G00 Z2.0000
G00 X5.1435 Y38.1635
G01 Z-2.0000
G01 Z0
G00 Z2.0000
G00 X5.1435 Y40.7035
G01 Z-2.0000
G01 Z0
G00 Z2.0000
G00 X5.1435 Y43.2435
G01 Z-2.0000
G01 Z0
G00 Z2.0000
G00 X17.8435 Y43.2435
G01 Z-2.0000
G01 Z0
G00 Z2.0000
G00 X17.8435 Y40.7035
G01 Z-2.0000
G01 Z0
G00 Z2.0000
G00 X17.8435 Y38.1635
G01 Z-2.0000
G01 Z0
G00 Z2.0000
G00 X17.8435 Y35.6235
G01 Z-2.0000
G01 Z0
G00 Z2.0000
G00 X17.8435 Y33.0835
G01 Z-2.0000
G01 Z0
G00 Z2.0000
G00 X17.8435 Y30.5435
G01 Z-2.0000
G01 Z0
G00 Z2.0000
G00 X17.8435 Y28.0035
G01 Z-2.0000
G01 Z0
G00 Z2.0000
G00 X30.5435 Y28.0035
G01 Z-2.0000
G01 Z0
G00 Z2.0000
G00 X30.5435 Y30.5435
G01 Z-2.0000
G01 Z0
G00 Z2.0000
G00 X30.5435 Y33.0835
G01 Z-2.0000
G01 Z0
G00 Z2.0000
G00 X30.5435 Y35.6235
G01 Z-2.0000
G01 Z0
G00 Z2.0000
G00 X30.5435 Y38.1635
G01 Z-2.0000
G01 Z0
G00 Z2.0000
G00 X30.5435 Y40.7035
G01 Z-2.0000
G01 Z0
G00 Z2.0000
G00 X30.5435 Y43.2435
G01 Z-2.0000
G01 Z0
G00 Z2.0000
G00 X38.1635 Y43.2435
G01 Z-2.0000
G01 Z0
G00 Z2.0000
G00 X40.7035 Y43.2435
G01 Z-2.0000
G01 Z0
G00 Z2.0000
G00 X40.7035 Y40.7035
G01 Z-2.0000
G01 Z0
G00 Z2.0000
G00 X38.1635 Y40.7035
G01 Z-2.0000
G01 Z0
G00 Z2.0000
G00 X38.1635 Y38.1635
G01 Z-2.0000
G01 Z0
G00 Z2.0000
G00 X38.1635 Y35.6235
G01 Z-2.0000
G01 Z0
G00 Z2.0000
G00 X38.1635 Y33.0835
G01 Z-2.0000
G01 Z0
G00 Z2.0000
G00 X38.1635 Y30.5435
G01 Z-2.0000
G01 Z0
G00 Z2.0000
G00 X38.1635 Y28.0035
G01 Z-2.0000
G01 Z0
G00 Z2.0000
G00 X38.1635 Y25.4635
G01 Z-2.0000
G01 Z0
G00 Z2.0000
G00 X38.1635 Y22.9235
G01 Z-2.0000
G01 Z0
G00 Z2.0000
G00 X40.7035 Y22.9235
G01 Z-2.0000
G01 Z0
G00 Z2.0000
G00 X40.7035 Y25.4635
G01 Z-2.0000
G01 Z0
G00 Z2.0000
G00 X40.7035 Y28.0035
G01 Z-2.0000
G01 Z0
G00 Z2.0000
G00 X40.7035 Y30.5435
G01 Z-2.0000
G01 Z0
G00 Z2.0000
G00 X40.7035 Y33.0835
G01 Z-2.0000
G01 Z0
G00 Z2.0000
G00 X40.7035 Y35.6235
G01 Z-2.0000
G01 Z0
G00 Z2.0000
G00 X40.7035 Y38.1635
G01 Z-2.0000
G01 Z0
G00 Z2.0000
G00 X53.4035 Y40.7035
G01 Z-2.0000
G01 Z0
G00 Z2.0000
G00 X53.4035 Y38.1635
G01 Z-2.0000
G01 Z0
G00 Z2.0000
G00 X53.4035 Y35.6235
G01 Z-2.0000
G01 Z0
G00 Z2.0000
G00 X53.4035 Y33.0835
G01 Z-2.0000
G01 Z0
G00 Z2.0000
G00 X53.4035 Y30.5435
G01 Z-2.0000
G01 Z0
G00 Z2.0000
G00 X53.3438 Y28.0035
G01 Z-2.0000
G01 Z0
G00 Z2.0000
G00 X53.3438 Y25.4635
G01 Z-2.0000
G01 Z0
G00 Z2.0000
G00 X53.3438 Y22.9235
G01 Z-2.0000
G01 Z0
G00 Z2.0000
G00 X53.3438 Y20.3835
G01 Z-2.0000
G01 Z0
G00 Z2.0000
G00 X53.4035 Y17.8435
G01 Z-2.0000
G01 Z0
G00 Z2.0000
G00 X53.4035 Y15.3035
G01 Z-2.0000
G01 Z0
G00 Z2.0000
G00 X55.9435 Y15.3035
G01 Z-2.0000
G01 Z0
G00 Z2.0000
G00 X55.9435 Y17.8435
G01 Z-2.0000
G01 Z0
G00 Z2.0000
G00 X55.8838 Y20.3835
G01 Z-2.0000
G01 Z0
G00 Z2.0000
G00 X55.8838 Y22.9235
G01 Z-2.0000
G01 Z0
G00 Z2.0000
G00 X55.8838 Y25.4635
G01 Z-2.0000
G01 Z0
G00 Z2.0000
G00 X55.8838 Y28.0035
G01 Z-2.0000
G01 Z0
G00 Z2.0000
G00 X55.9435 Y30.5435
G01 Z-2.0000
G01 Z0
G00 Z2.0000
G00 X55.9435 Y33.0835
G01 Z-2.0000
G01 Z0
G00 Z2.0000
G00 X55.9435 Y35.6235
G01 Z-2.0000
G01 Z0
G00 Z2.0000
G00 X55.9435 Y38.1635
G01 Z-2.0000
G01 Z0
G00 Z2.0000
G00 X55.9435 Y40.7035
G01 Z-2.0000
G01 Z0
G00 Z2.0000
G00 X66.1035 Y58.4835
G01 Z-2.0000
G01 Z0
G00 Z2.0000
G00 X68.6435 Y58.4835
G01 Z-2.0000
G01 Z0
G00 Z2.0000
G00 X71.1835 Y58.4835
G01 Z-2.0000
G01 Z0
G00 Z2.0000
G00 X73.7235 Y58.4835
G01 Z-2.0000
G01 Z0
G00 Z2.0000
G00 X76.2635 Y58.4835
G01 Z-2.0000
G01 Z0
G00 Z2.0000
G00 X76.2635 Y45.7835
G01 Z-2.0000
G01 Z0
G00 Z2.0000
G00 X73.7235 Y45.7835
G01 Z-2.0000
G01 Z0
G00 Z2.0000
G00 X71.1835 Y45.7835
G01 Z-2.0000
G01 Z0
G00 Z2.0000
G00 X68.6435 Y45.7835
G01 Z-2.0000
G01 Z0
G00 Z2.0000
G00 X66.1035 Y45.7835
G01 Z-2.0000
G01 Z0
G00 Z2.0000
G00 X63.5635 Y40.7035
G01 Z-2.0000
G01 Z0
G00 Z2.0000
G00 X63.5635 Y38.1635
G01 Z-2.0000
G01 Z0
G00 Z2.0000
G00 X63.5635 Y35.6235
G01 Z-2.0000
G01 Z0
G00 Z2.0000
G00 X63.5635 Y33.0835
G01 Z-2.0000
G01 Z0
G00 Z2.0000
G00 X63.5635 Y30.5435
G01 Z-2.0000
G01 Z0
G00 Z2.0000
G00 X63.5038 Y28.0035
G01 Z-2.0000
G01 Z0
G00 Z2.0000
G00 X63.5038 Y25.4635
G01 Z-2.0000
G01 Z0
G00 Z2.0000
G00 X63.5038 Y22.9235
G01 Z-2.0000
G01 Z0
G00 Z2.0000
G00 X63.5038 Y20.3835
G01 Z-2.0000
G01 Z0
G00 Z2.0000
G00 X63.5635 Y17.8435
G01 Z-2.0000
G01 Z0
G00 Z2.0000
G00 X63.5635 Y15.3035
G01 Z-2.0000
G01 Z0
G00 Z2.0000
G00 X63.5635 Y12.7635
G01 Z-2.0000
G01 Z0
G00 Z2.0000
G00 X76.2635 Y10.2235
G01 Z-2.0000
G01 Z0
G00 Z2.0000
G00 X76.2635 Y12.7635
G01 Z-2.0000
G01 Z0
G00 Z2.0000
G00 X76.2635 Y15.3035
G01 Z-2.0000
G01 Z0
G00 Z2.0000
G00 X76.2635 Y17.8435
G01 Z-2.0000
G01 Z0
G00 Z2.0000
G00 X76.2635 Y20.3835
G01 Z-2.0000
G01 Z0
G00 Z2.0000
G00 X76.2635 Y22.9235
G01 Z-2.0000
G01 Z0
G00 Z2.0000
G00 X88.9635 Y22.9235
G01 Z-2.0000
G01 Z0
G00 Z2.0000
G00 X88.9635 Y20.3835
G01 Z-2.0000
G01 Z0
G00 Z2.0000
G00 X88.9635 Y17.8435
G01 Z-2.0000
G01 Z0
G00 Z2.0000
G00 X88.9635 Y15.3035
G01 Z-2.0000
G01 Z0
G00 Z2.0000
G00 X88.9635 Y12.7635
G01 Z-2.0000
G01 Z0
G00 Z2.0000
G00 X88.9635 Y10.2235
G01 Z-2.0000
G01 Z0
G00 Z2.0000
G00 X88.9635 Y7.6835
G01 Z-2.0000
G01 Z0
G00 Z2.0000
G00 X88.9635 Y5.1435
G01 Z-2.0000
G01 Z0
G00 Z2.0000
G00 X76.2635 Y5.1435
G01 Z-2.0000
G01 Z0
G00 Z2.0000
G00 X76.2635 Y7.6835
G01 Z-2.0000
G01 Z0
G00 Z2.0000
G00 X63.5635 Y5.1435
G01 Z-2.0000
G01 Z0
G00 Z2.0000
G00 X63.5635 Y7.6835
G01 Z-2.0000
G01 Z0
G00 Z2.0000
G00 X63.5635 Y10.2235
G01 Z-2.0000
G01 Z0
G00 Z2.0000
G00 X55.9435 Y12.7635
G01 Z-2.0000
G01 Z0
G00 Z2.0000
G00 X55.9435 Y10.2235
G01 Z-2.0000
G01 Z0
G00 Z2.0000
G00 X55.9435 Y7.6835
G01 Z-2.0000
G01 Z0
G00 Z2.0000
G00 X55.9435 Y5.1435
G01 Z-2.0000
G01 Z0
G00 Z2.0000
G00 X53.4035 Y5.1435
G01 Z-2.0000
G01 Z0
G00 Z2.0000
G00 X53.4035 Y7.6835
G01 Z-2.0000
G01 Z0
G00 Z2.0000
G00 X53.4035 Y10.2235
G01 Z-2.0000
G01 Z0
G00 Z2.0000
G00 X53.4035 Y12.7635
G01 Z-2.0000
G01 Z0
G00 Z2.0000
G00 X40.7035 Y10.2235
G01 Z-2.0000
G01 Z0
G00 Z2.0000
G00 X40.7035 Y12.7635
G01 Z-2.0000
G01 Z0
G00 Z2.0000
G00 X40.7035 Y15.3035
G01 Z-2.0000
G01 Z0
G00 Z2.0000
G00 X40.7035 Y17.8435
G01 Z-2.0000
G01 Z0
G00 Z2.0000
G00 X38.1635 Y17.8435
G01 Z-2.0000
G01 Z0
G00 Z2.0000
G00 X38.1635 Y15.3035
G01 Z-2.0000
G01 Z0
G00 Z2.0000
G00 X38.1635 Y12.7635
G01 Z-2.0000
G01 Z0
G00 Z2.0000
G00 X38.1635 Y10.2235
G01 Z-2.0000
G01 Z0
G00 Z2.0000
G00 X38.1635 Y7.6835
G01 Z-2.0000
G01 Z0
G00 Z2.0000
G00 X40.7035 Y7.6835
G01 Z-2.0000
G01 Z0
G00 Z2.0000
G00 X40.7035 Y5.1435
G01 Z-2.0000
G01 Z0
G00 Z2.0000
G00 X38.1635 Y5.1435
G01 Z-2.0000
G01 Z0
G00 Z2.0000
G00 X30.5435 Y5.1435
G01 Z-2.0000
G01 Z0
G00 Z2.0000
G00 X30.5435 Y7.6835
G01 Z-2.0000
G01 Z0
G00 Z2.0000
G00 X30.5435 Y10.2235
G01 Z-2.0000
G01 Z0
G00 Z2.0000
G00 X30.5435 Y12.7635
G01 Z-2.0000
G01 Z0
G00 Z2.0000
G00 X30.5435 Y15.3035
G01 Z-2.0000
G01 Z0
G00 Z2.0000
G00 X30.5435 Y17.8435
G01 Z-2.0000
G01 Z0
G00 Z2.0000
G00 X30.5435 Y20.3835
G01 Z-2.0000
G01 Z0
G00 Z2.0000
G00 X30.5435 Y22.9235
G01 Z-2.0000
G01 Z0
G00 Z2.0000
G00 X30.5435 Y25.4635
G01 Z-2.0000
G01 Z0
G00 Z2.0000
G00 X17.8435 Y25.4635
G01 Z-2.0000
G01 Z0
G00 Z2.0000
G00 X17.8435 Y22.9235
G01 Z-2.0000
G01 Z0
G00 Z2.0000
G00 X17.8435 Y20.3835
G01 Z-2.0000
G01 Z0
G00 Z2.0000
G00 X17.8435 Y17.8435
G01 Z-2.0000
G01 Z0
G00 Z2.0000
G00 X17.8435 Y15.3035
G01 Z-2.0000
G01 Z0
G00 Z2.0000
G00 X17.8435 Y12.7635
G01 Z-2.0000
G01 Z0
G00 Z2.0000
G00 X17.8435 Y10.2235
G01 Z-2.0000
G01 Z0
G00 Z2.0000
G00 X17.8435 Y7.6835
G01 Z-2.0000
G01 Z0
G00 Z2.0000
G00 X17.8435 Y5.1435
G01 Z-2.0000
G01 Z0
G00 Z2.0000
M05
G00 Z0.50


