(G-CODE GENERATED BY FLATCAM v8.994 - www.flatcam.org - Version Date: 2020/11/7)

(Name: Conn3 - Outline.gbr_iso_combined_cnc)
(Type: G-code from Geometry)
(Units: MM)

(Created on Tuesday, 10 December 2024 at 11:24)

(This preprocessor is the default preprocessor used by FlatCAM.)
(It is made to work with MACH3 compatible motion controllers.)

(TOOL DIAMETER: 1.5 mm)
(Feedrate_XY: 120.0 mm/min)
(Feedrate_Z: 60.0 mm/min)
(Feedrate rapids 1500.0 mm/min)

(Z_Cut: -2.4 mm)
(Z_Move: 2.0 mm)
(Z Start: None mm)
(Z End: 15.0 mm)
(X,Y End: None mm)
(Steps per circle: 64)
(Preprocessor Geometry: default)

(X range:   -0.7500 ...   94.8570  mm)
(Y range:   -0.7500 ...   64.3770  mm)

(Spindle Speed: 0.0 RPM)
G21
G90
G94

G01 F120.00
G00 Z15.0000

M03
G01 F120.00
G00 X-0.7500 Y48.3235
G01 F60.00
G01 Z-2.4000
G01 F120.00
G01 X-0.7500 Y0.0635
G01 X-0.7498 Y0.0451
G01 X-0.7488 Y0.0205
G01 X-0.7461 Y-0.0162
G01 X-0.7441 Y-0.0345
G01 X-0.7378 Y-0.0771
G01 X-0.7344 Y-0.0952
G01 X-0.7263 Y-0.1311
G01 X-0.7201 Y-0.1550
G01 X-0.7150 Y-0.1727
G01 X-0.7094 Y-0.1902
G01 X-0.7014 Y-0.2135
G01 X-0.6949 Y-0.2307
G01 X-0.6809 Y-0.2647
G01 X-0.6624 Y-0.3037
G01 X-0.6451 Y-0.3361
G01 X-0.6333 Y-0.3563
G01 X-0.6230 Y-0.3730
G01 X-0.6025 Y-0.4037
G01 X-0.5880 Y-0.4236
G01 X-0.5654 Y-0.4526
G01 X-0.5535 Y-0.4667
G01 X-0.5385 Y-0.4836
G01 X-0.5246 Y-0.4986
G01 X-0.4986 Y-0.5246
G01 X-0.4667 Y-0.5535
G01 X-0.4382 Y-0.5769
G01 X-0.4186 Y-0.5917
G01 X-0.3885 Y-0.6129
G01 X-0.3730 Y-0.6230
G01 X-0.3520 Y-0.6358
G01 X-0.3200 Y-0.6540
G01 X-0.3037 Y-0.6624
G01 X-0.2815 Y-0.6732
G01 X-0.2478 Y-0.6881
G01 X-0.2307 Y-0.6949
G01 X-0.2076 Y-0.7035
G01 X-0.1727 Y-0.7150
G01 X-0.1372 Y-0.7248
G01 X-0.1132 Y-0.7306
G01 X-0.0952 Y-0.7344
G01 X-0.0589 Y-0.7407
G01 X-0.0345 Y-0.7441
G01 X-0.0162 Y-0.7461
G01 X0.0205 Y-0.7488
G01 X0.0451 Y-0.7498
G01 X22.9235 Y-0.7500
G01 X22.9419 Y-0.7498
G01 X22.9665 Y-0.7488
G01 X23.0032 Y-0.7461
G01 X23.0215 Y-0.7441
G01 X23.0641 Y-0.7378
G01 X23.1002 Y-0.7306
G01 X23.1181 Y-0.7263
G01 X23.1420 Y-0.7201
G01 X23.1597 Y-0.7150
G01 X23.1772 Y-0.7094
G01 X23.2005 Y-0.7014
G01 X23.2177 Y-0.6949
G01 X23.2517 Y-0.6809
G01 X23.2907 Y-0.6624
G01 X23.3231 Y-0.6451
G01 X23.3390 Y-0.6358
G01 X23.3600 Y-0.6230
G01 X23.3907 Y-0.6025
G01 X23.4106 Y-0.5880
G01 X23.4396 Y-0.5654
G01 X23.4537 Y-0.5535
G01 X23.4721 Y-0.5371
G01 X23.4856 Y-0.5246
G01 X23.5116 Y-0.4986
G01 X23.5283 Y-0.4805
G01 X23.5524 Y-0.4526
G01 X23.5750 Y-0.4236
G01 X23.5895 Y-0.4037
G01 X23.5999 Y-0.3885
G01 X23.6196 Y-0.3574
G01 X23.6321 Y-0.3361
G01 X23.6410 Y-0.3200
G01 X23.6575 Y-0.2871
G01 X23.6679 Y-0.2647
G01 X23.6751 Y-0.2478
G01 X23.6884 Y-0.2135
G01 X23.6964 Y-0.1902
G01 X23.7071 Y-0.1550
G01 X23.7133 Y-0.1311
G01 X23.7214 Y-0.0952
G01 X23.7248 Y-0.0771
G01 X23.7286 Y-0.0528
G01 X23.7331 Y-0.0162
G01 X23.7347 Y0.0021
G01 X23.7361 Y0.0267
G01 X23.7370 Y0.0635
G01 X23.7370 Y48.3235
G01 X23.7368 Y48.3419
G01 X23.7358 Y48.3665
G01 X23.7331 Y48.4032
G01 X23.7311 Y48.4215
G01 X23.7248 Y48.4641
G01 X23.7214 Y48.4822
G01 X23.7133 Y48.5181
G01 X23.7071 Y48.5420
G01 X23.7020 Y48.5597
G01 X23.6964 Y48.5772
G01 X23.6884 Y48.6005
G01 X23.6751 Y48.6348
G01 X23.6679 Y48.6517
G01 X23.6494 Y48.6907
G01 X23.6321 Y48.7231
G01 X23.6228 Y48.7390
G01 X23.6100 Y48.7600
G01 X23.5999 Y48.7755
G01 X23.5787 Y48.8056
G01 X23.5639 Y48.8252
G01 X23.5524 Y48.8396
G01 X23.5283 Y48.8675
G01 X23.5116 Y48.8856
G01 X23.4988 Y48.8988
G01 X23.4721 Y48.9241
G01 X23.4537 Y48.9405
G01 X23.4252 Y48.9639
G01 X23.4106 Y48.9750
G01 X23.3907 Y48.9895
G01 X23.3600 Y49.0100
G01 X23.3390 Y49.0228
G01 X23.3070 Y49.0410
G01 X23.2907 Y49.0494
G01 X23.2685 Y49.0602
G01 X23.2517 Y49.0679
G01 X23.2177 Y49.0819
G01 X23.1946 Y49.0905
G01 X23.1597 Y49.1020
G01 X23.1242 Y49.1118
G01 X23.1002 Y49.1176
G01 X23.0641 Y49.1248
G01 X23.0459 Y49.1277
G01 X23.0215 Y49.1311
G01 X23.0032 Y49.1331
G01 X22.9665 Y49.1358
G01 X22.9419 Y49.1368
G01 X0.0451 Y49.1368
G01 X0.0205 Y49.1358
G01 X-0.0162 Y49.1331
G01 X-0.0528 Y49.1286
G01 X-0.0771 Y49.1248
G01 X-0.0952 Y49.1214
G01 X-0.1132 Y49.1176
G01 X-0.1372 Y49.1118
G01 X-0.1727 Y49.1020
G01 X-0.2076 Y49.0905
G01 X-0.2307 Y49.0819
G01 X-0.2478 Y49.0751
G01 X-0.2815 Y49.0602
G01 X-0.3037 Y49.0494
G01 X-0.3200 Y49.0410
G01 X-0.3361 Y49.0321
G01 X-0.3574 Y49.0196
G01 X-0.3885 Y48.9999
G01 X-0.4186 Y48.9787
G01 X-0.4382 Y48.9639
G01 X-0.4526 Y48.9524
G01 X-0.4667 Y48.9405
G01 X-0.4851 Y48.9241
G01 X-0.5118 Y48.8988
G01 X-0.5246 Y48.8856
G01 X-0.5413 Y48.8675
G01 X-0.5654 Y48.8396
G01 X-0.5769 Y48.8252
G01 X-0.5917 Y48.8056
G01 X-0.6129 Y48.7755
G01 X-0.6326 Y48.7444
G01 X-0.6451 Y48.7231
G01 X-0.6540 Y48.7070
G01 X-0.6624 Y48.6907
G01 X-0.6732 Y48.6685
G01 X-0.6881 Y48.6348
G01 X-0.7014 Y48.6005
G01 X-0.7094 Y48.5772
G01 X-0.7150 Y48.5597
G01 X-0.7201 Y48.5420
G01 X-0.7263 Y48.5181
G01 X-0.7344 Y48.4822
G01 X-0.7407 Y48.4459
G01 X-0.7441 Y48.4215
G01 X-0.7461 Y48.4032
G01 X-0.7477 Y48.3849
G01 X-0.7491 Y48.3603
G01 X-0.7500 Y48.3235
G00 Z2.0000
G00 X24.6500 Y48.3235
G01 F60.00
G01 Z-2.4000
G01 F120.00
G01 X24.6500 Y0.0635
G01 X24.6509 Y0.0267
G01 X24.6523 Y0.0021
G01 X24.6539 Y-0.0162
G01 X24.6584 Y-0.0528
G01 X24.6622 Y-0.0771
G01 X24.6656 Y-0.0952
G01 X24.6694 Y-0.1132
G01 X24.6752 Y-0.1372
G01 X24.6850 Y-0.1727
G01 X24.6906 Y-0.1902
G01 X24.6986 Y-0.2135
G01 X24.7119 Y-0.2478
G01 X24.7191 Y-0.2647
G01 X24.7295 Y-0.2871
G01 X24.7460 Y-0.3200
G01 X24.7549 Y-0.3361
G01 X24.7674 Y-0.3574
G01 X24.7770 Y-0.3730
G01 X24.7975 Y-0.4037
G01 X24.8120 Y-0.4236
G01 X24.8346 Y-0.4526
G01 X24.8587 Y-0.4805
G01 X24.8754 Y-0.4986
G01 X24.9014 Y-0.5246
G01 X24.9195 Y-0.5413
G01 X24.9474 Y-0.5654
G01 X24.9618 Y-0.5769
G01 X24.9814 Y-0.5917
G01 X25.0115 Y-0.6129
G01 X25.0426 Y-0.6326
G01 X25.0639 Y-0.6451
G01 X25.0963 Y-0.6624
G01 X25.1185 Y-0.6732
G01 X25.1353 Y-0.6809
G01 X25.1693 Y-0.6949
G01 X25.1924 Y-0.7035
G01 X25.2273 Y-0.7150
G01 X25.2628 Y-0.7248
G01 X25.2868 Y-0.7306
G01 X25.3048 Y-0.7344
G01 X25.3411 Y-0.7407
G01 X25.3655 Y-0.7441
G01 X25.3838 Y-0.7461
G01 X25.4205 Y-0.7488
G01 X25.4451 Y-0.7498
G01 X45.7835 Y-0.7500
G01 X45.8203 Y-0.7491
G01 X45.8449 Y-0.7477
G01 X45.8632 Y-0.7461
G01 X45.8815 Y-0.7441
G01 X45.9059 Y-0.7407
G01 X45.9422 Y-0.7344
G01 X45.9781 Y-0.7263
G01 X46.0020 Y-0.7201
G01 X46.0197 Y-0.7150
G01 X46.0372 Y-0.7094
G01 X46.0605 Y-0.7014
G01 X46.0948 Y-0.6881
G01 X46.1117 Y-0.6809
G01 X46.1341 Y-0.6705
G01 X46.1670 Y-0.6540
G01 X46.1831 Y-0.6451
G01 X46.2044 Y-0.6326
G01 X46.2200 Y-0.6230
G01 X46.2507 Y-0.6025
G01 X46.2706 Y-0.5880
G01 X46.2996 Y-0.5654
G01 X46.3275 Y-0.5413
G01 X46.3456 Y-0.5246
G01 X46.3716 Y-0.4986
G01 X46.3883 Y-0.4805
G01 X46.4005 Y-0.4667
G01 X46.4239 Y-0.4382
G01 X46.4387 Y-0.4186
G01 X46.4599 Y-0.3885
G01 X46.4796 Y-0.3574
G01 X46.4921 Y-0.3361
G01 X46.5010 Y-0.3200
G01 X46.5175 Y-0.2871
G01 X46.5279 Y-0.2647
G01 X46.5419 Y-0.2307
G01 X46.5505 Y-0.2076
G01 X46.5620 Y-0.1727
G01 X46.5718 Y-0.1372
G01 X46.5776 Y-0.1132
G01 X46.5814 Y-0.0952
G01 X46.5877 Y-0.0589
G01 X46.5911 Y-0.0345
G01 X46.5947 Y0.0021
G01 X46.5961 Y0.0267
G01 X46.5970 Y0.0635
G01 X46.5970 Y48.3235
G01 X46.5961 Y48.3603
G01 X46.5947 Y48.3849
G01 X46.5931 Y48.4032
G01 X46.5886 Y48.4398
G01 X46.5848 Y48.4641
G01 X46.5814 Y48.4822
G01 X46.5776 Y48.5002
G01 X46.5718 Y48.5242
G01 X46.5620 Y48.5597
G01 X46.5564 Y48.5772
G01 X46.5484 Y48.6005
G01 X46.5419 Y48.6177
G01 X46.5279 Y48.6517
G01 X46.5175 Y48.6741
G01 X46.5010 Y48.7070
G01 X46.4921 Y48.7231
G01 X46.4796 Y48.7444
G01 X46.4599 Y48.7755
G01 X46.4495 Y48.7907
G01 X46.4350 Y48.8106
G01 X46.4124 Y48.8396
G01 X46.3883 Y48.8675
G01 X46.3716 Y48.8856
G01 X46.3456 Y48.9116
G01 X46.3321 Y48.9241
G01 X46.3137 Y48.9405
G01 X46.2852 Y48.9639
G01 X46.2656 Y48.9787
G01 X46.2355 Y48.9999
G01 X46.2044 Y49.0196
G01 X46.1831 Y49.0321
G01 X46.1507 Y49.0494
G01 X46.1285 Y49.0602
G01 X46.0948 Y49.0751
G01 X46.0777 Y49.0819
G01 X46.0546 Y49.0905
G01 X46.0197 Y49.1020
G01 X45.9842 Y49.1118
G01 X45.9602 Y49.1176
G01 X45.9422 Y49.1214
G01 X45.9059 Y49.1277
G01 X45.8815 Y49.1311
G01 X45.8632 Y49.1331
G01 X45.8265 Y49.1358
G01 X45.8019 Y49.1368
G01 X25.4451 Y49.1368
G01 X25.4205 Y49.1358
G01 X25.3838 Y49.1331
G01 X25.3655 Y49.1311
G01 X25.3411 Y49.1277
G01 X25.3048 Y49.1214
G01 X25.2868 Y49.1176
G01 X25.2628 Y49.1118
G01 X25.2273 Y49.1020
G01 X25.1924 Y49.0905
G01 X25.1693 Y49.0819
G01 X25.1522 Y49.0751
G01 X25.1353 Y49.0679
G01 X25.1129 Y49.0575
G01 X25.0800 Y49.0410
G01 X25.0639 Y49.0321
G01 X25.0426 Y49.0196
G01 X25.0115 Y48.9999
G01 X24.9814 Y48.9787
G01 X24.9618 Y48.9639
G01 X24.9474 Y48.9524
G01 X24.9333 Y48.9405
G01 X24.9149 Y48.9241
G01 X24.8882 Y48.8988
G01 X24.8629 Y48.8721
G01 X24.8465 Y48.8537
G01 X24.8346 Y48.8396
G01 X24.8120 Y48.8106
G01 X24.7975 Y48.7907
G01 X24.7871 Y48.7755
G01 X24.7770 Y48.7600
G01 X24.7642 Y48.7390
G01 X24.7460 Y48.7070
G01 X24.7295 Y48.6741
G01 X24.7191 Y48.6517
G01 X24.7119 Y48.6348
G01 X24.7051 Y48.6177
G01 X24.6965 Y48.5946
G01 X24.6850 Y48.5597
G01 X24.6752 Y48.5242
G01 X24.6694 Y48.5002
G01 X24.6656 Y48.4822
G01 X24.6593 Y48.4459
G01 X24.6559 Y48.4215
G01 X24.6539 Y48.4032
G01 X24.6523 Y48.3849
G01 X24.6509 Y48.3603
G01 X24.6500 Y48.3235
G00 Z2.0000
G00 X70.3700 Y28.0035
G01 F60.00
G01 Z-2.4000
G01 F120.00
G01 X70.3700 Y0.0635
G01 X70.3709 Y0.0267
G01 X70.3723 Y0.0021
G01 X70.3739 Y-0.0162
G01 X70.3784 Y-0.0528
G01 X70.3822 Y-0.0771
G01 X70.3894 Y-0.1132
G01 X70.3999 Y-0.1550
G01 X70.4106 Y-0.1902
G01 X70.4186 Y-0.2135
G01 X70.4319 Y-0.2478
G01 X70.4391 Y-0.2647
G01 X70.4495 Y-0.2871
G01 X70.4660 Y-0.3200
G01 X70.4842 Y-0.3520
G01 X70.4970 Y-0.3730
G01 X70.5175 Y-0.4037
G01 X70.5431 Y-0.4382
G01 X70.5665 Y-0.4667
G01 X70.5954 Y-0.4986
G01 X70.6214 Y-0.5246
G01 X70.6533 Y-0.5535
G01 X70.6818 Y-0.5769
G01 X70.6964 Y-0.5880
G01 X70.7163 Y-0.6025
G01 X70.7315 Y-0.6129
G01 X70.7470 Y-0.6230
G01 X70.7680 Y-0.6358
G01 X70.8000 Y-0.6540
G01 X70.8163 Y-0.6624
G01 X70.8385 Y-0.6732
G01 X70.8553 Y-0.6809
G01 X70.8893 Y-0.6949
G01 X70.9298 Y-0.7094
G01 X70.9650 Y-0.7201
G01 X71.0068 Y-0.7306
G01 X71.0429 Y-0.7378
G01 X71.0611 Y-0.7407
G01 X71.0855 Y-0.7441
G01 X71.1038 Y-0.7461
G01 X71.1221 Y-0.7477
G01 X71.1467 Y-0.7491
G01 X71.1835 Y-0.7500
G01 X94.0435 Y-0.7500
G01 X94.0803 Y-0.7491
G01 X94.1049 Y-0.7477
G01 X94.1232 Y-0.7461
G01 X94.1598 Y-0.7416
G01 X94.1841 Y-0.7378
G01 X94.2202 Y-0.7306
G01 X94.2620 Y-0.7201
G01 X94.2972 Y-0.7094
G01 X94.3205 Y-0.7014
G01 X94.3548 Y-0.6881
G01 X94.3717 Y-0.6809
G01 X94.3941 Y-0.6705
G01 X94.4270 Y-0.6540
G01 X94.4590 Y-0.6358
G01 X94.4800 Y-0.6230
G01 X94.5107 Y-0.6025
G01 X94.5452 Y-0.5769
G01 X94.5737 Y-0.5535
G01 X94.6056 Y-0.5246
G01 X94.6316 Y-0.4986
G01 X94.6605 Y-0.4667
G01 X94.6839 Y-0.4382
G01 X94.6950 Y-0.4236
G01 X94.7095 Y-0.4037
G01 X94.7199 Y-0.3885
G01 X94.7396 Y-0.3574
G01 X94.7521 Y-0.3361
G01 X94.7610 Y-0.3200
G01 X94.7694 Y-0.3037
G01 X94.7802 Y-0.2815
G01 X94.7879 Y-0.2647
G01 X94.8019 Y-0.2307
G01 X94.8164 Y-0.1902
G01 X94.8271 Y-0.1550
G01 X94.8376 Y-0.1132
G01 X94.8414 Y-0.0952
G01 X94.8477 Y-0.0589
G01 X94.8511 Y-0.0345
G01 X94.8531 Y-0.0162
G01 X94.8547 Y0.0021
G01 X94.8561 Y0.0267
G01 X94.8570 Y0.0635
G01 X94.8570 Y28.0035
G01 X94.8561 Y28.0403
G01 X94.8547 Y28.0649
G01 X94.8531 Y28.0832
G01 X94.8486 Y28.1198
G01 X94.8448 Y28.1441
G01 X94.8376 Y28.1802
G01 X94.8271 Y28.2220
G01 X94.8164 Y28.2572
G01 X94.8084 Y28.2805
G01 X94.7951 Y28.3148
G01 X94.7802 Y28.3485
G01 X94.7694 Y28.3707
G01 X94.7610 Y28.3870
G01 X94.7428 Y28.4190
G01 X94.7300 Y28.4400
G01 X94.7095 Y28.4707
G01 X94.6839 Y28.5052
G01 X94.6605 Y28.5337
G01 X94.6316 Y28.5656
G01 X94.6056 Y28.5916
G01 X94.5737 Y28.6205
G01 X94.5452 Y28.6439
G01 X94.5306 Y28.6550
G01 X94.5107 Y28.6695
G01 X94.4955 Y28.6799
G01 X94.4800 Y28.6900
G01 X94.4590 Y28.7028
G01 X94.4270 Y28.7210
G01 X94.4107 Y28.7294
G01 X94.3885 Y28.7402
G01 X94.3717 Y28.7479
G01 X94.3377 Y28.7619
G01 X94.2972 Y28.7764
G01 X94.2620 Y28.7871
G01 X94.2202 Y28.7976
G01 X94.1841 Y28.8048
G01 X94.1659 Y28.8077
G01 X94.1415 Y28.8111
G01 X94.1232 Y28.8131
G01 X94.1049 Y28.8147
G01 X94.0803 Y28.8161
G01 X94.0435 Y28.8170
G01 X71.1651 Y28.8168
G01 X71.1405 Y28.8158
G01 X71.1038 Y28.8131
G01 X71.0672 Y28.8086
G01 X71.0429 Y28.8048
G01 X71.0248 Y28.8014
G01 X71.0068 Y28.7976
G01 X70.9828 Y28.7918
G01 X70.9473 Y28.7820
G01 X70.9124 Y28.7705
G01 X70.8893 Y28.7619
G01 X70.8722 Y28.7551
G01 X70.8553 Y28.7479
G01 X70.8329 Y28.7375
G01 X70.8000 Y28.7210
G01 X70.7680 Y28.7028
G01 X70.7470 Y28.6900
G01 X70.7315 Y28.6799
G01 X70.7163 Y28.6695
G01 X70.6964 Y28.6550
G01 X70.6674 Y28.6324
G01 X70.6395 Y28.6083
G01 X70.6214 Y28.5916
G01 X70.6082 Y28.5788
G01 X70.5954 Y28.5656
G01 X70.5787 Y28.5475
G01 X70.5546 Y28.5196
G01 X70.5320 Y28.4906
G01 X70.5175 Y28.4707
G01 X70.5071 Y28.4555
G01 X70.4874 Y28.4244
G01 X70.4749 Y28.4031
G01 X70.4660 Y28.3870
G01 X70.4576 Y28.3707
G01 X70.4468 Y28.3485
G01 X70.4319 Y28.3148
G01 X70.4186 Y28.2805
G01 X70.4106 Y28.2572
G01 X70.4050 Y28.2397
G01 X70.3952 Y28.2042
G01 X70.3894 Y28.1802
G01 X70.3856 Y28.1622
G01 X70.3793 Y28.1259
G01 X70.3759 Y28.1015
G01 X70.3739 Y28.0832
G01 X70.3723 Y28.0649
G01 X70.3709 Y28.0403
G01 X70.3700 Y28.0035
G00 Z2.0000
G00 X81.3435 Y64.3770
G01 F60.00
G01 Z-2.4000
G01 F120.00
G01 X61.0235 Y64.3770
G01 X61.0051 Y64.3768
G01 X60.9805 Y64.3758
G01 X60.9621 Y64.3747
G01 X60.9255 Y64.3711
G01 X60.8829 Y64.3648
G01 X60.8468 Y64.3576
G01 X60.8289 Y64.3533
G01 X60.8050 Y64.3471
G01 X60.7873 Y64.3420
G01 X60.7524 Y64.3305
G01 X60.7293 Y64.3219
G01 X60.6953 Y64.3079
G01 X60.6785 Y64.3002
G01 X60.6563 Y64.2894
G01 X60.6400 Y64.2810
G01 X60.6080 Y64.2628
G01 X60.5870 Y64.2500
G01 X60.5715 Y64.2399
G01 X60.5414 Y64.2187
G01 X60.5218 Y64.2039
G01 X60.5074 Y64.1924
G01 X60.4795 Y64.1683
G01 X60.4614 Y64.1516
G01 X60.4354 Y64.1256
G01 X60.4229 Y64.1121
G01 X60.4065 Y64.0937
G01 X60.3946 Y64.0796
G01 X60.3720 Y64.0506
G01 X60.3575 Y64.0307
G01 X60.3471 Y64.0155
G01 X60.3274 Y63.9844
G01 X60.3149 Y63.9631
G01 X60.3060 Y63.9470
G01 X60.2895 Y63.9141
G01 X60.2791 Y63.8917
G01 X60.2651 Y63.8577
G01 X60.2586 Y63.8405
G01 X60.2506 Y63.8172
G01 X60.2450 Y63.7997
G01 X60.2352 Y63.7642
G01 X60.2294 Y63.7402
G01 X60.2222 Y63.7041
G01 X60.2193 Y63.6859
G01 X60.2159 Y63.6615
G01 X60.2139 Y63.6432
G01 X60.2112 Y63.6065
G01 X60.2102 Y63.5819
G01 X60.2100 Y46.5970
G01 X48.3051 Y46.5968
G01 X48.2805 Y46.5958
G01 X48.2438 Y46.5931
G01 X48.2255 Y46.5911
G01 X48.2011 Y46.5877
G01 X48.1648 Y46.5814
G01 X48.1468 Y46.5776
G01 X48.1228 Y46.5718
G01 X48.0873 Y46.5620
G01 X48.0524 Y46.5505
G01 X48.0293 Y46.5419
G01 X47.9953 Y46.5279
G01 X47.9785 Y46.5202
G01 X47.9563 Y46.5094
G01 X47.9400 Y46.5010
G01 X47.9080 Y46.4828
G01 X47.8870 Y46.4700
G01 X47.8563 Y46.4495
G01 X47.8414 Y46.4387
G01 X47.8218 Y46.4239
G01 X47.7933 Y46.4005
G01 X47.7749 Y46.3841
G01 X47.7482 Y46.3588
G01 X47.7354 Y46.3456
G01 X47.7187 Y46.3275
G01 X47.6946 Y46.2996
G01 X47.6831 Y46.2852
G01 X47.6683 Y46.2656
G01 X47.6471 Y46.2355
G01 X47.6370 Y46.2200
G01 X47.6242 Y46.1990
G01 X47.6060 Y46.1670
G01 X47.5976 Y46.1507
G01 X47.5791 Y46.1117
G01 X47.5719 Y46.0948
G01 X47.5586 Y46.0605
G01 X47.5506 Y46.0372
G01 X47.5450 Y46.0197
G01 X47.5399 Y46.0020
G01 X47.5337 Y45.9781
G01 X47.5294 Y45.9602
G01 X47.5222 Y45.9241
G01 X47.5159 Y45.8815
G01 X47.5123 Y45.8449
G01 X47.5112 Y45.8265
G01 X47.5102 Y45.8019
G01 X47.5100 Y45.7835
G01 X47.5100 Y0.0635
G01 X47.5109 Y0.0267
G01 X47.5123 Y0.0021
G01 X47.5159 Y-0.0345
G01 X47.5184 Y-0.0528
G01 X47.5222 Y-0.0771
G01 X47.5256 Y-0.0952
G01 X47.5337 Y-0.1311
G01 X47.5399 Y-0.1550
G01 X47.5506 Y-0.1902
G01 X47.5586 Y-0.2135
G01 X47.5651 Y-0.2307
G01 X47.5791 Y-0.2647
G01 X47.5895 Y-0.2871
G01 X47.6060 Y-0.3200
G01 X47.6149 Y-0.3361
G01 X47.6274 Y-0.3574
G01 X47.6471 Y-0.3885
G01 X47.6575 Y-0.4037
G01 X47.6720 Y-0.4236
G01 X47.6946 Y-0.4526
G01 X47.7187 Y-0.4805
G01 X47.7354 Y-0.4986
G01 X47.7482 Y-0.5118
G01 X47.7749 Y-0.5371
G01 X47.7933 Y-0.5535
G01 X47.8074 Y-0.5654
G01 X47.8364 Y-0.5880
G01 X47.8563 Y-0.6025
G01 X47.8870 Y-0.6230
G01 X47.9026 Y-0.6326
G01 X47.9239 Y-0.6451
G01 X47.9563 Y-0.6624
G01 X47.9953 Y-0.6809
G01 X48.0293 Y-0.6949
G01 X48.0465 Y-0.7014
G01 X48.0698 Y-0.7094
G01 X48.0873 Y-0.7150
G01 X48.1050 Y-0.7201
G01 X48.1289 Y-0.7263
G01 X48.1468 Y-0.7306
G01 X48.1829 Y-0.7378
G01 X48.2255 Y-0.7441
G01 X48.2621 Y-0.7477
G01 X48.2805 Y-0.7488
G01 X48.3051 Y-0.7498
G01 X48.3235 Y-0.7500
G01 X68.6619 Y-0.7498
G01 X68.6865 Y-0.7488
G01 X68.7232 Y-0.7461
G01 X68.7415 Y-0.7441
G01 X68.7659 Y-0.7407
G01 X68.8022 Y-0.7344
G01 X68.8202 Y-0.7306
G01 X68.8442 Y-0.7248
G01 X68.8797 Y-0.7150
G01 X68.9146 Y-0.7035
G01 X68.9377 Y-0.6949
G01 X68.9717 Y-0.6809
G01 X68.9885 Y-0.6732
G01 X69.0107 Y-0.6624
G01 X69.0270 Y-0.6540
G01 X69.0590 Y-0.6358
G01 X69.0800 Y-0.6230
G01 X69.1107 Y-0.6025
G01 X69.1306 Y-0.5880
G01 X69.1452 Y-0.5769
G01 X69.1737 Y-0.5535
G01 X69.1921 Y-0.5371
G01 X69.2188 Y-0.5118
G01 X69.2316 Y-0.4986
G01 X69.2483 Y-0.4805
G01 X69.2605 Y-0.4667
G01 X69.2839 Y-0.4382
G01 X69.2987 Y-0.4186
G01 X69.3199 Y-0.3885
G01 X69.3300 Y-0.3730
G01 X69.3428 Y-0.3520
G01 X69.3521 Y-0.3361
G01 X69.3694 Y-0.3037
G01 X69.3879 Y-0.2647
G01 X69.4019 Y-0.2307
G01 X69.4084 Y-0.2135
G01 X69.4164 Y-0.1902
G01 X69.4220 Y-0.1727
G01 X69.4271 Y-0.1550
G01 X69.4333 Y-0.1311
G01 X69.4376 Y-0.1132
G01 X69.4448 Y-0.0771
G01 X69.4511 Y-0.0345
G01 X69.4531 Y-0.0162
G01 X69.4558 Y0.0205
G01 X69.4568 Y0.0451
G01 X69.4570 Y0.0635
G01 X69.4570 Y39.8900
G01 X81.3619 Y39.8902
G01 X81.3865 Y39.8912
G01 X81.4232 Y39.8939
G01 X81.4415 Y39.8959
G01 X81.4659 Y39.8993
G01 X81.4841 Y39.9022
G01 X81.5202 Y39.9094
G01 X81.5442 Y39.9152
G01 X81.5797 Y39.9250
G01 X81.6146 Y39.9365
G01 X81.6377 Y39.9451
G01 X81.6717 Y39.9591
G01 X81.6885 Y39.9668
G01 X81.7107 Y39.9776
G01 X81.7270 Y39.9860
G01 X81.7590 Y40.0042
G01 X81.7800 Y40.0170
G01 X81.8107 Y40.0375
G01 X81.8306 Y40.0520
G01 X81.8596 Y40.0746
G01 X81.8737 Y40.0865
G01 X81.8921 Y40.1029
G01 X81.9188 Y40.1282
G01 X81.9316 Y40.1414
G01 X81.9483 Y40.1595
G01 X81.9724 Y40.1874
G01 X81.9839 Y40.2018
G01 X81.9987 Y40.2214
G01 X82.0199 Y40.2515
G01 X82.0396 Y40.2826
G01 X82.0521 Y40.3039
G01 X82.0694 Y40.3363
G01 X82.0775 Y40.3529
G01 X82.0879 Y40.3753
G01 X82.0951 Y40.3922
G01 X82.1019 Y40.4093
G01 X82.1105 Y40.4324
G01 X82.1164 Y40.4498
G01 X82.1271 Y40.4850
G01 X82.1376 Y40.5268
G01 X82.1448 Y40.5629
G01 X82.1477 Y40.5811
G01 X82.1511 Y40.6055
G01 X82.1531 Y40.6238
G01 X82.1547 Y40.6421
G01 X82.1561 Y40.6667
G01 X82.1570 Y40.7035
G01 X82.1568 Y63.5819
G01 X82.1558 Y63.6065
G01 X82.1531 Y63.6432
G01 X82.1511 Y63.6615
G01 X82.1477 Y63.6859
G01 X82.1414 Y63.7222
G01 X82.1333 Y63.7581
G01 X82.1271 Y63.7820
G01 X82.1220 Y63.7997
G01 X82.1164 Y63.8172
G01 X82.1084 Y63.8405
G01 X82.0951 Y63.8748
G01 X82.0879 Y63.8917
G01 X82.0775 Y63.9141
G01 X82.0610 Y63.9470
G01 X82.0428 Y63.9790
G01 X82.0300 Y64.0000
G01 X82.0199 Y64.0155
G01 X82.0095 Y64.0307
G01 X81.9950 Y64.0506
G01 X81.9724 Y64.0796
G01 X81.9483 Y64.1075
G01 X81.9316 Y64.1256
G01 X81.9188 Y64.1388
G01 X81.9056 Y64.1516
G01 X81.8875 Y64.1683
G01 X81.8596 Y64.1924
G01 X81.8306 Y64.2150
G01 X81.8107 Y64.2295
G01 X81.7955 Y64.2399
G01 X81.7644 Y64.2596
G01 X81.7431 Y64.2721
G01 X81.7270 Y64.2810
G01 X81.7107 Y64.2894
G01 X81.6885 Y64.3002
G01 X81.6548 Y64.3151
G01 X81.6377 Y64.3219
G01 X81.6146 Y64.3305
G01 X81.5797 Y64.3420
G01 X81.5442 Y64.3518
G01 X81.5202 Y64.3576
G01 X81.5022 Y64.3614
G01 X81.4659 Y64.3677
G01 X81.4415 Y64.3711
G01 X81.4232 Y64.3731
G01 X81.4049 Y64.3747
G01 X81.3803 Y64.3761
G01 X81.3435 Y64.3770
G00 Z2.0000
M05
G00 Z2.0000
G00 Z15.00


